lut_features/sample_luts/cinematic_orange_teal.cube
LUT_3D_SIZE 9
DOMAIN_MIN 0.0 0.0 0.0
DOMAIN_MAX 1.0 1.0 1.0
0.034823 0.034832 0.034831
0.113342 0.024400 0.037069
0.205155 0.017214 0.046189
0.310745 0.000000 0.058222
0.434417 0.000000 0.072958
0.577551 0.000000 0.090514
0.743324 0.000000 0.117677
0.906507 0.000000 0.157567
1.000000 0.000000 0.204215
0.008379 0.108074 0.007490
0.107682 0.103844 0.003553
0.210265 0.096812 0.011979
0.321672 0.084058 0.042397
0.446863 0.058347 0.065297
0.591057 0.000000 0.087589
0.756190 0.000000 0.117188
0.913041 0.000000 0.160704
1.000000 0.000000 0.207199
0.020570 0.203247 0.000000
0.106331 0.204020 0.000000
0.208257 0.206419 0.000000
0.319776 0.211054 0.000000
0.465473 0.200753 0.028571
0.619427 0.185867 0.070941
0.775047 0.167794 0.115283
0.927811 0.157638 0.164389
1.000000 0.147859 0.211831
0.000000 0.331556 0.000000
0.102498 0.333431 0.000000
0.220939 0.338115 0.000000
0.344337 0.345500 0.000000
0.476188 0.354444 0.000000
0.628216 0.356204 0.010169
0.790808 0.348765 0.095719
0.945967 0.344539 0.157947
1.000000 0.341086 0.207013
0.000000 0.487908 0.000000
0.108271 0.489196 0.000000
0.241752 0.492361 0.000000
0.372566 0.497668 0.000000
0.505413 0.505021 0.008818
0.641087 0.514159 0.027320
0.779234 0.524672 0.049318
0.950085 0.515557 0.119622
1.000000 0.507226 0.179867
0.078743 0.647169 0.046781
0.163308 0.648008 0.048842
0.278972 0.650086 0.052913
0.404993 0.653595 0.057423
0.535332 0.658460 0.063494
0.668237 0.664398 0.070532
0.802600 0.670938 0.077631
0.937232 0.677424 0.083581
1.000000 0.672266 0.117297
0.166363 0.801428 0.084510
0.221929 0.801810 0.084979
0.319180 0.802750 0.086105
0.435879 0.804306 0.087872
0.560466 0.806366 0.089972
0.688457 0.808653 0.091797
0.817614 0.810721 0.092396
0.946338 0.811946 0.090370
1.000000 0.811526 0.083580
0.218173 0.941026 0.094554
0.262115 0.940984 0.094342
0.346723 0.940851 0.093732
0.454434 0.940530 0.092391
0.572346 0.939842 0.089748
0.694422 0.938498 0.084829
0.817550 0.936073 0.075957
0.939587 0.932009 0.065346
1.000000 0.925577 0.046387
0.224682 1.000000 0.058258
0.265327 1.000000 0.057191
0.345012 1.000000 0.054302
0.447683 1.000000 0.048457
0.560523 1.000000 0.037574
0.677193 1.000000 0.019764
0.794344 1.000000 0.000000
0.909833 1.000000 0.000000
1.000000 1.000000 0.000000
0.031967 0.031259 0.115896
0.113895 0.021870 0.111847
0.200261 0.024411 0.104665
0.299153 0.019941 0.118248
0.420378 0.000000 0.141805
0.563108 0.000000 0.166371
0.729624 0.000000 0.194573
0.893564 0.000000 0.229186
1.000000 0.000000 0.268890
0.010221 0.105942 0.111344
0.103726 0.103730 0.103729
0.200114 0.101498 0.113400
0.308830 0.097022 0.128066
0.433607 0.083684 0.146795
0.578008 0.042909 0.169706
0.743768 0.000000 0.196350
0.901103 0.000000 0.232504
1.000000 0.000000 0.271690
0.013887 0.203622 0.102251
0.103235 0.204445 0.102372
0.207137 0.206880 0.102722
0.327305 0.207498 0.108936
0.464251 0.201570 0.138006
0.612876 0.193437 0.166394
0.766256 0.182497 0.198841
0.918564 0.177909 0.237049
1.000000 0.173173 0.276162
0.000000 0.332167 0.104266
0.102889 0.334067 0.104467
0.221575 0.338691 0.104813
0.345198 0.345970 0.104705
0.477110 0.354797 0.104322
0.634739 0.352506 0.138143
0.790240 0.349054 0.187411
0.941852 0.348325 0.233076
1.000000 0.347576 0.272095
0.000000 0.488337 0.113111
0.109558 0.489617 0.114338
0.242404 0.492764 0.117449
0.373003 0.498047 0.122917
0.505704 0.505377 0.130870
0.641247 0.514494 0.141116
0.785173 0.521944 0.156394
0.953016 0.513500 0.202816
1.000000 0.507340 0.248492
0.077981 0.647469 0.149798
0.162917 0.648305 0.150833
0.278791 0.650373 0.152828
0.404893 0.653868 0.155391
0.535260 0.658712 0.158928
0.668166 0.664624 0.163141
0.802512 0.671133 0.167486
0.937118 0.677582 0.171157
1.000000 0.669597 0.198568
0.165958 0.801570 0.170673
0.221621 0.801951 0.170965
0.318958 0.802884 0.171666
0.435702 0.804431 0.172770
0.560308 0.806475 0.174077
0.688302 0.808742 0.175194
0.817455 0.810784 0.175497
0.946169 0.811976 0.174100
1.000000 0.811516 0.169797
0.217972 0.941018 0.175930
0.261936 0.940973 0.175787
0.346566 0.940836 0.175377
0.454286 0.940508 0.174495
0.572199 0.939809 0.172797
0.694271 0.938447 0.169747
0.817394 0.936001 0.164537
0.939410 0.931910 0.158655
1.000000 0.925446 0.149337
0.224657 1.000000 0.154533
0.265289 1.000000 0.154004
0.344950 1.000000 0.152600
0.447598 1.000000 0.149891
0.560416 1.000000 0.145302
0.677069 1.000000 0.137943
0.794205 1.000000 0.126378
0.909684 1.000000 0.108047
1.000000 1.000000 0.077129
0.052693 0.020740 0.202131
0.116330 0.019179 0.199605
0.199388 0.024571 0.197503
0.299980 0.023100 0.200366
0.417137 0.014839 0.207162
0.552013 0.000000 0.237155
0.713512 0.000000 0.279412
0.874044 0.000000 0.320593
1.000000 0.000000 0.361421
0.028759 0.103538 0.197401
0.105269 0.103009 0.197663
0.199875 0.103109 0.199346
0.305837 0.104236 0.203651
0.425460 0.104521 0.213042
0.563865 0.093627 0.250790
0.726271 0.040768 0.288006
0.881402 0.021736 0.327234
1.000000 0.009761 0.366105
0.004297 0.203791 0.216009
0.101004 0.204722 0.213592
0.207768 0.207773 0.207771
0.320944 0.211241 0.223928
0.449172 0.214397 0.246285
0.595787 0.213632 0.273711
0.747475 0.211927 0.304922
0.899698 0.214564 0.339642
1.000000 0.216705 0.375059
0.000000 0.333803 0.219433
0.103127 0.335671 0.220498
0.222694 0.340149 0.222978
0.346916 0.347173 0.226636
0.485843 0.352480 0.235864
0.635849 0.352080 0.274836
0.781068 0.356259 0.311752
0.928723 0.360933 0.346992
1.000000 0.364285 0.377813
0.000000 0.489432 0.240513
0.111808 0.490690 0.241598
0.243722 0.493790 0.244330
0.374015 0.499010 0.249079
0.506477 0.506274 0.255893
0.641770 0.515327 0.264545
0.798128 0.515653 0.288046
0.954298 0.512263 0.326779
1.000000 0.510690 0.362225
0.077562 0.648216 0.271102
0.162714 0.649043 0.271934
0.278845 0.651085 0.273329
0.404992 0.654540 0.275540
0.535354 0.659330 0.278565
0.668211 0.665175 0.282125
0.802479 0.671605 0.285737
0.936988 0.677960 0.288715
1.000000 0.664905 0.320128
0.166003 0.801915 0.287384
0.221627 0.802290 0.287615
0.318914 0.803210 0.288168
0.435612 0.804731 0.289032
0.560170 0.806737 0.290042
0.688112 0.808952 0.290877
0.817208 0.810926 0.291037
0.945862 0.812036 0.289843
1.000000 0.811478 0.286421
0.218091 0.940985 0.290455
0.261989 0.940936 0.290335
0.346528 0.940789 0.289998
0.454165 0.940441 0.289286
0.572009 0.939712 0.287946
0.694022 0.938309 0.285597
0.817094 0.935807 0.281694
0.939026 0.931650 0.277324
1.000000 0.925104 0.270472
0.224895 1.000000 0.273855
0.265436 1.000000 0.273470
0.344969 1.000000 0.272458
0.447501 1.000000 0.270531
0.560228 1.000000 0.267342
0.676807 1.000000 0.262404
0.793887 1.000000 0.255040
0.909321 1.000000 0.244321
1.000000 1.000000 0.228953
0.066712 0.018918 0.288778
0.117830 0.022835 0.289260
0.201069 0.023950 0.292913
0.302698 0.021801 0.301561
0.421008 0.012166 0.314681
0.557894 0.000000 0.331407
0.715784 0.000000 0.350821
0.864973 0.000000 0.392886
1.000000 0.002159 0.443858
0.041619 0.102323 0.292540
0.109582 0.102526 0.294339
0.202138 0.103330 0.299234
0.308643 0.104517 0.308119
0.429620 0.104335 0.320807
0.569085 0.100293 0.337583
0.724643 0.086270 0.354910
0.869840 0.110881 0.404247
1.000000 0.130262 0.451921
0.016662 0.205686 0.309010
0.104970 0.206705 0.310927
0.209532 0.209327 0.315704
0.323888 0.213817 0.323884
0.451313 0.220268 0.336132
0.593667 0.225959 0.350502
0.735834 0.236495 0.386231
0.882779 0.248565 0.428973
1.000000 0.259023 0.469373
0.000000 0.335872 0.355785
0.090743 0.337612 0.355150
0.221945 0.341933 0.353271
0.349255 0.349260 0.349258
0.480691 0.356513 0.370305
0.618130 0.364902 0.396477
0.760957 0.373785 0.426273
0.907627 0.382355 0.458024
1.000000 0.389302 0.486388
0.000000 0.491358 0.366948
0.114476 0.492580 0.368061
0.245599 0.495599 0.370851
0.375673 0.500706 0.375665
0.507908 0.507845 0.382504
0.648772 0.514219 0.394162
0.800716 0.514381 0.430570
0.943941 0.518563 0.461622
1.000000 0.521933 0.488601
0.079930 0.649501 0.397133
0.164322 0.650306 0.397662
0.279970 0.652303 0.398972
0.405877 0.655687 0.401173
0.536068 0.660379 0.404164
0.668747 0.666103 0.407653
0.802810 0.672390 0.411148
0.953657 0.670292 0.425231
1.000000 0.662029 0.457389
0.168398 0.802490 0.412245
0.223343 0.802854 0.412459
0.319972 0.803748 0.412971
0.436242 0.805223 0.413765
0.560510 0.807161 0.414681
0.688226 0.809282 0.415410
0.817124 0.811137 0.415483
0.945595 0.812102 0.414273
1.000000 0.811371 0.411003
0.219787 0.940897 0.414381
0.263289 0.940841 0.414262
0.347321 0.940675 0.413931
0.454559 0.940293 0.413240
0.572112 0.939511 0.411966
0.693905 0.938034 0.409771
0.816799 0.935435 0.406187
0.938510 0.931162 0.402222
1.000000 0.924473 0.395863
0.226068 1.000000 0.398775
0.266315 1.000000 0.398421
0.345444 1.000000 0.397493
0.447635 1.000000 0.395741
0.560102 1.000000 0.392876
0.676482 1.000000 0.388509
0.793407 1.000000 0.382122
0.908718 1.000000 0.373054
1.000000 1.000000 0.360474
0.069825 0.021593 0.383710
0.121139 0.022270 0.386605
0.204641 0.022409 0.394290
0.307435 0.018986 0.407836
0.427006 0.007323 0.426741
0.565747 0.000000 0.450951
0.723264 0.000000 0.477264
0.869794 0.000000 0.495749
1.000000 0.070679 0.514425
0.050302 0.102242 0.393706
0.114083 0.102715 0.396748
0.205853 0.103734 0.404379
0.313195 0.104660 0.417369
0.435442 0.103656 0.435465
0.576422 0.098301 0.459246
0.728558 0.090828 0.481625
0.874392 0.124076 0.499503
1.000000 0.162083 0.517458
0.017408 0.207969 0.418668
0.106446 0.209024 0.421404
0.212051 0.211638 0.428199
0.327852 0.215989 0.439869
0.457020 0.222217 0.457334
0.599659 0.226407 0.476893
0.740903 0.241066 0.492102
0.885186 0.260516 0.508455
1.000000 0.282499 0.537080
0.059968 0.335949 0.466300
0.123179 0.339703 0.464093
0.224607 0.346226 0.466182
0.351830 0.352202 0.475207
0.484426 0.360226 0.484557
0.620436 0.370828 0.495736
0.759793 0.383845 0.508666
0.899716 0.398465 0.535123
1.000000 0.410940 0.570851
0.000000 0.493054 0.520691
0.090809 0.494199 0.519962
0.240898 0.497111 0.518106
0.376643 0.502304 0.514846
0.510139 0.510149 0.510146
0.643768 0.517990 0.531342
0.781843 0.526216 0.554033
0.922814 0.533870 0.577013
1.000000 0.539813 0.599996
0.088629 0.651340 0.524173
0.169129 0.652119 0.524711
0.282989 0.654052 0.526039
0.408110 0.657328 0.528265
0.537831 0.661873 0.531275
0.670121 0.667414 0.534762
0.808858 0.671390 0.540659
0.957704 0.667733 0.570987
1.000000 0.667007 0.596730
0.174874 0.803285 0.539096
0.228097 0.803634 0.539301
0.323042 0.804489 0.539789
0.438231 0.805894 0.540540
0.561800 0.807727 0.541389
0.689007 0.809707 0.542023
0.817485 0.811385 0.541973
0.945581 0.812132 0.540620
1.000000 0.804103 0.546401
0.224353 0.940715 0.540536
0.266902 0.940648 0.540406
0.349719 0.940454 0.540050
0.456012 0.940020 0.539318
0.572898 0.939158 0.537991
0.694200 0.937570 0.535740
0.816679 0.934828 0.532225
0.937979 0.930383 0.528234
1.000000 0.923482 0.521747
0.228903 1.000000 0.524641
0.268524 1.000000 0.524281
0.346802 1.000000 0.523340
0.448284 1.000000 0.521574
0.560224 1.000000 0.518708
0.676205 1.000000 0.514381
0.792816 1.000000 0.508125
0.907875 1.000000 0.499355
1.000000 1.000000 0.487365
0.070212 0.020601 0.489590
0.123334 0.020582 0.493755
0.208949 0.019389 0.504082
0.313681 0.014021 0.521443
0.434984 0.000000 0.545404
0.575769 0.000000 0.576538
0.728360 0.000000 0.605452
0.874158 0.000000 0.624269
1.000000 0.082765 0.643130
0.052087 0.102975 0.503344
0.116676 0.103412 0.507299
0.209934 0.104195 0.517066
0.319036 0.104452 0.533513
0.443214 0.102327 0.556629
0.585552 0.094543 0.586472
0.733367 0.097636 0.609894
0.878523 0.131048 0.628074
1.000000 0.168424 0.646169
0.011449 0.211208 0.535175
0.105683 0.212232 0.538637
0.214488 0.214733 0.547275
0.333017 0.219044 0.562531
0.463879 0.224354 0.584180
0.604389 0.229938 0.605192
0.745187 0.245131 0.620576
0.888750 0.264644 0.637109
1.000000 0.286977 0.651918
0.000000 0.345807 0.585233
0.090454 0.347245 0.588049
0.223784 0.350646 0.594883
0.354621 0.356033 0.603968
0.488174 0.363902 0.612911
0.624252 0.374318 0.624266
0.763179 0.387140 0.637309
0.904316 0.401837 0.650303
1.000000 0.417268 0.659138
0.137943 0.489121 0.644302
0.193785 0.490970 0.641302
0.280987 0.496647 0.634680
0.381567 0.506490 0.631780
0.513334 0.513201 0.638772
0.647561 0.521659 0.647437
0.784817 0.531319 0.654522
0.923055 0.541637 0.660966
1.000000 0.551657 0.672714
0.025698 0.652298 0.684685
0.146338 0.653022 0.683792
0.275208 0.654852 0.681500
0.407177 0.658071 0.677363
0.539948 0.662806 0.671074
0.672586 0.669086 0.662408
0.804523 0.674026 0.678154
0.938079 0.678097 0.695018
1.000000 0.680197 0.711734
0.186260 0.804278 0.666496
0.236671 0.804605 0.666688
0.328731 0.805404 0.667141
0.442030 0.806712 0.667828
0.564380 0.808402 0.668576
0.690712 0.810188 0.669064
0.818489 0.811621 0.668817
0.950369 0.810311 0.669206
1.000000 0.799686 0.692611
0.232538 0.940392 0.667065
0.273498 0.940309 0.666917
0.354246 0.940075 0.666514
0.458916 0.939569 0.665701
0.574655 0.938598 0.664251
0.695116 0.936859 0.661837
0.816814 0.933928 0.658440
0.937512 0.929245 0.654098
1.000000 0.922059 0.647219
0.233818 1.000000 0.650289
0.272429 1.000000 0.649908
0.349316 1.000000 0.648913
0.449640 1.000000 0.647054
0.560717 1.000000 0.644056
0.676045 1.000000 0.639564
0.792139 1.000000 0.633121
0.906775 1.000000 0.624168
1.000000 1.000000 0.612039
0.063716 0.017428 0.607033
0.122453 0.016685 0.611933
0.212667 0.013861 0.624001
0.320660 0.005892 0.644283
0.444767 0.000000 0.672868
0.587177 0.000000 0.709331
0.734339 0.000000 0.735284
0.879471 0.017949 0.754068
1.000000 0.096622 0.772721
0.043491 0.103842 0.623152
0.115271 0.104067 0.627763
0.213112 0.104288 0.639162
0.325500 0.103512 0.658528
0.453146 0.100337 0.686929
0.595861 0.087667 0.720488
0.739137 0.106786 0.739738
0.883586 0.139927 0.757844
1.000000 0.176190 0.775396
0.000000 0.215306 0.660518
0.099912 0.216266 0.664657
0.215947 0.218707 0.675219
0.338722 0.222775 0.693755
0.471163 0.226220 0.717910
0.609806 0.235041 0.735025
0.750419 0.250454 0.750397
0.893206 0.269905 0.766778
1.000000 0.291675 0.780294
0.000000 0.351568 0.719098
0.070491 0.352776 0.722275
0.222741 0.355717 0.727518
0.358616 0.360907 0.733789
0.492929 0.368560 0.742754
0.629046 0.378745 0.754061
0.767489 0.391294 0.766967
0.908234 0.405525 0.778697
1.000000 0.420402 0.787257
0.011107 0.502338 0.752551
0.132102 0.503394 0.753704
0.257737 0.506029 0.756579
0.386439 0.510554 0.761497
0.517690 0.516975 0.768397
0.651743 0.525048 0.776234
0.788586 0.534262 0.782773
0.926058 0.544090 0.788969
1.000000 0.553611 0.793815
0.226656 0.645718 0.815064
0.269730 0.646646 0.812379
0.351104 0.649323 0.805701
0.447679 0.655530 0.794846
0.545749 0.666107 0.787040
0.676322 0.671078 0.790290
0.808468 0.676462 0.793390
0.940848 0.681594 0.795620
1.000000 0.685595 0.796101
0.155956 0.803672 0.833006
0.216474 0.803956 0.832038
0.318698 0.804666 0.829552
0.438646 0.805875 0.825045
0.564825 0.807562 0.818119
0.692791 0.809609 0.808393
0.820249 0.811787 0.795515
0.945680 0.811068 0.805795
1.000000 0.807947 0.815491
0.244422 0.939869 0.793387
0.283246 0.939766 0.793213
0.361110 0.939479 0.792745
0.463453 0.938880 0.791814
0.577525 0.937766 0.790188
0.696757 0.935831 0.787532
0.817277 0.932663 0.784216
0.937126 0.927674 0.779412
1.000000 0.918613 0.773650
0.240795 1.000000 0.775330
0.278049 1.000000 0.774918
0.353029 1.000000 0.773846
0.451734 1.000000 0.771851
0.561596 1.000000 0.768650
0.675996 1.000000 0.763886
0.791349 1.000000 0.757102
0.905368 1.000000 0.747743
1.000000 1.000000 0.735153
0.042986 0.010637 0.736707
0.115657 0.009091 0.742082
0.214280 0.004339 0.755397
0.327568 0.000000 0.778166
0.456272 0.000000 0.811597
0.598859 0.000000 0.849716
0.741392 0.000000 0.866723
0.885740 0.045287 0.885095
1.000000 0.111452 0.902395
0.016124 0.104017 0.754463
0.106775 0.103930 0.759581
0.213977 0.103386 0.772356
0.332319 0.101656 0.794968
0.463198 0.095563 0.826460
0.604091 0.092083 0.854622
0.745965 0.118197 0.871097
0.889588 0.150595 0.888765
1.000000 0.185042 0.904427
0.000000 0.220462 0.797356
0.085669 0.221391 0.802243
0.215167 0.223436 0.814155
0.342860 0.225966 0.833677
0.477870 0.230188 0.853471
0.616390 0.241515 0.866465
0.756678 0.257055 0.881517
0.898557 0.276281 0.897418
1.000000 0.297178 0.909074
0.000000 0.357764 0.854016
0.069926 0.358883 0.855448
0.228049 0.361720 0.859039
0.364473 0.366738 0.865237
0.499060 0.374173 0.874044
0.634979 0.384086 0.885081
0.772773 0.396275 0.897594
0.913252 0.409848 0.907548
1.000000 0.424014 0.915575
0.045095 0.507564 0.883600
0.145892 0.508558 0.884723
0.266215 0.511042 0.887520
0.393128 0.515320 0.892293
0.523414 0.521410 0.898965
0.657633 0.528966 0.905188
0.793579 0.537663 0.911379
0.930025 0.546885 0.917126
1.000000 0.555698 0.921417
0.167926 0.658887 0.910135
0.210487 0.660572 0.909459
0.309499 0.662191 0.910670
0.427041 0.664935 0.912677
0.552346 0.668730 0.915335
0.681442 0.673315 0.918301
0.812349 0.678228 0.921028
0.943571 0.682805 0.922787
1.000000 0.686163 0.922690
0.306067 0.794472 0.968816
0.339807 0.794781 0.966524
0.410194 0.795673 0.960671
0.504149 0.797732 0.950266
0.603613 0.802473 0.935375
0.697405 0.811076 0.922769
0.822795 0.811805 0.921838
0.948215 0.811408 0.919364
1.000000 0.809073 0.914575
0.212093 0.937036 0.964286
0.258165 0.936896 0.963147
0.345496 0.936524 0.960226
0.455235 0.935810 0.954952
0.574200 0.934606 0.946872
0.696181 0.932706 0.935670
0.817509 0.929848 0.921821
0.936774 0.925583 0.903999
1.000000 0.916822 0.907968
0.249417 1.000000 0.899579
0.285075 1.000000 0.899130
0.357744 1.000000 0.897962
0.454436 1.000000 0.895798
0.562759 1.000000 0.892345
0.675967 1.000000 0.887236
0.790354 1.000000 0.880012
0.903557 1.000000 0.870113
1.000000 1.000000 0.856886
0.000000 0.000000 0.879553
0.097770 0.000000 0.885346
0.212249 0.000000 0.899977
0.334287 0.000000 0.925902
0.466388 0.000000 0.960279
0.607374 0.000000 0.983128
0.749625 0.000000 0.999627
0.892957 0.072132 1.000000
1.000000 0.126754 1.000000
0.000000 0.102715 0.898934
0.085701 0.102385 0.904766
0.211736 0.101251 0.919429
0.337642 0.097197 0.943500
0.471737 0.086974 0.974234
0.612469 0.105503 0.987912
0.753948 0.131643 1.000000
0.896517 0.162832 1.000000
1.000000 0.194898 1.000000
0.000000 0.225488 0.945907
0.045918 0.226010 0.950830
0.207442 0.227030 0.962878
0.346596 0.229890 0.976860
0.485867 0.237756 0.986786
0.624374 0.249377 0.999373
0.764033 0.264899 1.000000
0.905202 0.283544 1.000000
1.000000 0.303364 1.000000
0.000000 0.364800 0.987301
0.089648 0.365880 0.988696
0.237896 0.368624 0.992184
0.372906 0.373485 0.998180
0.506926 0.380690 1.000000
0.642202 0.390279 1.000000
0.779613 0.401906 1.000000
0.919405 0.414709 1.000000
1.000000 0.427994 1.000000
0.084606 0.513424 1.000000
0.165055 0.514354 1.000000
0.278009 0.516681 1.000000
0.401983 0.520696 1.000000
0.532007 0.526305 1.000000
0.665216 0.533330 1.000000
0.799862 0.541421 1.000000
0.934961 0.549919 1.000000
1.000000 0.557878 1.000000
0.183408 0.663539 1.000000
0.233606 0.664135 1.000000
0.325286 0.665614 1.000000
0.438336 0.668116 1.000000
0.560865 0.671565 1.000000
0.687994 0.675696 1.000000
0.817286 0.680052 1.000000
0.947034 0.683967 1.000000
1.000000 0.686556 1.000000
0.324562 0.799754 1.000000
0.346701 0.800996 1.000000
0.393671 0.804391 1.000000
0.465981 0.809453 1.000000
0.581228 0.810450 1.000000
0.702409 0.811309 1.000000
0.826082 0.811574 1.000000
0.950019 0.810617 1.000000
1.000000 0.807637 1.000000
0.353215 0.925040 1.000000
0.381840 0.924858 1.000000
0.444237 0.924430 1.000000
0.532216 0.923816 1.000000
0.632493 0.923411 1.000000
0.731370 0.924575 1.000000
0.818944 0.928692 1.000000
0.936346 0.922873 1.000000
1.000000 0.914330 1.000000
0.193658 1.000000 1.000000
0.240522 1.000000 1.000000
0.327620 1.000000 1.000000
0.435464 1.000000 1.000000
0.551284 1.000000 1.000000
0.669298 1.000000 1.000000
0.786461 1.000000 1.000000
0.900747 1.000000 1.000000
1.000000 0.999142 0.977244
