lut_features/sample_luts/cinematic_orange_teal.cube
LUT_3D_SIZE 33
DOMAIN_MIN 0.0 0.0 0.0
DOMAIN_MAX 1.0 1.0 1.0
0.034823 0.034832 0.034831
0.053650 0.032965 0.035075
0.070775 0.030907 0.035418
0.090943 0.028054 0.036029
0.113342 0.024400 0.037069
0.137310 0.020045 0.038751
0.159920 0.017621 0.041070
0.182073 0.017400 0.043679
0.205155 0.017214 0.046189
0.229905 0.013695 0.048928
0.255755 0.009122 0.051819
0.282696 0.003419 0.054915
0.310745 0.000000 0.058222
0.339921 0.000000 0.061715
0.370245 0.000000 0.065360
0.401737 0.000000 0.069119
0.434417 0.000000 0.072958
0.468309 0.000000 0.076843
0.503436 0.000000 0.080886
0.539824 0.000000 0.085418
0.577551 0.000000 0.090514
0.616807 0.000000 0.096285
0.658065 0.000000 0.102963
0.700304 0.000000 0.110129
0.743324 0.000000 0.117677
0.787141 0.000000 0.125226
0.828441 0.000000 0.134751
0.867380 0.000000 0.146091
0.906507 0.000000 0.157567
0.945775 0.000000 0.169149
0.985135 0.000000 0.180805
1.000000 0.000000 0.192504
1.000000 0.000000 0.204215
0.029055 0.050708 0.029062
0.049355 0.049362 0.027443
0.068411 0.047608 0.025995
0.091064 0.044116 0.030440
0.113515 0.040949 0.034399
0.137112 0.037576 0.037729
0.159518 0.036422 0.040087
0.182306 0.036309 0.041894
0.206455 0.033534 0.044180
0.231569 0.029685 0.046854
0.257634 0.025017 0.049844
0.284713 0.019347 0.053112
0.312851 0.012484 0.056610
0.342087 0.004218 0.060290
0.372452 0.000000 0.064105
0.403970 0.000000 0.068013
0.436670 0.000000 0.071979
0.470578 0.000000 0.075972
0.505717 0.000000 0.080156
0.542121 0.000000 0.084844
0.579881 0.000000 0.090105
0.619239 0.000000 0.096076
0.660514 0.000000 0.102918
0.702644 0.000000 0.110194
0.745574 0.000000 0.117753
0.789309 0.000000 0.125255
0.829654 0.000000 0.135346
0.868551 0.000000 0.146691
0.907634 0.000000 0.158167
0.946854 0.000000 0.169743
0.986166 0.000000 0.181389
1.000000 0.000000 0.193073
1.000000 0.000000 0.204766
0.023121 0.066216 0.023126
0.044360 0.065269 0.021666
0.064216 0.064222 0.020062
0.086667 0.062764 0.017847
0.113982 0.058845 0.021733
0.137724 0.056521 0.028877
0.160203 0.055951 0.032510
0.183810 0.053902 0.035782
0.208270 0.051051 0.039184
0.233556 0.047624 0.042758
0.259756 0.043360 0.046454
0.286939 0.037904 0.050287
0.315158 0.031223 0.054241
0.344456 0.023213 0.058289
0.374867 0.013645 0.062402
0.406422 0.002271 0.066552
0.439151 0.000000 0.070713
0.473084 0.000000 0.074864
0.508245 0.000000 0.079241
0.544676 0.000000 0.084127
0.582485 0.000000 0.089597
0.622041 0.000000 0.095842
0.663226 0.000000 0.102830
0.705239 0.000000 0.110235
0.748080 0.000000 0.117762
0.791725 0.000000 0.125218
0.831014 0.000000 0.135975
0.869864 0.000000 0.147332
0.908897 0.000000 0.158811
0.948065 0.000000 0.170383
0.987321 0.000000 0.182020
1.000000 0.000000 0.193691
1.000000 0.000000 0.205366
0.015622 0.085634 0.015627
0.037580 0.085051 0.014372
0.059517 0.084414 0.012996
0.083539 0.083544 0.011097
0.108847 0.082403 0.008742
0.133844 0.080799 0.008144
0.160331 0.077373 0.015129
0.185307 0.074622 0.022135
0.210363 0.071990 0.028345
0.236015 0.069153 0.034057
0.262474 0.065870 0.039575
0.289851 0.061905 0.044871
0.318222 0.056971 0.049892
0.347638 0.050680 0.054741
0.378144 0.042433 0.059464
0.409775 0.031630 0.064086
0.442567 0.018778 0.068615
0.476555 0.003655 0.073061
0.511765 0.000000 0.077768
0.548257 0.000000 0.082981
0.586167 0.000000 0.088790
0.625970 0.000000 0.095435
0.667002 0.000000 0.102640
0.708877 0.000000 0.110150
0.751601 0.000000 0.117630
0.794376 0.000000 0.125555
0.832937 0.000000 0.136798
0.871722 0.000000 0.148178
0.910684 0.000000 0.159669
0.949778 0.000000 0.171243
0.988958 0.000000 0.182872
1.000000 0.000000 0.194528
1.000000 0.000000 0.206183
0.008379 0.108074 0.007490
0.032000 0.107346 0.006691
0.056867 0.106389 0.005883
0.083347 0.104929 0.004855
0.107682 0.103844 0.003553
0.130787 0.103264 0.002053
0.154234 0.102827 0.000492
0.182238 0.100104 0.003980
0.210265 0.096812 0.011979
0.237512 0.093872 0.020174
0.264908 0.090941 0.027951
0.292887 0.087749 0.035333
0.321672 0.084058 0.042397
0.351389 0.079623 0.048791
0.382121 0.074152 0.054650
0.413929 0.067255 0.060121
0.446863 0.058347 0.065297
0.480973 0.046425 0.070266
0.516294 0.030079 0.075504
0.552912 0.010679 0.081233
0.591057 0.000000 0.087589
0.631019 0.000000 0.094732
0.671876 0.000000 0.102225
0.713612 0.000000 0.109739
0.756190 0.000000 0.117188
0.796986 0.000000 0.126443
0.835470 0.000000 0.137756
0.874170 0.000000 0.149184
0.913041 0.000000 0.160704
0.952038 0.000000 0.172291
0.991116 0.000000 0.183920
1.000000 0.000000 0.195565
1.000000 0.000000 0.207199
0.013675 0.128808 0.002210
0.038923 0.127999 0.001850
0.061964 0.127280 0.001446
0.084411 0.126757 0.000847
0.106933 0.126443 0.000076
0.130203 0.126197 0.000000
0.153999 0.126060 0.000000
0.178264 0.126062 0.000000
0.203708 0.125859 0.000000
0.235163 0.122257 0.004063
0.265146 0.119038 0.012913
0.294760 0.115963 0.021982
0.324623 0.112787 0.030813
0.355084 0.109287 0.039336
0.386350 0.105241 0.047146
0.418559 0.100416 0.054038
0.451807 0.094533 0.060275
0.486175 0.087233 0.066099
0.521728 0.078029 0.072163
0.558613 0.066155 0.078688
0.597270 0.050418 0.085917
0.637088 0.027434 0.093550
0.677808 0.000000 0.101176
0.719397 0.000000 0.108726
0.761811 0.000000 0.116183
0.800219 0.000000 0.127309
0.838612 0.000000 0.138741
0.877210 0.000000 0.150255
0.915970 0.000000 0.161833
0.954848 0.000000 0.173455
0.993802 0.000000 0.185100
1.000000 0.000000 0.196744
1.000000 0.000000 0.208363
0.023415 0.150982 0.000000
0.044162 0.150825 0.000000
0.062922 0.150738 0.000000
0.084020 0.150658 0.000000
0.106620 0.150614 0.000000
0.130141 0.150643 0.000000
0.154314 0.150774 0.000000
0.179034 0.151031 0.000000
0.204289 0.151426 0.000000
0.230112 0.151962 0.000000
0.260559 0.150375 0.000000
0.293502 0.146996 0.007137
0.325637 0.143801 0.016688
0.357675 0.140611 0.026418
0.390065 0.137236 0.035982
0.423100 0.133486 0.045046
0.456983 0.129170 0.052933
0.491865 0.124087 0.060090
0.527886 0.118040 0.067408
0.565441 0.110929 0.075206
0.604297 0.102079 0.083288
0.644045 0.090340 0.091234
0.684660 0.074221 0.099046
0.726111 0.050337 0.106726
0.765967 0.027247 0.116392
0.804035 0.014978 0.127976
0.842331 0.003094 0.139598
0.880816 0.000000 0.151254
0.919449 0.000000 0.162935
0.958191 0.000000 0.174627
0.997001 0.000000 0.186315
1.000000 0.000000 0.197979
1.000000 0.000000 0.209599
0.023120 0.176123 0.000000
0.043254 0.176154 0.000000
0.062213 0.176203 0.000000
0.083567 0.176294 0.000000
0.106497 0.176449 0.000000
0.130421 0.176693 0.000000
0.155057 0.177045 0.000000
0.180281 0.177523 0.000000
0.206061 0.178137 0.000000
0.232413 0.178891 0.000000
0.259379 0.179782 0.000000
0.287015 0.180801 0.000000
0.322911 0.177417 0.002744
0.357741 0.174163 0.012131
0.392174 0.170974 0.022237
0.426729 0.167709 0.032461
0.461783 0.164224 0.042477
0.497627 0.160395 0.051673
0.534683 0.156229 0.060899
0.572869 0.151349 0.069942
0.611843 0.145193 0.078649
0.651620 0.137363 0.087077
0.692194 0.127308 0.095260
0.732570 0.116576 0.104245
0.770347 0.111829 0.116265
0.808352 0.107050 0.128218
0.846556 0.102242 0.140127
0.884926 0.097405 0.152004
0.923426 0.092526 0.163851
0.962021 0.087581 0.175665
1.000000 0.082523 0.187437
1.000000 0.077283 0.199153
1.000000 0.071754 0.210799
0.020570 0.203247 0.000000
0.041049 0.203365 0.000000
0.060765 0.203506 0.000000
0.082785 0.203718 0.000000
0.106331 0.204020 0.000000
0.130850 0.204427 0.000000
0.156076 0.204955 0.000000
0.181890 0.205616 0.000000
0.208257 0.206419 0.000000
0.235185 0.207367 0.000000
0.262713 0.208460 0.000000
0.290889 0.209691 0.000000
0.319776 0.211054 0.000000
0.353720 0.210150 0.000000
0.391374 0.206924 0.008070
0.428421 0.203810 0.018139
0.465473 0.200753 0.028571
0.503178 0.197803 0.039649
0.541397 0.194536 0.050814
0.580113 0.190633 0.061186
0.619427 0.185867 0.070941
0.659398 0.179977 0.080199
0.699619 0.173304 0.089612
0.737241 0.170509 0.102594
0.775047 0.167794 0.115283
0.813029 0.165155 0.127763
0.851167 0.162589 0.140087
0.889437 0.160087 0.152289
0.927811 0.157638 0.164389
0.966258 0.155223 0.176395
1.000000 0.152815 0.188307
1.000000 0.150376 0.200123
1.000000 0.147859 0.211831
0.016117 0.232291 0.000000
0.037133 0.232470 0.000000
0.058252 0.232675 0.000000
0.081406 0.232975 0.000000
0.105892 0.233384 0.000000
0.131234 0.233917 0.000000
0.157211 0.234584 0.000000
0.183732 0.235396 0.000000
0.210773 0.236361 0.000000
0.238351 0.237481 0.000000
0.266505 0.238758 0.000000
0.295287 0.240192 0.000000
0.324765 0.241780 0.000000
0.355019 0.243522 0.000000
0.386399 0.245300 0.000000
0.427221 0.242371 0.003044
0.467419 0.239653 0.012046
0.507124 0.236818 0.022558
0.546688 0.233739 0.034461
0.586376 0.230256 0.047049
0.626374 0.226189 0.058625
0.666221 0.221966 0.070384
0.704028 0.219887 0.085331
0.741885 0.217949 0.099489
0.779825 0.216135 0.113097
0.817860 0.214426 0.126302
0.855987 0.212808 0.139202
0.894197 0.211264 0.151862
0.932471 0.209772 0.164322
0.970785 0.208312 0.176609
1.000000 0.206854 0.188738
1.000000 0.205366 0.200714
1.000000 0.203801 0.212372
0.009454 0.263277 0.000085
0.031216 0.263500 0.000041
0.054246 0.263753 0.000000
0.079135 0.264118 0.000000
0.104955 0.264610 0.000000
0.131393 0.265243 0.000000
0.158322 0.266026 0.000000
0.185706 0.266968 0.000000
0.213552 0.268077 0.000000
0.241896 0.269359 0.000000
0.270792 0.270820 0.000000
0.300309 0.272469 0.000000
0.330539 0.274324 0.000000
0.361670 0.276480 0.000000
0.393697 0.278851 0.000000
0.426468 0.281250 0.000000
0.465387 0.280628 0.000000
0.507764 0.277597 0.002151
0.549396 0.274421 0.012758
0.590654 0.270995 0.025052
0.630659 0.268106 0.042454
0.669359 0.266112 0.061687
0.707806 0.264342 0.078765
0.746111 0.262764 0.094507
0.784348 0.261348 0.109336
0.822561 0.260066 0.123505
0.860774 0.258893 0.137173
0.898995 0.257803 0.150448
0.937222 0.256769 0.163400
0.975442 0.255765 0.176079
1.000000 0.254759 0.188516
1.000000 0.253720 0.200731
1.000000 0.252570 0.211529
0.000856 0.296274 0.000000
0.023596 0.296532 0.000000
0.048769 0.296825 0.000000
0.076125 0.297245 0.000000
0.103709 0.297811 0.000000
0.131529 0.298535 0.000000
0.159621 0.299429 0.000000
0.188034 0.300506 0.000000
0.216835 0.301780 0.000000
0.246102 0.303273 0.000000
0.275978 0.305063 0.000000
0.306466 0.307077 0.000000
0.337537 0.309219 0.000000
0.369225 0.311463 0.000000
0.401561 0.313776 0.000000
0.434570 0.316125 0.000000
0.468268 0.318471 0.000000
0.503727 0.320210 0.000000
0.548018 0.316934 0.000000
0.590015 0.314278 0.006244
0.630875 0.311933 0.026672
0.670913 0.309887 0.049377
0.710367 0.308114 0.069414
0.749415 0.306580 0.087239
0.788184 0.305249 0.103642
0.826761 0.304086 0.119044
0.865207 0.303058 0.133698
0.903554 0.302131 0.147766
0.941822 0.301273 0.161361
0.980016 0.300453 0.174559
1.000000 0.299635 0.187413
1.000000 0.298762 0.198951
1.000000 0.297806 0.209820
0.000000 0.331556 0.000000
0.014864 0.331862 0.000000
0.042036 0.332212 0.000000
0.072707 0.332723 0.000000
0.102498 0.333431 0.000000
0.131991 0.334323 0.000000
0.161464 0.335402 0.000000
0.191077 0.336667 0.000000
0.220939 0.338115 0.000000
0.251133 0.339737 0.000000
0.281728 0.341520 0.000000
0.312780 0.343448 0.000000
0.344337 0.345500 0.000000
0.376440 0.347652 0.000000
0.409122 0.349875 0.000000
0.442410 0.352138 0.000000
0.476188 0.354444 0.000000
0.510038 0.356931 0.000000
0.544168 0.359566 0.000000
0.585014 0.358772 0.000000
0.628216 0.356204 0.010169
0.670116 0.353929 0.032910
0.711028 0.351947 0.056850
0.751195 0.350236 0.077360
0.790808 0.348765 0.095719
0.830005 0.347498 0.112636
0.868887 0.346396 0.128499
0.907526 0.345423 0.143550
0.945967 0.344539 0.157947
0.984238 0.343710 0.171803
1.000000 0.342877 0.184177
1.000000 0.342013 0.195766
1.000000 0.341086 0.207013
0.000000 0.369650 0.000000
0.003801 0.369965 0.000000
0.032600 0.370318 0.000000
0.067846 0.370822 0.000000
0.100391 0.371491 0.000000
0.131779 0.372334 0.000000
0.162700 0.373352 0.000000
0.193486 0.374547 0.000000
0.224335 0.375913 0.000000
0.255377 0.377444 0.000000
0.286705 0.379128 0.000000
0.318393 0.380949 0.000000
0.350499 0.382889 0.000000
0.383103 0.384910 0.000000
0.416224 0.386946 0.000000
0.449573 0.389123 0.000000
0.483163 0.391440 0.000000
0.517002 0.393895 0.000000
0.551092 0.396487 0.000000
0.585427 0.399213 0.000000
0.621877 0.401080 0.000000
0.666188 0.398512 0.016186
0.709056 0.396210 0.040921
0.750784 0.394181 0.064777
0.791618 0.392410 0.085434
0.831754 0.390870 0.104106
0.871342 0.389526 0.121376
0.910492 0.388338 0.137579
0.949287 0.387267 0.152931
0.987852 0.386254 0.166302
1.000000 0.385273 0.178954
1.000000 0.384285 0.191126
1.000000 0.383251 0.202861
0.000000 0.408891 0.000000
0.000000 0.409185 0.000000
0.017458 0.409515 0.000000
0.058413 0.409985 0.000000
0.095310 0.410610 0.000000
0.129345 0.411395 0.000000
0.162147 0.412346 0.000000
0.194389 0.413460 0.000000
0.226422 0.414735 0.000000
0.258955 0.416060 0.000000
0.291707 0.417474 0.000000
0.324467 0.419032 0.000000
0.357314 0.420734 0.000000
0.390302 0.422577 0.000000
0.423467 0.424558 0.000000
0.456834 0.426675 0.000000
0.490416 0.428924 0.000000
0.524221 0.431304 0.000000
0.558249 0.433810 0.000000
0.592496 0.436439 0.000000
0.626955 0.439186 0.002726
0.661612 0.442047 0.007567
0.703739 0.441022 0.024546
0.747493 0.438612 0.050002
0.789972 0.436447 0.073019
0.831420 0.434518 0.093514
0.872034 0.432803 0.112279
0.911988 0.431265 0.129364
0.951444 0.429856 0.144267
0.990434 0.428547 0.158413
1.000000 0.427297 0.171892
1.000000 0.426063 0.184774
1.000000 0.424803 0.197115
0.000000 0.448551 0.000000
0.000000 0.448787 0.000000
0.011329 0.449054 0.000000
0.056578 0.449434 0.000000
0.096671 0.449940 0.000000
0.132748 0.450580 0.000000
0.167089 0.451357 0.000000
0.200562 0.452275 0.000000
0.233589 0.453336 0.000000
0.266405 0.454539 0.000000
0.299154 0.455885 0.000000
0.331932 0.457371 0.000000
0.364800 0.458995 0.000000
0.397803 0.460756 0.000000
0.430969 0.462648 0.000000
0.464318 0.464671 0.000000
0.497862 0.466818 0.000000
0.531606 0.469087 0.000557
0.565550 0.471472 0.004579
0.599689 0.473970 0.009008
0.634015 0.476573 0.013858
0.668517 0.479277 0.019139
0.703181 0.482073 0.024860
0.740682 0.483539 0.035365
0.785234 0.480955 0.059554
0.828393 0.478580 0.081399
0.870453 0.476402 0.099935
0.911567 0.474410 0.117019
0.951882 0.472577 0.133118
0.991525 0.470866 0.148333
1.000000 0.469238 0.162756
1.000000 0.467651 0.176466
1.000000 0.466061 0.189528
0.000000 0.487908 0.000000
0.000000 0.488127 0.000000
0.030684 0.488374 0.000000
0.071885 0.488726 0.000000
0.108271 0.489196 0.000000
0.142645 0.489791 0.000000
0.176075 0.490514 0.000000
0.209028 0.491371 0.000000
0.241752 0.492361 0.000000
0.274390 0.493487 0.000000
0.307033 0.494748 0.000000
0.339745 0.496142 0.000000
0.372566 0.497668 0.000000
0.405527 0.499322 0.000000
0.438648 0.501102 0.001860
0.471941 0.503003 0.005160
0.505413 0.505021 0.008818
0.539068 0.507151 0.012850
0.572902 0.509388 0.017271
0.606911 0.511727 0.022091
0.641087 0.514159 0.027320
0.675417 0.516679 0.032963
0.709888 0.519278 0.039021
0.744482 0.521948 0.045237
0.779234 0.524672 0.049318
0.822214 0.523032 0.065267
0.866043 0.520372 0.084237
0.908602 0.517885 0.102395
0.950085 0.515557 0.119622
0.990654 0.513362 0.135927
1.000000 0.511268 0.151361
1.000000 0.509237 0.165987
1.000000 0.507226 0.179867
0.000000 0.527618 0.000000
0.020088 0.527818 0.000000
0.054085 0.528044 0.000000
0.088123 0.528367 0.000000
0.121104 0.528798 0.000000
0.153629 0.529344 0.000000
0.185956 0.530009 0.000000
0.218217 0.530797 0.000000
0.250490 0.531710 0.000787
0.282828 0.532748 0.002553
0.315265 0.533913 0.004589
0.347826 0.535201 0.006911
0.380531 0.536613 0.009535
0.413392 0.538144 0.012477
0.446418 0.539791 0.015753
0.479613 0.541551 0.019377
0.512979 0.543418 0.023361
0.546514 0.545388 0.027718
0.580214 0.547455 0.032457
0.614071 0.549611 0.037582
0.648075 0.551851 0.043006
0.682217 0.554166 0.048312
0.716550 0.556539 0.051238
0.750986 0.558969 0.054168
0.785505 0.561446 0.057080
0.820090 0.563958 0.059954
0.858227 0.564657 0.067788
0.902570 0.561669 0.086073
0.945543 0.558816 0.103998
0.987333 0.556089 0.121214
1.000000 0.553468 0.137610
1.000000 0.550921 0.153173
1.000000 0.548414 0.167928
0.017185 0.567509 0.008820
0.048981 0.567691 0.009161
0.076007 0.567895 0.009548
0.104817 0.568188 0.010103
0.134788 0.568578 0.010851
0.165443 0.569073 0.011809
0.196549 0.569676 0.012993
0.227986 0.570391 0.014418
0.259687 0.571220 0.016101
0.291617 0.572165 0.018055
0.323754 0.573224 0.020296
0.356086 0.574398 0.022838
0.388606 0.575684 0.025694
0.421310 0.577079 0.028876
0.454191 0.578581 0.032398
0.487246 0.580184 0.036269
0.520469 0.581885 0.040496
0.553853 0.583678 0.044867
0.587391 0.585556 0.049305
0.621142 0.587507 0.051839
0.655024 0.589529 0.054341
0.689022 0.591614 0.056875
0.723120 0.593752 0.059421
0.757305 0.595935 0.061963
0.791556 0.598151 0.064480
0.825856 0.600390 0.066952
0.860182 0.602639 0.069358
0.894514 0.604886 0.071675
0.937781 0.602285 0.087009
0.981092 0.599015 0.104502
1.000000 0.595836 0.121564
1.000000 0.592730 0.137945
1.000000 0.589671 0.153554
0.050491 0.607414 0.026529
0.074974 0.607576 0.026901
0.096577 0.607759 0.027322
0.121603 0.608020 0.027926
0.148965 0.608369 0.028739
0.177812 0.608811 0.029777
0.207645 0.609350 0.031057
0.238169 0.609990 0.032595
0.269204 0.610733 0.034403
0.300635 0.611579 0.036496
0.332390 0.612528 0.038886
0.364420 0.613580 0.041557
0.396693 0.614733 0.044418
0.429183 0.615984 0.047461
0.461872 0.617330 0.050671
0.494818 0.618762 0.052510
0.527931 0.620279 0.054431
0.561198 0.621877 0.056430
0.594607 0.623548 0.058495
0.628146 0.625286 0.060610
0.661802 0.627083 0.062761
0.695560 0.628931 0.064931
0.729405 0.630821 0.067104
0.763320 0.632743 0.069260
0.797287 0.634686 0.071381
0.831287 0.636639 0.073446
0.865298 0.638589 0.075433
0.899299 0.640524 0.077320
0.933267 0.642430 0.079081
0.971499 0.642031 0.086714
1.000000 0.638300 0.103599
1.000000 0.634621 0.120383
1.000000 0.630980 0.136659
0.078743 0.647169 0.046781
0.097819 0.647311 0.047132
0.116024 0.647472 0.047528
0.138188 0.647701 0.048092
0.163308 0.648008 0.048842
0.190458 0.648397 0.049789
0.219017 0.648871 0.050937
0.248605 0.649434 0.052066
0.278972 0.650086 0.052913
0.309896 0.650828 0.053875
0.341258 0.651661 0.054949
0.372976 0.652584 0.056134
0.404993 0.653595 0.057423
0.437267 0.654692 0.058812
0.469764 0.655872 0.060293
0.502459 0.657129 0.061857
0.535332 0.658460 0.063494
0.568363 0.659859 0.065193
0.601535 0.661320 0.066941
0.634831 0.662835 0.068726
0.668237 0.664398 0.070532
0.701734 0.665999 0.072343
0.735305 0.667629 0.074142
0.768933 0.669279 0.075911
0.802600 0.670938 0.077631
0.836284 0.672595 0.079281
0.869965 0.674237 0.080838
0.903622 0.675851 0.082280
0.937232 0.677424 0.083581
0.970771 0.678940 0.084714
1.000000 0.680385 0.085650
1.000000 0.676488 0.100886
1.000000 0.672266 0.117297
0.104369 0.686595 0.059630
0.120100 0.686717 0.059789
0.135807 0.686855 0.059968
0.155603 0.687053 0.060224
0.178685 0.687316 0.060565
0.204179 0.687651 0.060996
0.231425 0.688059 0.061522
0.259957 0.688543 0.062143
0.289446 0.689105 0.062861
0.319664 0.689745 0.063676
0.350451 0.690463 0.064584
0.381692 0.691257 0.065584
0.413304 0.692128 0.066669
0.445223 0.693071 0.067836
0.477403 0.694084 0.069076
0.509806 0.695162 0.070381
0.542402 0.696301 0.071742
0.575163 0.697495 0.073147
0.608068 0.698739 0.074585
0.641096 0.700024 0.076042
0.674226 0.701344 0.077504
0.707440 0.702691 0.078954
0.740719 0.704054 0.080376
0.774042 0.705425 0.081752
0.807391 0.706792 0.083062
0.840746 0.708144 0.084284
0.874084 0.709470 0.085397
0.907384 0.710756 0.086375
0.940623 0.711988 0.087193
0.973778 0.713153 0.087823
1.000000 0.714234 0.088233
1.000000 0.715216 0.088391
1.000000 0.713399 0.095812
0.127429 0.725546 0.069131
0.140898 0.725649 0.069264
0.154729 0.725765 0.069413
0.172585 0.725931 0.069625
0.193865 0.726153 0.069909
0.217794 0.726434 0.070267
0.243729 0.726777 0.070703
0.271179 0.727184 0.071218
0.299778 0.727656 0.071811
0.329261 0.728193 0.072483
0.359435 0.728795 0.073230
0.390157 0.729461 0.074050
0.421320 0.730189 0.074937
0.452845 0.730976 0.075886
0.484669 0.731820 0.076890
0.516743 0.732716 0.077940
0.549027 0.733659 0.079026
0.581489 0.734645 0.080139
0.614099 0.735667 0.081266
0.646832 0.736719 0.082393
0.679665 0.737792 0.083507
0.712576 0.738878 0.084591
0.745542 0.739969 0.085627
0.778544 0.741054 0.086599
0.811561 0.742124 0.087484
0.844570 0.743166 0.088262
0.877551 0.744170 0.088909
0.910482 0.745122 0.089400
0.943339 0.746009 0.089706
0.976099 0.746816 0.089798
1.000000 0.747530 0.089643
1.000000 0.748133 0.089202
1.000000 0.748610 0.088435
0.147988 0.763874 0.077480
0.159867 0.763957 0.077587
0.172289 0.764052 0.077706
0.188601 0.764187 0.077877
0.208362 0.764367 0.078104
0.230904 0.764596 0.078390
0.255627 0.764874 0.078738
0.282040 0.765205 0.079147
0.309761 0.765587 0.079618
0.338500 0.766022 0.080149
0.368039 0.766508 0.080736
0.398213 0.767045 0.081378
0.428897 0.767630 0.082067
0.459995 0.768261 0.082799
0.491431 0.768935 0.083567
0.523146 0.769648 0.084361
0.555091 0.770395 0.085171
0.587226 0.771170 0.085988
0.619516 0.771969 0.086799
0.651932 0.772783 0.087590
0.684446 0.773606 0.088347
0.717033 0.774429 0.089053
0.749671 0.775244 0.089691
0.782335 0.776041 0.090240
0.815003 0.776809 0.090682
0.847655 0.777538 0.090991
0.880266 0.778216 0.091144
0.912815 0.778830 0.091114
0.945278 0.779368 0.090869
0.977632 0.779815 0.090377
1.000000 0.780157 0.089600
1.000000 0.780378 0.088496
1.000000 0.780462 0.087016
0.166363 0.801428 0.084510
0.177061 0.801493 0.084590
0.188390 0.801566 0.084680
0.203452 0.801671 0.084808
0.221929 0.801810 0.084979
0.243251 0.801987 0.085194
0.266869 0.802202 0.085453
0.292307 0.802456 0.085757
0.319180 0.802750 0.086105
0.347183 0.803083 0.086494
0.376082 0.803454 0.086921
0.405694 0.803863 0.087382
0.435879 0.804306 0.087872
0.466528 0.804782 0.088384
0.497552 0.805286 0.088911
0.528884 0.805816 0.089444
0.560466 0.806366 0.089972
0.592252 0.806931 0.090485
0.624201 0.807505 0.090970
0.656280 0.808081 0.091412
0.688457 0.808653 0.091797
0.720704 0.809212 0.092108
0.752995 0.809749 0.092325
0.785307 0.810256 0.092429
0.817614 0.810721 0.092396
0.849894 0.811135 0.092203
0.882123 0.811485 0.091822
0.914279 0.811760 0.091222
0.946338 0.811946 0.090370
0.978277 0.812031 0.089227
1.000000 0.811999 0.087749
1.000000 0.811836 0.085887
1.000000 0.811526 0.083580
0.182639 0.838063 0.090016
0.192432 0.838109 0.090070
0.202896 0.838161 0.090130
0.216938 0.838236 0.090216
0.234330 0.838335 0.090329
0.254587 0.838461 0.090470
0.277209 0.838613 0.090640
0.301746 0.838792 0.090836
0.327815 0.838999 0.091058
0.355106 0.839232 0.091302
0.383373 0.839490 0.091565
0.412423 0.839771 0.091842
0.442102 0.840074 0.092126
0.472288 0.840395 0.092411
0.502887 0.840732 0.092689
0.533819 0.841079 0.092950
0.565022 0.841433 0.093184
0.596441 0.841788 0.093378
0.628033 0.842139 0.093520
0.659758 0.842478 0.093594
0.691582 0.842799 0.093584
0.723474 0.843093 0.093472
0.755406 0.843353 0.093237
0.787351 0.843569 0.092857
0.819285 0.843731 0.092308
0.851182 0.843829 0.091560
0.883019 0.843852 0.090585
0.914772 0.843786 0.089345
0.946417 0.843621 0.087801
0.977930 0.843343 0.085906
1.000000 0.842937 0.083607
1.000000 0.842389 0.080836
1.000000 0.841684 0.077516
0.196785 0.873633 0.093751
0.205870 0.873662 0.093777
0.215642 0.873693 0.093806
0.228847 0.873739 0.093847
0.245326 0.873799 0.093901
0.264661 0.873874 0.093966
0.286401 0.873964 0.094043
0.310118 0.874070 0.094127
0.335440 0.874191 0.094218
0.362057 0.874325 0.094311
0.389716 0.874472 0.094402
0.418215 0.874628 0.094485
0.447391 0.874792 0.094553
0.477115 0.874961 0.094598
0.507282 0.875131 0.094613
0.537806 0.875299 0.094585
0.568619 0.875458 0.094504
0.599661 0.875606 0.094357
0.630883 0.875734 0.094129
0.662242 0.875838 0.093804
0.693701 0.875909 0.093363
0.725227 0.875941 0.092786
0.756788 0.875925 0.092050
0.788357 0.875852 0.091129
0.819906 0.875712 0.089995
0.851411 0.875495 0.088615
0.882846 0.875190 0.086950
0.914187 0.874786 0.084959
