lut_features/sample_luts/cinematic_orange_teal.cube
LUT_3D_SIZE 5
DOMAIN_MIN 0.0 0.0 0.0
DOMAIN_MAX 1.0 1.0 1.0
0.034823 0.034832 0.034831
0.205155 0.017214 0.046189
0.434417 0.000000 0.072958
0.743324 0.000000 0.117677
1.000000 0.000000 0.204215
0.020570 0.203247 0.000000
0.208257 0.206419 0.000000
0.465473 0.200753 0.028571
0.775047 0.167794 0.115283
1.000000 0.147859 0.211831
0.000000 0.487908 0.000000
0.241752 0.492361 0.000000
0.505413 0.505021 0.008818
0.779234 0.524672 0.049318
1.000000 0.507226 0.179867
0.166363 0.801428 0.084510
0.319180 0.802750 0.086105
0.560466 0.806366 0.089972
0.817614 0.810721 0.092396
1.000000 0.811526 0.083580
0.224682 1.000000 0.058258
0.345012 1.000000 0.054302
0.560523 1.000000 0.037574
0.794344 1.000000 0.000000
1.000000 1.000000 0.000000
0.052693 0.020740 0.202131
0.199388 0.024571 0.197503
0.417137 0.014839 0.207162
0.713512 0.000000 0.279412
1.000000 0.000000 0.361421
0.004297 0.203791 0.216009
0.207768 0.207773 0.207771
0.449172 0.214397 0.246285
0.747475 0.211927 0.304922
1.000000 0.216705 0.375059
0.000000 0.489432 0.240513
0.243722 0.493790 0.244330
0.506477 0.506274 0.255893
0.798128 0.515653 0.288046
1.000000 0.510690 0.362225
0.166003 0.801915 0.287384
0.318914 0.803210 0.288168
0.560170 0.806737 0.290042
0.817208 0.810926 0.291037
1.000000 0.811478 0.286421
0.224895 1.000000 0.273855
0.344969 1.000000 0.272458
0.560228 1.000000 0.267342
0.793887 1.000000 0.255040
1.000000 1.000000 0.228953
0.069825 0.021593 0.383710
0.204641 0.022409 0.394290
0.427006 0.007323 0.426741
0.723264 0.000000 0.477264
1.000000 0.070679 0.514425
0.017408 0.207969 0.418668
0.212051 0.211638 0.428199
0.457020 0.222217 0.457334
0.740903 0.241066 0.492102
1.000000 0.282499 0.537080
0.000000 0.493054 0.520691
0.240898 0.497111 0.518106
0.510139 0.510149 0.510146
0.781843 0.526216 0.554033
1.000000 0.539813 0.599996
0.174874 0.803285 0.539096
0.323042 0.804489 0.539789
0.561800 0.807727 0.541389
0.817485 0.811385 0.541973
1.000000 0.804103 0.546401
0.228903 1.000000 0.524641
0.346802 1.000000 0.523340
0.560224 1.000000 0.518708
0.792816 1.000000 0.508125
1.000000 1.000000 0.487365
0.063716 0.017428 0.607033
0.212667 0.013861 0.624001
0.444767 0.000000 0.672868
0.734339 0.000000 0.735284
1.000000 0.096622 0.772721
0.000000 0.215306 0.660518
0.215947 0.218707 0.675219
0.471163 0.226220 0.717910
0.750419 0.250454 0.750397
1.000000 0.291675 0.780294
0.011107 0.502338 0.752551
0.257737 0.506029 0.756579
0.517690 0.516975 0.768397
0.788586 0.534262 0.782773
1.000000 0.553611 0.793815
0.155956 0.803672 0.833006
0.318698 0.804666 0.829552
0.564825 0.807562 0.818119
0.820249 0.811787 0.795515
1.000000 0.807947 0.815491
0.240795 1.000000 0.775330
0.353029 1.000000 0.773846
0.561596 1.000000 0.768650
0.791349 1.000000 0.757102
1.000000 1.000000 0.735153
0.000000 0.000000 0.879553
0.212249 0.000000 0.899977
0.466388 0.000000 0.960279
0.749625 0.000000 0.999627
1.000000 0.126754 1.000000
0.000000 0.225488 0.945907
0.207442 0.227030 0.962878
0.485867 0.237756 0.986786
0.764033 0.264899 1.000000
1.000000 0.303364 1.000000
0.084606 0.513424 1.000000
0.278009 0.516681 1.000000
0.532007 0.526305 1.000000
0.799862 0.541421 1.000000
1.000000 0.557878 1.000000
0.324562 0.799754 1.000000
0.393671 0.804391 1.000000
0.581228 0.810450 1.000000
0.826082 0.811574 1.000000
1.000000 0.807637 1.000000
0.193658 1.000000 1.000000
0.327620 1.000000 1.000000
0.551284 1.000000 1.000000
0.786461 1.000000 1.000000
1.000000 0.999142 0.977244
