lut-visualizer/public/data/sample_luts/cinematic_orange_teal.cube
LUT_3D_SIZE 17
DOMAIN_MIN 0.0 0.0 0.0
DOMAIN_MAX 1.0 1.0 1.0
0.034823 0.034832 0.034831
0.070775 0.030907 0.035418
0.113342 0.024400 0.037069
0.159920 0.017621 0.041070
0.205155 0.017214 0.046189
0.255755 0.009122 0.051819
0.310745 0.000000 0.058222
0.370245 0.000000 0.065360
0.434417 0.000000 0.072958
0.503436 0.000000 0.080886
0.577551 0.000000 0.090514
0.658065 0.000000 0.102963
0.743324 0.000000 0.117677
0.828441 0.000000 0.134751
0.906507 0.000000 0.157567
0.985135 0.000000 0.180805
1.000000 0.000000 0.204215
0.023121 0.066216 0.023126
0.064216 0.064222 0.020062
0.113982 0.058845 0.021733
0.160203 0.055951 0.032510
0.208270 0.051051 0.039184
0.259756 0.043360 0.046454
0.315158 0.031223 0.054241
0.374867 0.013645 0.062402
0.439151 0.000000 0.070713
0.508245 0.000000 0.079241
0.582485 0.000000 0.089597
0.663226 0.000000 0.102830
0.748080 0.000000 0.117762
0.831014 0.000000 0.135975
0.908897 0.000000 0.158811
0.987321 0.000000 0.182020
1.000000 0.000000 0.205366
0.008379 0.108074 0.007490
0.056867 0.106389 0.005883
0.107682 0.103844 0.003553
0.154234 0.102827 0.000492
0.210265 0.096812 0.011979
0.264908 0.090941 0.027951
0.321672 0.084058 0.042397
0.382121 0.074152 0.054650
0.446863 0.058347 0.065297
0.516294 0.030079 0.075504
0.591057 0.000000 0.087589
0.671876 0.000000 0.102225
0.756190 0.000000 0.117188
0.835470 0.000000 0.137756
0.913041 0.000000 0.160704
0.991116 0.000000 0.183920
1.000000 0.000000 0.207199
0.023415 0.150982 0.000000
0.062922 0.150738 0.000000
0.106620 0.150614 0.000000
0.154314 0.150774 0.000000
0.204289 0.151426 0.000000
0.260559 0.150375 0.000000
0.325637 0.143801 0.016688
0.390065 0.137236 0.035982
0.456983 0.129170 0.052933
0.527886 0.118040 0.067408
0.604297 0.102079 0.083288
0.684660 0.074221 0.099046
0.765967 0.027247 0.116392
0.842331 0.003094 0.139598
0.919449 0.000000 0.162935
0.997001 0.000000 0.186315
1.000000 0.000000 0.209599
0.020570 0.203247 0.000000
0.060765 0.203506 0.000000
0.106331 0.204020 0.000000
0.156076 0.204955 0.000000
0.208257 0.206419 0.000000
0.262713 0.208460 0.000000
0.319776 0.211054 0.000000
0.391374 0.206924 0.008070
0.465473 0.200753 0.028571
0.541397 0.194536 0.050814
0.619427 0.185867 0.070941
0.699619 0.173304 0.089612
0.775047 0.167794 0.115283
0.851167 0.162589 0.140087
0.927811 0.157638 0.164389
1.000000 0.152815 0.188307
1.000000 0.147859 0.211831
0.009454 0.263277 0.000085
0.054246 0.263753 0.000000
0.104955 0.264610 0.000000
0.158322 0.266026 0.000000
0.213552 0.268077 0.000000
0.270792 0.270820 0.000000
0.330539 0.274324 0.000000
0.393697 0.278851 0.000000
0.465387 0.280628 0.000000
0.549396 0.274421 0.012758
0.630659 0.268106 0.042454
0.707806 0.264342 0.078765
0.784348 0.261348 0.109336
0.860774 0.258893 0.137173
0.937222 0.256769 0.163400
1.000000 0.254759 0.188516
1.000000 0.252570 0.211529
0.000000 0.331556 0.000000
0.042036 0.332212 0.000000
0.102498 0.333431 0.000000
0.161464 0.335402 0.000000
0.220939 0.338115 0.000000
0.281728 0.341520 0.000000
0.344337 0.345500 0.000000
0.409122 0.349875 0.000000
0.476188 0.354444 0.000000
0.544168 0.359566 0.000000
0.628216 0.356204 0.010169
0.711028 0.351947 0.056850
0.790808 0.348765 0.095719
0.868887 0.346396 0.128499
0.945967 0.344539 0.157947
1.000000 0.342877 0.184177
1.000000 0.341086 0.207013
0.000000 0.408891 0.000000
0.017458 0.409515 0.000000
0.095310 0.410610 0.000000
0.162147 0.412346 0.000000
0.226422 0.414735 0.000000
0.291707 0.417474 0.000000
0.357314 0.420734 0.000000
0.423467 0.424558 0.000000
0.490416 0.428924 0.000000
0.558249 0.433810 0.000000
0.626955 0.439186 0.002726
0.703739 0.441022 0.024546
0.789972 0.436447 0.073019
0.872034 0.432803 0.112279
0.951444 0.429856 0.144267
1.000000 0.427297 0.171892
1.000000 0.424803 0.197115
0.000000 0.487908 0.000000
0.030684 0.488374 0.000000
0.108271 0.489196 0.000000
0.176075 0.490514 0.000000
0.241752 0.492361 0.000000
0.307033 0.494748 0.000000
0.372566 0.497668 0.000000
0.438648 0.501102 0.001860
0.505413 0.505021 0.008818
0.572902 0.509388 0.017271
0.641087 0.514159 0.027320
0.709888 0.519278 0.039021
0.779234 0.524672 0.049318
0.866043 0.520372 0.084237
0.950085 0.515557 0.119622
1.000000 0.511268 0.151361
1.000000 0.507226 0.179867
0.017185 0.567509 0.008820
0.076007 0.567895 0.009548
0.134788 0.568578 0.010851
0.196549 0.569676 0.012993
0.259687 0.571220 0.016101
0.323754 0.573224 0.020296
0.388606 0.575684 0.025694
0.454191 0.578581 0.032398
0.520469 0.581885 0.040496
0.587391 0.585556 0.049305
0.655024 0.589529 0.054341
0.723120 0.593752 0.059421
0.791556 0.598151 0.064480
0.860182 0.602639 0.069358
0.937781 0.602285 0.087009
1.000000 0.595836 0.121564
1.000000 0.589671 0.153554
0.078743 0.647169 0.046781
0.116024 0.647472 0.047528
0.163308 0.648008 0.048842
0.219017 0.648871 0.050937
0.278972 0.650086 0.052913
0.341258 0.651661 0.054949
0.404993 0.653595 0.057423
0.469764 0.655872 0.060293
0.535332 0.658460 0.063494
0.601535 0.661320 0.066941
0.668237 0.664398 0.070532
0.735305 0.667629 0.074142
0.802600 0.670938 0.077631
0.869965 0.674237 0.080838
0.937232 0.677424 0.083581
1.000000 0.680385 0.085650
1.000000 0.672266 0.117297
0.127429 0.725546 0.069131
0.154729 0.725765 0.069413
0.193865 0.726153 0.069909
0.243729 0.726777 0.070703
0.299778 0.727656 0.071811
0.359435 0.728795 0.073230
0.421320 0.730189 0.074937
0.484669 0.731820 0.076890
0.549027 0.733659 0.079026
0.614099 0.735667 0.081266
0.679665 0.737792 0.083507
0.745542 0.739969 0.085627
0.811561 0.742124 0.087484
0.877551 0.744170 0.088909
0.943339 0.746009 0.089706
1.000000 0.747530 0.089643
1.000000 0.748610 0.088435
0.166363 0.801428 0.084510
0.188390 0.801566 0.084680
0.221929 0.801810 0.084979
0.266869 0.802202 0.085453
0.319180 0.802750 0.086105
0.376082 0.803454 0.086921
0.435879 0.804306 0.087872
0.497552 0.805286 0.088911
0.560466 0.806366 0.089972
0.624201 0.807505 0.090970
0.688457 0.808653 0.091797
0.752995 0.809749 0.092325
0.817614 0.810721 0.092396
0.882123 0.811485 0.091822
0.946338 0.811946 0.090370
1.000000 0.811999 0.087749
1.000000 0.811526 0.083580
0.196785 0.873633 0.093751
0.215642 0.873693 0.093806
0.245326 0.873799 0.093901
0.286401 0.873964 0.094043
0.335440 0.874191 0.094218
0.389716 0.874472 0.094402
0.447391 0.874792 0.094553
0.507282 0.875131 0.094613
0.568619 0.875458 0.094504
0.630883 0.875734 0.094129
0.693701 0.875909 0.093363
0.756788 0.875925 0.092050
0.819906 0.875712 0.089995
0.882846 0.875190 0.086950
0.945410 0.874270 0.082588
1.000000 0.872850 0.076449
1.000000 0.870822 0.069011
0.218173 0.941026 0.094554
0.235048 0.941012 0.094479
0.262115 0.940984 0.094342
0.300324 0.940933 0.094104
0.346723 0.940851 0.093732
0.398720 0.940723 0.093181
0.454434 0.940530 0.092391
0.512595 0.940247 0.091281
0.572346 0.939842 0.089748
0.633097 0.939275 0.087656
0.694422 0.938498 0.084829
0.755994 0.937453 0.081035
0.817550 0.936073 0.075957
0.878821 0.934286 0.070576
0.939587 0.932009 0.065346
0.999712 0.929141 0.057691
1.000000 0.925577 0.046387
0.228907 1.000000 0.082697
0.244650 1.000000 0.082445
0.270138 1.000000 0.081989
0.306490 1.000000 0.081226
0.351042 1.000000 0.080088
0.401313 1.000000 0.078490
0.455432 1.000000 0.076326
0.512091 0.999569 0.073452
0.570302 0.998464 0.071454
0.629533 0.997088 0.068735
0.689324 0.995394 0.065004
0.749326 0.993326 0.059892
0.809255 0.990818 0.052839
0.868869 0.987800 0.042900
0.927952 0.984189 0.029034
0.986301 0.979896 0.011939
1.000000 0.974821 0.000000
0.224682 1.000000 0.058258
0.240204 1.000000 0.057879
0.265327 1.000000 0.057191
0.301143 1.000000 0.056036
0.345012 1.000000 0.054302
0.394477 1.000000 0.051842
0.447683 1.000000 0.048457
0.503330 1.000000 0.043851
0.560523 1.000000 0.037574
0.618630 1.000000 0.029584
0.677193 1.000000 0.019764
0.735859 1.000000 0.007827
0.794344 1.000000 0.000000
0.852407 1.000000 0.000000
0.909833 1.000000 0.000000
0.966421 1.000000 0.000000
1.000000 1.000000 0.000000
0.033539 0.033547 0.072781
0.070518 0.029903 0.070522
0.113896 0.023895 0.066709
0.159246 0.019608 0.061953
0.201456 0.022117 0.072143
0.250898 0.016583 0.080431
0.305512 0.006400 0.087757
0.364858 0.000000 0.095217
0.428825 0.000000 0.103895
0.497549 0.000000 0.114074
0.571503 0.000000 0.125517
0.652084 0.000000 0.138646
0.737613 0.000000 0.152482
0.822893 0.000000 0.168002
0.901323 0.000000 0.188500
0.980275 0.000000 0.209635
1.000000 0.000000 0.231137
0.022121 0.065145 0.069118
0.063559 0.063564 0.063564
0.109996 0.060012 0.066042
0.154801 0.059391 0.070196
0.202846 0.055893 0.075502
0.254379 0.050329 0.081455
0.309850 0.041124 0.087907
0.369536 0.026165 0.095287
0.433637 0.004596 0.104143
0.502486 0.000000 0.114392
0.576637 0.000000 0.125882
0.657492 0.000000 0.139100
0.742635 0.000000 0.152718
0.825695 0.000000 0.169150
0.903896 0.000000 0.189646
0.982611 0.000000 0.210746
1.000000 0.000000 0.232187
0.008302 0.107558 0.055406
0.057163 0.105731 0.054426
0.105717 0.103831 0.052938
0.155493 0.101486 0.053992
0.208349 0.097039 0.066742
0.261230 0.093306 0.076415
0.317408 0.088338 0.084723
0.377485 0.080794 0.093452
0.441883 0.068646 0.103157
0.511046 0.047533 0.113842
0.585764 0.010189 0.125784
0.666706 0.000000 0.139141
0.751220 0.000000 0.152517
0.830554 0.000000 0.170840
0.908363 0.000000 0.191401
0.986667 0.000000 0.212489
1.000000 0.000000 0.233859
0.019514 0.150976 0.051031
0.059316 0.150832 0.050815
0.104136 0.150760 0.050498
0.152499 0.150970 0.050144
0.202942 0.151656 0.049907
0.263473 0.148276 0.058169
0.325439 0.143461 0.072519
0.388055 0.138730 0.085228
0.453853 0.132553 0.097519
0.524094 0.123533 0.110027
0.600239 0.110154 0.123532
0.680491 0.086694 0.137116
0.761627 0.051183 0.152346
0.838059 0.030822 0.172644
0.915286 0.010726 0.193486
0.992968 0.000000 0.214688
1.000000 0.000000 0.236046
0.015309 0.203437 0.051864
0.056717 0.203704 0.051817
0.103853 0.204229 0.051725
0.154462 0.205173 0.051557
0.207202 0.206639 0.051262
0.262076 0.208670 0.050745
0.320508 0.210733 0.050478
0.394211 0.205088 0.065163
0.465972 0.200302 0.082102
0.540310 0.195523 0.098956
0.617352 0.188258 0.114800
0.696812 0.177389 0.130320
0.771875 0.173203 0.151765
0.847805 0.169228 0.173274
0.924371 0.165428 0.194877
1.000000 0.161690 0.216512
1.000000 0.157779 0.238061
0.007116 0.263470 0.050606
0.052465 0.263945 0.050451
0.104075 0.264802 0.050167
0.157909 0.266214 0.049689
0.213433 0.268259 0.048971
0.270880 0.270993 0.047964
0.330780 0.274491 0.046646
0.394041 0.279010 0.045156
0.469806 0.278393 0.053091
0.551602 0.272997 0.073455
0.631061 0.267775 0.095857
0.706968 0.265086 0.122201
0.782696 0.263066 0.147015
0.858601 0.261473 0.170850
0.934726 0.260107 0.194018
1.000000 0.258764 0.216660
1.000000 0.257166 0.237616
0.000000 0.331774 0.046135
0.042178 0.332434 0.045933
0.102673 0.333659 0.045608
0.161675 0.335621 0.045032
0.221190 0.338322 0.044077
0.282020 0.341709 0.042560
0.344667 0.345668 0.040211
0.409488 0.350017 0.036682
0.476543 0.354568 0.033763
0.544957 0.359436 0.041391
0.631139 0.354552 0.074314
0.712357 0.351016 0.106332
0.790931 0.348598 0.135872
0.868145 0.346953 0.163279
0.944623 0.345749 0.189031
1.000000 0.344663 0.212490
1.000000 0.343375 0.233207
0.000000 0.409094 0.036305
0.018133 0.409715 0.035825
0.095765 0.410805 0.034948
0.162519 0.412533 0.033461
0.226780 0.414911 0.031204
0.292099 0.417621 0.033833
0.357636 0.420876 0.038198
0.423735 0.424695 0.043713
0.490637 0.429058 0.050098
0.558427 0.433941 0.057277
0.627093 0.439315 0.065144
0.706942 0.439391 0.085534
0.791853 0.435275 0.118074
0.872826 0.432170 0.149238
0.951404 0.429766 0.176553
1.000000 0.427716 0.200994
1.000000 0.425684 0.223747
0.000000 0.488062 0.045113
0.031726 0.488527 0.045765
0.108776 0.489347 0.046922
0.176405 0.490662 0.048795
0.242000 0.492506 0.051452
0.307231 0.494889 0.054931
0.372727 0.497804 0.059238
0.438778 0.501234 0.064349
0.505516 0.505149 0.070212
0.572980 0.509513 0.076750
0.641140 0.514280 0.083863
0.709917 0.519396 0.091436
0.780136 0.524333 0.098832
0.868238 0.519127 0.126207
0.951347 0.514684 0.154851
1.000000 0.510802 0.182174
1.000000 0.507160 0.207530
0.017407 0.567642 0.070112
0.076152 0.568027 0.070691
0.134879 0.568709 0.071716
0.196615 0.569805 0.073371
0.259737 0.571347 0.075711
0.323792 0.573348 0.078762
0.388634 0.575805 0.082525
0.454208 0.578698 0.086972
0.520474 0.581999 0.092055
0.587385 0.585666 0.097685
0.655019 0.589633 0.101117
0.723111 0.593851 0.104716
0.791541 0.598244 0.108373
0.860161 0.602726 0.111960
0.940129 0.601046 0.127942
1.000000 0.594852 0.155892
1.000000 0.588986 0.183399
0.078416 0.647277 0.095778
0.115790 0.647580 0.096262
0.163139 0.648115 0.097119
0.218891 0.648978 0.098502
0.278889 0.650190 0.099776
0.341195 0.651763 0.101197
0.404945 0.653694 0.102941
0.469724 0.655967 0.104987
0.535297 0.658551 0.107299
0.601502 0.661407 0.109821
0.668203 0.664480 0.112480
0.735270 0.667706 0.115183
0.802562 0.671009 0.117821
0.869923 0.674301 0.120262
0.937186 0.677482 0.122356
1.000000 0.679529 0.125749
1.000000 0.671243 0.151692
0.127193 0.725626 0.111128
0.154534 0.725845 0.111336
0.193711 0.726232 0.111704
0.243609 0.726855 0.112294
0.299682 0.727732 0.113120
0.359356 0.728869 0.114182
0.421252 0.730261 0.115466
0.484609 0.731889 0.116942
0.548972 0.733725 0.118568
0.614046 0.735729 0.120281
0.679613 0.737849 0.122002
0.745490 0.740021 0.123637
0.811507 0.742171 0.125068
0.877496 0.744211 0.126162
0.943280 0.746043 0.126758
1.000000 0.747557 0.126674
1.000000 0.748629 0.125691
0.166182 0.801480 0.122509
0.188230 0.801618 0.122641
0.221793 0.801861 0.122871
0.266755 0.802252 0.123237
0.319083 0.802799 0.123741
0.375998 0.803502 0.124373
0.435804 0.804352 0.125110
0.497483 0.805329 0.125916
0.560401 0.806406 0.126739
0.624138 0.807541 0.127511
0.688395 0.808686 0.128148
0.752934 0.809777 0.128545
0.817552 0.810744 0.128577
0.882060 0.811502 0.128097
0.946274 0.811958 0.126928
1.000000 0.812004 0.124859
1.000000 0.811523 0.121630
0.196648 0.873657 0.129458
0.215517 0.873717 0.129501
0.245213 0.873822 0.129573
0.286302 0.873987 0.129681
0.335353 0.874213 0.129815
0.389637 0.874492 0.129952
0.447318 0.874811 0.130062
0.507213 0.875148 0.130097
0.568553 0.875472 0.129996
0.630818 0.875745 0.129682
0.693637 0.875917 0.129057
0.756724 0.875928 0.128002
0.819842 0.875711 0.126374
0.882781 0.875184 0.123995
0.945344 0.874258 0.120647
1.000000 0.872831 0.116053
1.000000 0.870797 0.110687
0.218081 0.941024 0.129793
0.234961 0.941009 0.129733
0.262035 0.940980 0.129621
0.300250 0.940929 0.129429
0.346656 0.940846 0.129129
0.398656 0.940717 0.128688
0.454373 0.940522 0.128057
0.512535 0.940238 0.127178
0.572288 0.939831 0.125971
0.633039 0.939261 0.124340
0.694364 0.938480 0.122162
0.755936 0.937431 0.119283
0.817491 0.936047 0.115510
0.878758 0.934256 0.111626
0.939522 0.931974 0.107874
0.999644 0.929100 0.102614
1.000000 0.925530 0.095356
0.228868 1.000000 0.120387
0.244611 1.000000 0.120196
0.270100 1.000000 0.119852
0.306452 1.000000 0.119277
0.351004 1.000000 0.118423
0.401275 1.000000 0.117233
0.455392 1.000000 0.115636
0.512048 0.999535 0.113561
0.570254 0.998428 0.112108
0.629481 0.997049 0.110135
0.689270 0.995352 0.107485
0.749269 0.993281 0.103958
0.809195 0.990770 0.099292
0.868807 0.987747 0.093130
0.927888 0.984132 0.084954
0.986236 0.979833 0.073951
1.000000 0.974753 0.058625
0.224664 1.000000 0.102761
0.240185 1.000000 0.102508
0.265306 1.000000 0.102049
0.301119 1.000000 0.101284
0.344984 1.000000 0.100147
0.394446 1.000000 0.098561
0.447649 1.000000 0.096425
0.503293 1.000000 0.093612
0.560482 1.000000 0.089952
0.618587 1.000000 0.085216
0.677147 1.000000 0.079078
0.735810 1.000000 0.071054
0.794293 1.000000 0.060347
0.852355 1.000000 0.045437
0.909779 1.000000 0.024467
0.966366 1.000000 0.000000
1.000000 1.000000 0.000000
0.031967 0.031259 0.115896
0.069857 0.027711 0.114343
0.113895 0.021870 0.111847
0.157235 0.020311 0.108288
0.200261 0.024411 0.104665
0.247472 0.024209 0.105527
0.299153 0.019941 0.118248
0.357019 0.009577 0.130107
0.420378 0.000000 0.141805
0.489015 0.000000 0.153779
0.563108 0.000000 0.166371
0.643931 0.000000 0.180309
0.729624 0.000000 0.194573
0.814801 0.000000 0.210012
0.893564 0.000000 0.229186
0.972844 0.000000 0.248884
1.000000 0.000000 0.268890
0.021992 0.064221 0.110964
0.063886 0.062294 0.109749
0.109415 0.060012 0.107789
0.152874 0.061155 0.105208
0.199376 0.060585 0.103293
0.248020 0.059238 0.112870
0.302043 0.054940 0.123122
0.361098 0.046023 0.133452
0.425060 0.029262 0.144198
0.494029 0.003396 0.155576
0.568403 0.000000 0.167829
0.649500 0.000000 0.181583
0.734818 0.000000 0.195428
0.817797 0.000000 0.211420
0.896312 0.000000 0.230482
0.975334 0.000000 0.250070
1.000000 0.000000 0.269966
0.010221 0.105942 0.111344
0.058137 0.104415 0.108475
0.103726 0.103730 0.103729
0.150587 0.102672 0.107856
0.200114 0.101498 0.113400
0.252681 0.099834 0.120184
0.308830 0.097022 0.128066
0.369015 0.092113 0.136951
0.433607 0.083684 0.146795
0.502994 0.069224 0.157620
0.578008 0.042909 0.169706
0.659094 0.000000 0.183089
0.743768 0.000000 0.196350
0.823027 0.000000 0.213570
0.901103 0.000000 0.232504
0.979674 0.000000 0.251951
1.000000 0.000000 0.271690
0.016816 0.150954 0.102305
0.056936 0.150870 0.102225
0.102491 0.150872 0.102117
0.151370 0.151150 0.102024
0.204838 0.150724 0.103455
0.263549 0.147698 0.115069
0.321236 0.145968 0.125807
0.382212 0.143583 0.136045
0.447389 0.139557 0.146587
0.517427 0.132943 0.157908
0.593519 0.122715 0.170597
0.673743 0.104420 0.183481
0.754638 0.080023 0.197826
0.831202 0.069038 0.216110
0.908592 0.057305 0.235028
0.986457 0.044441 0.254387
1.000000 0.029962 0.273977
0.013887 0.203622 0.102251
0.055605 0.203903 0.102293
0.103235 0.204445 0.102372
0.154156 0.205405 0.102510
0.207137 0.206880 0.102722
0.262213 0.208909 0.103017
0.327305 0.207498 0.108936
0.395637 0.204103 0.123433
0.464251 0.201570 0.138006
0.536841 0.198801 0.152518
0.612876 0.193437 0.166394
0.691515 0.184949 0.180348
0.766256 0.182497 0.198841
0.842038 0.180157 0.217765
0.918564 0.177909 0.237049
0.995516 0.175653 0.256568
1.000000 0.173173 0.276162
0.006479 0.263762 0.103264
0.052026 0.264240 0.103314
0.103929 0.265099 0.103399
0.157945 0.266512 0.103534
0.213616 0.268556 0.103718
0.271198 0.271287 0.103956
0.331238 0.274788 0.104292
0.394621 0.279295 0.104913
0.474965 0.275756 0.118096
0.553304 0.271921 0.135336
0.630179 0.268497 0.153858
0.704469 0.267402 0.175238
0.779185 0.266777 0.196096
0.854464 0.266405 0.216653
0.930210 0.266116 0.237020
1.000000 0.265735 0.257210
1.000000 0.264999 0.275977
0.000000 0.332167 0.104266
0.042280 0.332841 0.104332
0.102889 0.334067 0.104467
0.161979 0.336013 0.104645
0.221575 0.338691 0.104813
0.282481 0.342049 0.104877
0.345198 0.345970 0.104705
0.410081 0.350275 0.104117
0.477110 0.354797 0.104322
0.551740 0.356342 0.114435
0.634739 0.352506 0.138143
0.713461 0.350232 0.163129
0.790240 0.349054 0.187411
0.866214 0.348535 0.210695
0.941852 0.348325 0.233076
1.000000 0.348104 0.253698
1.000000 0.347576 0.272095
0.000000 0.409459 0.103838
0.018889 0.410075 0.103734
0.096330 0.411155 0.103535
0.163026 0.412869 0.103171
0.227316 0.415223 0.102593
0.292704 0.417887 0.105012
0.358150 0.421132 0.108093
0.424173 0.424943 0.111860
0.491007 0.429298 0.116317
0.558733 0.434175 0.121443
0.627340 0.439545 0.127190
0.711550 0.437024 0.146757
0.794265 0.433754 0.172658
0.873493 0.431577 0.198657
0.950782 0.430067 0.222034
1.000000 0.428835 0.243354
1.000000 0.427533 0.263437
0.000000 0.488337 0.113111
0.033321 0.488800 0.113552
0.109558 0.489617 0.114338
0.176930 0.490927 0.115618
0.242404 0.492764 0.117449
0.307561 0.495140 0.119873
0.373003 0.498047 0.122917
0.439008 0.501469 0.126587
0.505704 0.505377 0.130870
0.573126 0.509734 0.135733
0.641247 0.514494 0.141116
0.709986 0.519602 0.146943
0.785173 0.521944 0.156394
0.871465 0.517276 0.178772
0.953016 0.513500 0.202816
1.000000 0.510313 0.226313
1.000000 0.507340 0.248492
0.017853 0.567878 0.130721
0.076446 0.568262 0.131142
0.135067 0.568942 0.131889
0.196753 0.570035 0.133101
0.259846 0.571573 0.134824
0.323879 0.573568 0.137088
0.388702 0.576019 0.139906
0.454257 0.578906 0.143274
0.520503 0.582200 0.147167
0.587401 0.585859 0.151441
0.655030 0.589817 0.154235
0.723114 0.594024 0.157167
0.791533 0.598407 0.160148
0.860139 0.602878 0.163071
0.943814 0.599084 0.179605
1.000000 0.593355 0.202947
1.000000 0.588017 0.226517
0.077981 0.647469 0.149798
0.115480 0.647771 0.150171
0.162917 0.648305 0.150833
0.218724 0.649165 0.151903
0.278791 0.650373 0.152828
0.341125 0.651942 0.153978
0.404893 0.653868 0.155391
0.469682 0.656134 0.157051
0.535260 0.658712 0.158928
0.601466 0.661559 0.160978
0.668166 0.664624 0.163141
0.735227 0.667840 0.165341
0.802512 0.671133 0.167486
0.869865 0.674414 0.169466
0.937118 0.677582 0.171157
1.000000 0.677568 0.177172
1.000000 0.669597 0.198568
0.126899 0.725767 0.161731
0.154293 0.725985 0.161900
0.193521 0.726371 0.162197
0.243460 0.726992 0.162675
0.299563 0.727867 0.163344
0.359257 0.729001 0.164205
0.421167 0.730388 0.165246
0.484532 0.732011 0.166444
0.548899 0.733841 0.167763
0.613975 0.735838 0.169153
0.679541 0.737950 0.170549
0.745415 0.740114 0.171870
0.811428 0.742253 0.173022
0.877411 0.744283 0.173891
0.943190 0.746103 0.174347
1.000000 0.747604 0.174242
1.000000 0.748663 0.173405
0.165958 0.801570 0.170673
0.188030 0.801708 0.170779
0.221621 0.801951 0.170965
0.266610 0.802340 0.171260
0.318958 0.802884 0.171666
0.375886 0.803585 0.172176
0.435702 0.804431 0.172770
0.497387 0.805404 0.173418
0.560308 0.806475 0.174077
0.624047 0.807605 0.174693
0.688302 0.808742 0.175194
0.752840 0.809826 0.175496
0.817455 0.810784 0.175497
0.881960 0.811532 0.175078
0.946169 0.811976 0.174100
1.000000 0.812010 0.172402
1.000000 0.811516 0.169797
0.196479 0.873699 0.176000
0.215359 0.873758 0.176033
0.245071 0.873862 0.176089
0.286174 0.874026 0.176172
0.335237 0.874250 0.176274
0.389530 0.874527 0.176377
0.447216 0.874843 0.176454
0.507113 0.875176 0.176468
0.568455 0.875496 0.176370
0.630720 0.875763 0.176095
0.693538 0.875928 0.175567
0.756624 0.875933 0.174692
0.819740 0.875707 0.173359
0.882676 0.875171 0.171435
0.945236 0.874235 0.168763
1.000000 0.872797 0.165157
1.000000 0.870751 0.161048
0.217972 0.941018 0.175930
0.234857 0.941002 0.175880
0.261936 0.940973 0.175787
0.300157 0.940921 0.175626
0.346566 0.940836 0.175377
0.398569 0.940705 0.175013
0.454286 0.940508 0.174495
0.512448 0.940220 0.173776
0.572199 0.939809 0.172797
0.632949 0.939234 0.171484
0.694271 0.938447 0.169747
0.755841 0.937392 0.167475
0.817394 0.936001 0.164537
0.878653 0.934202 0.161573
0.939410 0.931910 0.158655
0.999526 0.929026 0.154667
1.000000 0.925446 0.149337
0.228836 1.000000 0.168175
0.244578 1.000000 0.168025
0.270064 1.000000 0.167755
0.306412 1.000000 0.167304
0.350959 1.000000 0.166636
0.401225 1.000000 0.165710
0.455338 1.000000 0.164473
0.511982 0.999473 0.162931
0.570180 0.998362 0.161781
0.629399 0.996980 0.160239
0.689181 0.995278 0.158198
0.749174 0.993200 0.155528
0.809094 0.990682 0.152069
0.868701 0.987652 0.147621
0.927778 0.984029 0.141934
0.986122 0.979721 0.134681
1.000000 0.974630 0.125411
0.224657 1.000000 0.154533
0.240174 1.000000 0.154344
0.265289 1.000000 0.154004
0.301093 1.000000 0.153438
0.344950 1.000000 0.152600
0.394403 1.000000 0.151439
0.447598 1.000000 0.149891
0.503234 1.000000 0.147878
0.560416 1.000000 0.145302
0.618514 1.000000 0.142041
0.677069 1.000000 0.137943
0.735727 1.000000 0.132808
0.794205 1.000000 0.126378
0.852263 1.000000 0.118296
0.909684 1.000000 0.108047
0.966268 1.000000 0.094817
1.000000 1.000000 0.077129
0.037548 0.027024 0.159400
0.074326 0.023604 0.158053
0.115024 0.019859 0.155931
0.155952 0.021512 0.153148
0.199505 0.024589 0.151006
0.247488 0.024467 0.150353
0.299411 0.023314 0.150886
0.355141 0.020359 0.155813
0.415457 0.010943 0.172956
0.482215 0.000000 0.189343
0.555193 0.000000 0.205538
0.635389 0.000000 0.222502
0.720571 0.000000 0.239143
0.804967 0.000000 0.256222
0.883756 0.000000 0.275537
0.963153 0.000000 0.295014
1.000000 0.000000 0.314517
0.030674 0.061620 0.155188
0.070074 0.059919 0.154240
