lut-visualizer/public/data/sample_luts/cool_mild.cube
LUT_3D_SIZE 9
DOMAIN_MIN 0.0 0.0 0.0
DOMAIN_MAX 1.0 1.0 1.0
0.000000 0.000000 0.040000
0.085000 0.000000 0.040000
0.210000 0.000000 0.040000
0.335000 0.000000 0.040000
0.460000 0.000000 0.040000
0.585000 0.000000 0.040000
0.710000 0.000000 0.040000
0.835000 0.000000 0.040000
0.960000 0.000000 0.040000
0.000000 0.120000 0.040000
0.085000 0.120000 0.040000
0.210000 0.120000 0.040000
0.335000 0.120000 0.040000
0.460000 0.120000 0.040000
0.585000 0.120000 0.040000
0.710000 0.120000 0.040000
0.835000 0.120000 0.040000
0.960000 0.120000 0.040000
0.000000 0.245000 0.040000
0.085000 0.245000 0.040000
0.210000 0.245000 0.040000
0.335000 0.245000 0.040000
0.460000 0.245000 0.040000
0.585000 0.245000 0.040000
0.710000 0.245000 0.040000
0.835000 0.245000 0.040000
0.960000 0.245000 0.040000
0.000000 0.370000 0.040000
0.085000 0.370000 0.040000
0.210000 0.370000 0.040000
0.335000 0.370000 0.040000
0.460000 0.370000 0.040000
0.585000 0.370000 0.040000
0.710000 0.370000 0.040000
0.835000 0.370000 0.040000
0.960000 0.370000 0.040000
0.000000 0.495000 0.040000
0.085000 0.495000 0.040000
0.210000 0.495000 0.040000
0.335000 0.495000 0.040000
0.460000 0.495000 0.040000
0.585000 0.495000 0.040000
0.710000 0.495000 0.040000
0.835000 0.495000 0.040000
0.960000 0.495000 0.040000
0.000000 0.620000 0.040000
0.085000 0.620000 0.040000
0.210000 0.620000 0.040000
0.335000 0.620000 0.040000
0.460000 0.620000 0.040000
0.585000 0.620000 0.040000
0.710000 0.620000 0.040000
0.835000 0.620000 0.040000
0.960000 0.620000 0.040000
0.000000 0.745000 0.040000
0.085000 0.745000 0.040000
0.210000 0.745000 0.040000
0.335000 0.745000 0.040000
0.460000 0.745000 0.040000
0.585000 0.745000 0.040000
0.710000 0.745000 0.040000
0.835000 0.745000 0.040000
0.960000 0.745000 0.040000
0.000000 0.870000 0.040000
0.085000 0.870000 0.040000
0.210000 0.870000 0.040000
0.335000 0.870000 0.040000
0.460000 0.870000 0.040000
0.585000 0.870000 0.040000
0.710000 0.870000 0.040000
0.835000 0.870000 0.040000
0.960000 0.870000 0.040000
0.000000 0.995000 0.040000
0.085000 0.995000 0.040000
0.210000 0.995000 0.040000
0.335000 0.995000 0.040000
0.460000 0.995000 0.040000
0.585000 0.995000 0.040000
0.710000 0.995000 0.040000
0.835000 0.995000 0.040000
0.960000 0.995000 0.040000
0.000000 0.000000 0.165000
0.085000 0.000000 0.165000
0.210000 0.000000 0.165000
0.335000 0.000000 0.165000
0.460000 0.000000 0.165000
0.585000 0.000000 0.165000
0.710000 0.000000 0.165000
0.835000 0.000000 0.165000
0.960000 0.000000 0.165000
0.000000 0.120000 0.165000
0.085000 0.120000 0.165000
0.210000 0.120000 0.165000
0.335000 0.120000 0.165000
0.460000 0.120000 0.165000
0.585000 0.120000 0.165000
0.710000 0.120000 0.165000
0.835000 0.120000 0.165000
0.960000 0.120000 0.165000
0.000000 0.245000 0.165000
0.085000 0.245000 0.165000
0.210000 0.245000 0.165000
0.335000 0.245000 0.165000
0.460000 0.245000 0.165000
0.585000 0.245000 0.165000
0.710000 0.245000 0.165000
0.835000 0.245000 0.165000
0.960000 0.245000 0.165000
0.000000 0.370000 0.165000
0.085000 0.370000 0.165000
0.210000 0.370000 0.165000
0.335000 0.370000 0.165000
0.460000 0.370000 0.165000
0.585000 0.370000 0.165000
0.710000 0.370000 0.165000
0.835000 0.370000 0.165000
0.960000 0.370000 0.165000
0.000000 0.495000 0.165000
0.085000 0.495000 0.165000
0.210000 0.495000 0.165000
0.335000 0.495000 0.165000
0.460000 0.495000 0.165000
0.585000 0.495000 0.165000
0.710000 0.495000 0.165000
0.835000 0.495000 0.165000
0.960000 0.495000 0.165000
0.000000 0.620000 0.165000
0.085000 0.620000 0.165000
0.210000 0.620000 0.165000
0.335000 0.620000 0.165000
0.460000 0.620000 0.165000
0.585000 0.620000 0.165000
0.710000 0.620000 0.165000
0.835000 0.620000 0.165000
0.960000 0.620000 0.165000
0.000000 0.745000 0.165000
0.085000 0.745000 0.165000
0.210000 0.745000 0.165000
0.335000 0.745000 0.165000
0.460000 0.745000 0.165000
0.585000 0.745000 0.165000
0.710000 0.745000 0.165000
0.835000 0.745000 0.165000
0.960000 0.745000 0.165000
0.000000 0.870000 0.165000
0.085000 0.870000 0.165000
0.210000 0.870000 0.165000
0.335000 0.870000 0.165000
0.460000 0.870000 0.165000
0.585000 0.870000 0.165000
0.710000 0.870000 0.165000
0.835000 0.870000 0.165000
0.960000 0.870000 0.165000
0.000000 0.995000 0.165000
0.085000 0.995000 0.165000
0.210000 0.995000 0.165000
0.335000 0.995000 0.165000
0.460000 0.995000 0.165000
0.585000 0.995000 0.165000
0.710000 0.995000 0.165000
0.835000 0.995000 0.165000
0.960000 0.995000 0.165000
0.000000 0.000000 0.290000
0.085000 0.000000 0.290000
0.210000 0.000000 0.290000
0.335000 0.000000 0.290000
0.460000 0.000000 0.290000
0.585000 0.000000 0.290000
0.710000 0.000000 0.290000
0.835000 0.000000 0.290000
0.960000 0.000000 0.290000
0.000000 0.120000 0.290000
0.085000 0.120000 0.290000
0.210000 0.120000 0.290000
0.335000 0.120000 0.290000
0.460000 0.120000 0.290000
0.585000 0.120000 0.290000
0.710000 0.120000 0.290000
0.835000 0.120000 0.290000
0.960000 0.120000 0.290000
0.000000 0.245000 0.290000
0.085000 0.245000 0.290000
0.210000 0.245000 0.290000
0.335000 0.245000 0.290000
0.460000 0.245000 0.290000
0.585000 0.245000 0.290000
0.710000 0.245000 0.290000
0.835000 0.245000 0.290000
0.960000 0.245000 0.290000
0.000000 0.370000 0.290000
0.085000 0.370000 0.290000
0.210000 0.370000 0.290000
0.335000 0.370000 0.290000
0.460000 0.370000 0.290000
0.585000 0.370000 0.290000
0.710000 0.370000 0.290000
0.835000 0.370000 0.290000
0.960000 0.370000 0.290000
0.000000 0.495000 0.290000
0.085000 0.495000 0.290000
0.210000 0.495000 0.290000
0.335000 0.495000 0.290000
0.460000 0.495000 0.290000
0.585000 0.495000 0.290000
0.710000 0.495000 0.290000
0.835000 0.495000 0.290000
0.960000 0.495000 0.290000
0.000000 0.620000 0.290000
0.085000 0.620000 0.290000
0.210000 0.620000 0.290000
0.335000 0.620000 0.290000
0.460000 0.620000 0.290000
0.585000 0.620000 0.290000
0.710000 0.620000 0.290000
0.835000 0.620000 0.290000
0.960000 0.620000 0.290000
0.000000 0.745000 0.290000
0.085000 0.745000 0.290000
0.210000 0.745000 0.290000
0.335000 0.745000 0.290000
0.460000 0.745000 0.290000
0.585000 0.745000 0.290000
0.710000 0.745000 0.290000
0.835000 0.745000 0.290000
0.960000 0.745000 0.290000
0.000000 0.870000 0.290000
0.085000 0.870000 0.290000
0.210000 0.870000 0.290000
0.335000 0.870000 0.290000
0.460000 0.870000 0.290000
0.585000 0.870000 0.290000
0.710000 0.870000 0.290000
0.835000 0.870000 0.290000
0.960000 0.870000 0.290000
0.000000 0.995000 0.290000
0.085000 0.995000 0.290000
0.210000 0.995000 0.290000
0.335000 0.995000 0.290000
0.460000 0.995000 0.290000
0.585000 0.995000 0.290000
0.710000 0.995000 0.290000
0.835000 0.995000 0.290000
0.960000 0.995000 0.290000
0.000000 0.000000 0.415000
0.085000 0.000000 0.415000
0.210000 0.000000 0.415000
0.335000 0.000000 0.415000
0.460000 0.000000 0.415000
0.585000 0.000000 0.415000
0.710000 0.000000 0.415000
0.835000 0.000000 0.415000
0.960000 0.000000 0.415000
0.000000 0.120000 0.415000
0.085000 0.120000 0.415000
0.210000 0.120000 0.415000
0.335000 0.120000 0.415000
0.460000 0.120000 0.415000
0.585000 0.120000 0.415000
0.710000 0.120000 0.415000
0.835000 0.120000 0.415000
0.960000 0.120000 0.415000
0.000000 0.245000 0.415000
0.085000 0.245000 0.415000
0.210000 0.245000 0.415000
0.335000 0.245000 0.415000
0.460000 0.245000 0.415000
0.585000 0.245000 0.415000
0.710000 0.245000 0.415000
0.835000 0.245000 0.415000
0.960000 0.245000 0.415000
0.000000 0.370000 0.415000
0.085000 0.370000 0.415000
0.210000 0.370000 0.415000
0.335000 0.370000 0.415000
0.460000 0.370000 0.415000
0.585000 0.370000 0.415000
0.710000 0.370000 0.415000
0.835000 0.370000 0.415000
0.960000 0.370000 0.415000
0.000000 0.495000 0.415000
0.085000 0.495000 0.415000
0.210000 0.495000 0.415000
0.335000 0.495000 0.415000
0.460000 0.495000 0.415000
0.585000 0.495000 0.415000
0.710000 0.495000 0.415000
0.835000 0.495000 0.415000
0.960000 0.495000 0.415000
0.000000 0.620000 0.415000
0.085000 0.620000 0.415000
0.210000 0.620000 0.415000
0.335000 0.620000 0.415000
0.460000 0.620000 0.415000
0.585000 0.620000 0.415000
0.710000 0.620000 0.415000
0.835000 0.620000 0.415000
0.960000 0.620000 0.415000
0.000000 0.745000 0.415000
0.085000 0.745000 0.415000
0.210000 0.745000 0.415000
0.335000 0.745000 0.415000
0.460000 0.745000 0.415000
0.585000 0.745000 0.415000
0.710000 0.745000 0.415000
0.835000 0.745000 0.415000
0.960000 0.745000 0.415000
0.000000 0.870000 0.415000
0.085000 0.870000 0.415000
0.210000 0.870000 0.415000
0.335000 0.870000 0.415000
0.460000 0.870000 0.415000
0.585000 0.870000 0.415000
0.710000 0.870000 0.415000
0.835000 0.870000 0.415000
0.960000 0.870000 0.415000
0.000000 0.995000 0.415000
0.085000 0.995000 0.415000
0.210000 0.995000 0.415000
0.335000 0.995000 0.415000
0.460000 0.995000 0.415000
0.585000 0.995000 0.415000
0.710000 0.995000 0.415000
0.835000 0.995000 0.415000
0.960000 0.995000 0.415000
0.000000 0.000000 0.540000
0.085000 0.000000 0.540000
0.210000 0.000000 0.540000
0.335000 0.000000 0.540000
0.460000 0.000000 0.540000
0.585000 0.000000 0.540000
0.710000 0.000000 0.540000
0.835000 0.000000 0.540000
0.960000 0.000000 0.540000
0.000000 0.120000 0.540000
0.085000 0.120000 0.540000
0.210000 0.120000 0.540000
0.335000 0.120000 0.540000
0.460000 0.120000 0.540000
0.585000 0.120000 0.540000
0.710000 0.120000 0.540000
0.835000 0.120000 0.540000
0.960000 0.120000 0.540000
0.000000 0.245000 0.540000
0.085000 0.245000 0.540000
0.210000 0.245000 0.540000
0.335000 0.245000 0.540000
0.460000 0.245000 0.540000
0.585000 0.245000 0.540000
0.710000 0.245000 0.540000
0.835000 0.245000 0.540000
0.960000 0.245000 0.540000
0.000000 0.370000 0.540000
0.085000 0.370000 0.540000
0.210000 0.370000 0.540000
0.335000 0.370000 0.540000
0.460000 0.370000 0.540000
0.585000 0.370000 0.540000
0.710000 0.370000 0.540000
0.835000 0.370000 0.540000
0.960000 0.370000 0.540000
0.000000 0.495000 0.540000
0.085000 0.495000 0.540000
0.210000 0.495000 0.540000
0.335000 0.495000 0.540000
0.460000 0.495000 0.540000
0.585000 0.495000 0.540000
0.710000 0.495000 0.540000
0.835000 0.495000 0.540000
0.960000 0.495000 0.540000
0.000000 0.620000 0.540000
0.085000 0.620000 0.540000
0.210000 0.620000 0.540000
0.335000 0.620000 0.540000
0.460000 0.620000 0.540000
0.585000 0.620000 0.540000
0.710000 0.620000 0.540000
0.835000 0.620000 0.540000
0.960000 0.620000 0.540000
0.000000 0.745000 0.540000
0.085000 0.745000 0.540000
0.210000 0.745000 0.540000
0.335000 0.745000 0.540000
0.460000 0.745000 0.540000
0.585000 0.745000 0.540000
0.710000 0.745000 0.540000
0.835000 0.745000 0.540000
0.960000 0.745000 0.540000
0.000000 0.870000 0.540000
0.085000 0.870000 0.540000
0.210000 0.870000 0.540000
0.335000 0.870000 0.540000
0.460000 0.870000 0.540000
0.585000 0.870000 0.540000
0.710000 0.870000 0.540000
0.835000 0.870000 0.540000
0.960000 0.870000 0.540000
0.000000 0.995000 0.540000
0.085000 0.995000 0.540000
0.210000 0.995000 0.540000
0.335000 0.995000 0.540000
0.460000 0.995000 0.540000
0.585000 0.995000 0.540000
0.710000 0.995000 0.540000
0.835000 0.995000 0.540000
0.960000 0.995000 0.540000
0.000000 0.000000 0.665000
0.085000 0.000000 0.665000
0.210000 0.000000 0.665000
0.335000 0.000000 0.665000
0.460000 0.000000 0.665000
0.585000 0.000000 0.665000
0.710000 0.000000 0.665000
0.835000 0.000000 0.665000
0.960000 0.000000 0.665000
0.000000 0.120000 0.665000
0.085000 0.120000 0.665000
0.210000 0.120000 0.665000
0.335000 0.120000 0.665000
0.460000 0.120000 0.665000
0.585000 0.120000 0.665000
0.710000 0.120000 0.665000
0.835000 0.120000 0.665000
0.960000 0.120000 0.665000
0.000000 0.245000 0.665000
0.085000 0.245000 0.665000
0.210000 0.245000 0.665000
0.335000 0.245000 0.665000
0.460000 0.245000 0.665000
0.585000 0.245000 0.665000
0.710000 0.245000 0.665000
0.835000 0.245000 0.665000
0.960000 0.245000 0.665000
0.000000 0.370000 0.665000
0.085000 0.370000 0.665000
0.210000 0.370000 0.665000
0.335000 0.370000 0.665000
0.460000 0.370000 0.665000
0.585000 0.370000 0.665000
0.710000 0.370000 0.665000
0.835000 0.370000 0.665000
0.960000 0.370000 0.665000
0.000000 0.495000 0.665000
0.085000 0.495000 0.665000
0.210000 0.495000 0.665000
0.335000 0.495000 0.665000
0.460000 0.495000 0.665000
0.585000 0.495000 0.665000
0.710000 0.495000 0.665000
0.835000 0.495000 0.665000
0.960000 0.495000 0.665000
0.000000 0.620000 0.665000
0.085000 0.620000 0.665000
0.210000 0.620000 0.665000
0.335000 0.620000 0.665000
0.460000 0.620000 0.665000
0.585000 0.620000 0.665000
0.710000 0.620000 0.665000
0.835000 0.620000 0.665000
0.960000 0.620000 0.665000
0.000000 0.745000 0.665000
0.085000 0.745000 0.665000
0.210000 0.745000 0.665000
0.335000 0.745000 0.665000
0.460000 0.745000 0.665000
0.585000 0.745000 0.665000
0.710000 0.745000 0.665000
0.835000 0.745000 0.665000
0.960000 0.745000 0.665000
0.000000 0.870000 0.665000
0.085000 0.870000 0.665000
0.210000 0.870000 0.665000
0.335000 0.870000 0.665000
0.460000 0.870000 0.665000
0.585000 0.870000 0.665000
0.710000 0.870000 0.665000
0.835000 0.870000 0.665000
0.960000 0.870000 0.665000
0.000000 0.995000 0.665000
0.085000 0.995000 0.665000
0.210000 0.995000 0.665000
0.335000 0.995000 0.665000
0.460000 0.995000 0.665000
0.585000 0.995000 0.665000
0.710000 0.995000 0.665000
0.835000 0.995000 0.665000
0.960000 0.995000 0.665000
0.000000 0.000000 0.790000
0.085000 0.000000 0.790000
0.210000 0.000000 0.790000
0.335000 0.000000 0.790000
0.460000 0.000000 0.790000
0.585000 0.000000 0.790000
0.710000 0.000000 0.790000
0.835000 0.000000 0.790000
0.960000 0.000000 0.790000
0.000000 0.120000 0.790000
0.085000 0.120000 0.790000
0.210000 0.120000 0.790000
0.335000 0.120000 0.790000
0.460000 0.120000 0.790000
0.585000 0.120000 0.790000
0.710000 0.120000 0.790000
0.835000 0.120000 0.790000
0.960000 0.120000 0.790000
0.000000 0.245000 0.790000
0.085000 0.245000 0.790000
0.210000 0.245000 0.790000
0.335000 0.245000 0.790000
0.460000 0.245000 0.790000
0.585000 0.245000 0.790000
0.710000 0.245000 0.790000
0.835000 0.245000 0.790000
0.960000 0.245000 0.790000
0.000000 0.370000 0.790000
0.085000 0.370000 0.790000
0.210000 0.370000 0.790000
0.335000 0.370000 0.790000
0.460000 0.370000 0.790000
0.585000 0.370000 0.790000
0.710000 0.370000 0.790000
0.835000 0.370000 0.790000
0.960000 0.370000 0.790000
0.000000 0.495000 0.790000
0.085000 0.495000 0.790000
0.210000 0.495000 0.790000
0.335000 0.495000 0.790000
0.460000 0.495000 0.790000
0.585000 0.495000 0.790000
0.710000 0.495000 0.790000
0.835000 0.495000 0.790000
0.960000 0.495000 0.790000
0.000000 0.620000 0.790000
0.085000 0.620000 0.790000
0.210000 0.620000 0.790000
0.335000 0.620000 0.790000
0.460000 0.620000 0.790000
0.585000 0.620000 0.790000
0.710000 0.620000 0.790000
0.835000 0.620000 0.790000
0.960000 0.620000 0.790000
0.000000 0.745000 0.790000
0.085000 0.745000 0.790000
0.210000 0.745000 0.790000
0.335000 0.745000 0.790000
0.460000 0.745000 0.790000
0.585000 0.745000 0.790000
0.710000 0.745000 0.790000
0.835000 0.745000 0.790000
0.960000 0.745000 0.790000
0.000000 0.870000 0.790000
0.085000 0.870000 0.790000
0.210000 0.870000 0.790000
0.335000 0.870000 0.790000
0.460000 0.870000 0.790000
0.585000 0.870000 0.790000
0.710000 0.870000 0.790000
0.835000 0.870000 0.790000
0.960000 0.870000 0.790000
0.000000 0.995000 0.790000
0.085000 0.995000 0.790000
0.210000 0.995000 0.790000
0.335000 0.995000 0.790000
0.460000 0.995000 0.790000
0.585000 0.995000 0.790000
0.710000 0.995000 0.790000
0.835000 0.995000 0.790000
0.960000 0.995000 0.790000
0.000000 0.000000 0.915000
0.085000 0.000000 0.915000
0.210000 0.000000 0.915000
0.335000 0.000000 0.915000
0.460000 0.000000 0.915000
0.585000 0.000000 0.915000
0.710000 0.000000 0.915000
0.835000 0.000000 0.915000
0.960000 0.000000 0.915000
0.000000 0.120000 0.915000
0.085000 0.120000 0.915000
0.210000 0.120000 0.915000
0.335000 0.120000 0.915000
0.460000 0.120000 0.915000
0.585000 0.120000 0.915000
0.710000 0.120000 0.915000
0.835000 0.120000 0.915000
0.960000 0.120000 0.915000
0.000000 0.245000 0.915000
0.085000 0.245000 0.915000
0.210000 0.245000 0.915000
0.335000 0.245000 0.915000
0.460000 0.245000 0.915000
0.585000 0.245000 0.915000
0.710000 0.245000 0.915000
0.835000 0.245000 0.915000
0.960000 0.245000 0.915000
0.000000 0.370000 0.915000
0.085000 0.370000 0.915000
0.210000 0.370000 0.915000
0.335000 0.370000 0.915000
0.460000 0.370000 0.915000
0.585000 0.370000 0.915000
0.710000 0.370000 0.915000
0.835000 0.370000 0.915000
0.960000 0.370000 0.915000
0.000000 0.495000 0.915000
0.085000 0.495000 0.915000
0.210000 0.495000 0.915000
0.335000 0.495000 0.915000
0.460000 0.495000 0.915000
0.585000 0.495000 0.915000
0.710000 0.495000 0.915000
0.835000 0.495000 0.915000
0.960000 0.495000 0.915000
0.000000 0.620000 0.915000
0.085000 0.620000 0.915000
0.210000 0.620000 0.915000
0.335000 0.620000 0.915000
0.460000 0.620000 0.915000
0.585000 0.620000 0.915000
0.710000 0.620000 0.915000
0.835000 0.620000 0.915000
0.960000 0.620000 0.915000
0.000000 0.745000 0.915000
0.085000 0.745000 0.915000
0.210000 0.745000 0.915000
0.335000 0.745000 0.915000
0.460000 0.745000 0.915000
0.585000 0.745000 0.915000
0.710000 0.745000 0.915000
0.835000 0.745000 0.915000
0.960000 0.745000 0.915000
0.000000 0.870000 0.915000
0.085000 0.870000 0.915000
0.210000 0.870000 0.915000
0.335000 0.870000 0.915000
0.460000 0.870000 0.915000
0.585000 0.870000 0.915000
0.710000 0.870000 0.915000
0.835000 0.870000 0.915000
0.960000 0.870000 0.915000
0.000000 0.995000 0.915000
0.085000 0.995000 0.915000
0.210000 0.995000 0.915000
0.335000 0.995000 0.915000
0.460000 0.995000 0.915000
0.585000 0.995000 0.915000
0.710000 0.995000 0.915000
0.835000 0.995000 0.915000
0.960000 0.995000 0.915000
0.000000 0.000000 1.000000
0.085000 0.000000 1.000000
0.210000 0.000000 1.000000
0.335000 0.000000 1.000000
0.460000 0.000000 1.000000
0.585000 0.000000 1.000000
0.710000 0.000000 1.000000
0.835000 0.000000 1.000000
0.960000 0.000000 1.000000
0.000000 0.120000 1.000000
0.085000 0.120000 1.000000
0.210000 0.120000 1.000000
0.335000 0.120000 1.000000
0.460000 0.120000 1.000000
0.585000 0.120000 1.000000
0.710000 0.120000 1.000000
0.835000 0.120000 1.000000
0.960000 0.120000 1.000000
0.000000 0.245000 1.000000
0.085000 0.245000 1.000000
0.210000 0.245000 1.000000
0.335000 0.245000 1.000000
0.460000 0.245000 1.000000
0.585000 0.245000 1.000000
0.710000 0.245000 1.000000
0.835000 0.245000 1.000000
0.960000 0.245000 1.000000
0.000000 0.370000 1.000000
0.085000 0.370000 1.000000
0.210000 0.370000 1.000000
0.335000 0.370000 1.000000
0.460000 0.370000 1.000000
0.585000 0.370000 1.000000
0.710000 0.370000 1.000000
0.835000 0.370000 1.000000
0.960000 0.370000 1.000000
0.000000 0.495000 1.000000
0.085000 0.495000 1.000000
0.210000 0.495000 1.000000
0.335000 0.495000 1.000000
0.460000 0.495000 1.000000
0.585000 0.495000 1.000000
0.710000 0.495000 1.000000
0.835000 0.495000 1.000000
0.960000 0.495000 1.000000
0.000000 0.620000 1.000000
0.085000 0.620000 1.000000
0.210000 0.620000 1.000000
0.335000 0.620000 1.000000
0.460000 0.620000 1.000000
0.585000 0.620000 1.000000
0.710000 0.620000 1.000000
0.835000 0.620000 1.000000
0.960000 0.620000 1.000000
0.000000 0.745000 1.000000
0.085000 0.745000 1.000000
0.210000 0.745000 1.000000
0.335000 0.745000 1.000000
0.460000 0.745000 1.000000
0.585000 0.745000 1.000000
0.710000 0.745000 1.000000
0.835000 0.745000 1.000000
0.960000 0.745000 1.000000
0.000000 0.870000 1.000000
0.085000 0.870000 1.000000
0.210000 0.870000 1.000000
0.335000 0.870000 1.000000
0.460000 0.870000 1.000000
0.585000 0.870000 1.000000
0.710000 0.870000 1.000000
0.835000 0.870000 1.000000
0.960000 0.870000 1.000000
0.000000 0.995000 1.000000
0.085000 0.995000 1.000000
0.210000 0.995000 1.000000
0.335000 0.995000 1.000000
0.460000 0.995000 1.000000
0.585000 0.995000 1.000000
0.710000 0.995000 1.000000
0.835000 0.995000 1.000000
0.960000 0.995000 1.000000
