lut-visualizer/public/data/sample_luts/cool_grade.cube
LUT_3D_SIZE 17
DOMAIN_MIN 0.0 0.0 0.0
DOMAIN_MAX 1.0 1.0 1.0
0.000063 0.000063 0.007902
0.012291 0.000345 0.008184
0.045056 0.001101 0.008941
0.087439 0.002079 0.009919
0.138049 0.003247 0.011087
0.195500 0.004573 0.012412
0.258402 0.006025 0.013864
0.325367 0.007570 0.015409
0.395007 0.009177 0.017016
0.465932 0.010814 0.018653
0.536756 0.012448 0.020288
0.606089 0.014048 0.021888
0.672542 0.015582 0.023421
0.734728 0.017017 0.024856
0.791258 0.018321 0.026161
0.840743 0.019463 0.027303
0.881796 0.020411 0.028250
0.002278 0.030158 0.010118
0.014506 0.030440 0.010400
0.047272 0.031196 0.011156
0.089654 0.032174 0.012134
0.140265 0.033342 0.013302
0.197716 0.034668 0.014628
0.260618 0.036119 0.016079
0.327583 0.037665 0.017625
0.397222 0.039272 0.019232
0.468148 0.040909 0.020869
0.538971 0.042543 0.022503
0.608304 0.044143 0.024103
0.674758 0.045677 0.025637
0.736943 0.047112 0.027072
0.793473 0.048416 0.028376
0.842959 0.049558 0.029518
0.884011 0.050506 0.030466
0.005341 0.071766 0.013181
0.017569 0.072048 0.013463
0.050335 0.072805 0.014219
0.092717 0.073783 0.015197
0.143328 0.074951 0.016365
0.200779 0.076276 0.017691
0.263681 0.077728 0.019143
0.330646 0.079273 0.020688
0.400285 0.080880 0.022295
0.471211 0.082517 0.023932
0.542034 0.084152 0.025566
0.611367 0.085752 0.027166
0.677821 0.087285 0.028700
0.740007 0.088720 0.030135
0.796536 0.090025 0.031439
0.846022 0.091167 0.032581
0.887074 0.092114 0.033529
0.009134 0.123281 0.016973
0.021361 0.123563 0.017255
0.054127 0.124319 0.018011
0.096510 0.125297 0.018990
0.147120 0.126465 0.020157
0.204571 0.127791 0.021483
0.267473 0.129243 0.022935
0.334438 0.130788 0.024480
0.404078 0.132395 0.026087
0.475003 0.134032 0.027724
0.545827 0.135666 0.029358
0.615159 0.137266 0.030958
0.681613 0.138800 0.032492
0.743799 0.140235 0.033927
0.800329 0.141540 0.035232
0.849814 0.142682 0.036374
0.890867 0.143629 0.037321
0.013537 0.183095 0.021376
0.025765 0.183377 0.021659
0.058530 0.184133 0.022415
0.100913 0.185111 0.023393
0.151524 0.186279 0.024561
0.208974 0.187605 0.025887
0.271876 0.189057 0.027338
0.338841 0.190602 0.028884
0.408481 0.192209 0.030491
0.479407 0.193846 0.032127
0.550230 0.195480 0.033762
0.619563 0.197080 0.035362
0.686016 0.198614 0.036895
0.748202 0.200049 0.038330
0.804732 0.201353 0.039635
0.854217 0.202495 0.040777
0.895270 0.203443 0.041724
0.018433 0.249601 0.026272
0.030661 0.249883 0.026555
0.063426 0.250639 0.027311
0.105809 0.251617 0.028289
0.156420 0.252785 0.029457
0.213870 0.254111 0.030782
0.276772 0.255562 0.032234
0.343737 0.257108 0.033779
0.413377 0.258715 0.035387
0.484303 0.260351 0.037023
0.555126 0.261986 0.038658
0.624459 0.263586 0.040258
0.690912 0.265119 0.041791
0.753098 0.266554 0.043226
0.809628 0.267859 0.044531
0.859113 0.269001 0.045673
0.900166 0.269948 0.046620
0.023703 0.321191 0.031543
0.035931 0.321473 0.031825
0.068697 0.322229 0.032581
0.111079 0.323207 0.033559
0.161690 0.324375 0.034727
0.219140 0.325701 0.036053
0.282042 0.327152 0.037504
0.349007 0.328698 0.039050
0.418647 0.330305 0.040657
0.489573 0.331941 0.042293
0.560396 0.333576 0.043928
0.629729 0.335176 0.045528
0.696182 0.336709 0.047061
0.758368 0.338144 0.048497
0.814898 0.339449 0.049801
0.864384 0.340591 0.050943
0.905436 0.341538 0.051890
0.029229 0.396258 0.037069
0.041457 0.396540 0.037351
0.074223 0.397296 0.038107
0.116605 0.398274 0.039085
0.167216 0.399442 0.040253
0.224667 0.400768 0.041579
0.287569 0.402219 0.043030
0.354534 0.403765 0.044576
0.424173 0.405372 0.046183
0.495099 0.407008 0.047820
0.565922 0.408643 0.049454
0.635255 0.410243 0.051054
0.701709 0.411776 0.052588
0.763894 0.413211 0.054023
0.820424 0.414516 0.055327
0.869910 0.415658 0.056469
0.910962 0.416605 0.057417
0.034893 0.473194 0.042733
0.047121 0.473476 0.043015
0.079887 0.474233 0.043771
0.122269 0.475211 0.044749
0.172880 0.476379 0.045917
0.230330 0.477704 0.047243
0.293232 0.479156 0.048694
0.360197 0.480701 0.050240
0.429837 0.482308 0.051847
0.500763 0.483945 0.053483
0.571586 0.485580 0.055118
0.640919 0.487180 0.056718
0.707372 0.488713 0.058251
0.769558 0.490148 0.059687
0.826088 0.491453 0.060991
0.875574 0.492595 0.062133
0.916626 0.493542 0.063080
0.040576 0.550393 0.048416
0.052804 0.550676 0.048698
0.085570 0.551432 0.049454
0.127952 0.552410 0.050432
0.178563 0.553578 0.051600
0.236014 0.554904 0.052926
0.298916 0.556355 0.054377
0.365881 0.557901 0.055923
0.435520 0.559508 0.057530
0.506446 0.561144 0.059167
0.577269 0.562779 0.060801
0.646602 0.564379 0.062401
0.713056 0.565912 0.063935
0.775241 0.567347 0.065370
0.831771 0.568652 0.066674
0.881257 0.569794 0.067816
0.922309 0.570741 0.068764
0.046160 0.626248 0.054000
0.058388 0.626530 0.054282
0.091154 0.627286 0.055038
0.133536 0.628264 0.056016
0.184147 0.629432 0.057184
0.241598 0.630758 0.058510
0.304500 0.632209 0.059962
0.371465 0.633755 0.061507
0.441104 0.635362 0.063114
0.512030 0.636999 0.064751
0.582853 0.638633 0.066385
0.652186 0.640233 0.067985
0.718640 0.641767 0.069519
0.780826 0.643202 0.070954
0.837355 0.644506 0.072258
0.886841 0.645648 0.073400
0.927893 0.646596 0.074348
0.051527 0.699150 0.059367
0.063755 0.699432 0.059649
0.096521 0.700188 0.060405
0.138903 0.701166 0.061383
0.189514 0.702334 0.062551
0.246964 0.703660 0.063877
0.309866 0.705112 0.065328
0.376832 0.706657 0.066874
0.446471 0.708264 0.068481
0.517397 0.709901 0.070118
0.588220 0.711535 0.071752
0.657553 0.713135 0.073352
0.724006 0.714669 0.074886
0.786192 0.716104 0.076321
0.842722 0.717408 0.077625
0.892208 0.718550 0.078767
0.933260 0.719498 0.079714
0.056558 0.767492 0.064398
0.068786 0.767775 0.064680
0.101552 0.768531 0.065436
0.143934 0.769509 0.066414
0.194545 0.770677 0.067582
0.251996 0.772002 0.068908
0.314898 0.773454 0.070360
0.381863 0.774999 0.071905
0.451502 0.776606 0.073512
0.522428 0.778243 0.075149
0.593251 0.779878 0.076783
0.662584 0.781478 0.078383
0.729038 0.783011 0.079917
0.791224 0.784446 0.081352
0.847753 0.785751 0.082656
0.897239 0.786893 0.083798
0.938291 0.787840 0.084746
0.061136 0.829668 0.068975
0.073363 0.829950 0.069257
0.106129 0.830706 0.070013
0.148511 0.831684 0.070991
0.199122 0.832852 0.072159
0.256573 0.834178 0.073485
0.319475 0.835630 0.074937
0.386440 0.837175 0.076482
0.456079 0.838782 0.078089
0.527005 0.840419 0.079726
0.597829 0.842053 0.081360
0.667161 0.843653 0.082960
0.733615 0.845187 0.084494
0.795801 0.846622 0.085929
0.852331 0.847926 0.087233
0.901816 0.849068 0.088375
0.942868 0.850016 0.089323
0.065140 0.884069 0.072980
0.077368 0.884352 0.073262
0.110134 0.885108 0.074018
0.152516 0.886086 0.074996
0.203127 0.887254 0.076164
0.260578 0.888580 0.077490
0.323480 0.890031 0.078942
0.390445 0.891577 0.080487
0.460084 0.893184 0.082094
0.531010 0.894820 0.083731
0.601833 0.896455 0.085365
0.671166 0.898055 0.086965
0.737620 0.899588 0.088499
0.799806 0.901023 0.089934
0.856335 0.902328 0.091238
0.905821 0.903470 0.092380
0.946873 0.904417 0.093328
0.068455 0.929089 0.076294
0.080682 0.929372 0.076576
0.113448 0.930128 0.077332
0.155830 0.931106 0.078310
0.206441 0.932274 0.079478
0.263892 0.933600 0.080804
0.326794 0.935051 0.082256
0.393759 0.936596 0.083801
0.463399 0.938204 0.085408
0.534324 0.939840 0.087045
0.605148 0.941475 0.088679
0.674480 0.943075 0.090279
0.740934 0.944608 0.091813
0.803120 0.946043 0.093248
0.859650 0.947348 0.094553
0.909135 0.948490 0.095694
0.950187 0.949437 0.096642
0.070960 0.963121 0.078799
0.083188 0.963403 0.079081
0.115953 0.964159 0.079838
0.158336 0.965137 0.080816
0.208946 0.966305 0.081984
0.266397 0.967631 0.083309
0.329299 0.969082 0.084761
0.396264 0.970628 0.086306
0.465904 0.972235 0.087913
0.536829 0.973871 0.089550
0.607653 0.975506 0.091185
0.676986 0.977106 0.092785
0.743439 0.978639 0.094318
0.805625 0.980074 0.095753
0.862155 0.981379 0.097058
0.911640 0.982521 0.098200
0.952693 0.983468 0.099147
0.000337 0.000337 0.042361
0.012565 0.000619 0.042644
0.045331 0.001375 0.043400
0.087713 0.002354 0.044378
0.138324 0.003521 0.045546
0.195774 0.004847 0.046872
0.258676 0.006299 0.048323
0.325641 0.007844 0.049868
0.395281 0.009451 0.051476
0.466207 0.011088 0.053112
0.537030 0.012722 0.054747
0.606363 0.014322 0.056347
0.672816 0.015856 0.057880
0.735002 0.017291 0.059315
0.791532 0.018596 0.060620
0.841017 0.019738 0.061762
0.882070 0.020685 0.062709
0.002553 0.030432 0.044577
0.014780 0.030714 0.044859
0.047546 0.031470 0.045615
0.089928 0.032448 0.046593
0.140539 0.033616 0.047761
0.197990 0.034942 0.049087
0.260892 0.036394 0.050539
0.327857 0.037939 0.052084
0.397496 0.039546 0.053691
0.468422 0.041183 0.055328
0.539246 0.042817 0.056962
0.608578 0.044417 0.058562
0.675032 0.045951 0.060096
0.737218 0.047386 0.061531
0.793748 0.048690 0.062835
0.843233 0.049832 0.063977
0.884285 0.050780 0.064925
0.005616 0.072040 0.047640
0.017843 0.072323 0.047922
0.050609 0.073079 0.048678
0.092991 0.074057 0.049656
0.143602 0.075225 0.050824
0.201053 0.076551 0.052150
0.263955 0.078002 0.053602
0.330920 0.079548 0.055147
0.400560 0.081155 0.056754
0.471485 0.082791 0.058391
0.542309 0.084426 0.060025
0.611641 0.086026 0.061625
0.678095 0.087559 0.063159
0.740281 0.088994 0.064594
0.796811 0.090299 0.065898
0.846296 0.091441 0.067040
0.887348 0.092388 0.067988
0.009408 0.123555 0.051432
0.021636 0.123838 0.051714
0.054401 0.124594 0.052471
0.096784 0.125572 0.053449
0.147395 0.126740 0.054617
0.204845 0.128065 0.055942
0.267747 0.129517 0.057394
0.334712 0.131062 0.058939
0.404352 0.132669 0.060546
0.475278 0.134306 0.062183
0.546101 0.135941 0.063818
0.615434 0.137541 0.065418
0.681887 0.139074 0.066951
0.744073 0.140509 0.068386
0.800603 0.141814 0.069691
0.850088 0.142956 0.070833
0.891141 0.143903 0.071780
0.013811 0.183369 0.055836
0.026039 0.183651 0.056118
0.058805 0.184408 0.056874
0.101187 0.185386 0.057852
0.151798 0.186554 0.059020
0.209248 0.187879 0.060346
0.272151 0.189331 0.061797
0.339116 0.190876 0.063343
0.408755 0.192483 0.064950
0.479681 0.194120 0.066587
0.550504 0.195755 0.068221
0.619837 0.197355 0.069821
0.686291 0.198888 0.071354
0.748476 0.200323 0.072790
0.805006 0.201628 0.074094
0.854492 0.202770 0.075236
0.895544 0.203717 0.076183
0.018707 0.249875 0.060732
0.030935 0.250157 0.061014
0.063701 0.250913 0.061770
0.106083 0.251891 0.062748
0.156694 0.253059 0.063916
0.214144 0.254385 0.065242
0.277046 0.255837 0.066693
0.344011 0.257382 0.068239
0.413651 0.258989 0.069846
0.484577 0.260626 0.071482
0.555400 0.262260 0.073117
0.624733 0.263860 0.074717
0.691186 0.265394 0.076250
0.753372 0.266829 0.077685
0.809902 0.268133 0.078990
0.859388 0.269275 0.080132
0.900440 0.270223 0.081079
0.023977 0.321465 0.066002
0.036205 0.321747 0.066284
0.068971 0.322503 0.067040
0.111353 0.323481 0.068018
0.161964 0.324649 0.069186
0.219415 0.325975 0.070512
0.282317 0.327426 0.071963
0.349282 0.328972 0.073509
0.418921 0.330579 0.075116
0.489847 0.332216 0.076753
0.560670 0.333850 0.078387
0.630003 0.335450 0.079987
0.696457 0.336984 0.081521
0.758643 0.338419 0.082956
0.815172 0.339723 0.084260
0.864658 0.340865 0.085402
0.905710 0.341813 0.086350
0.029504 0.396532 0.071528
0.041731 0.396814 0.071810
0.074497 0.397570 0.072566
0.116879 0.398548 0.073544
0.167490 0.399716 0.074712
0.224941 0.401042 0.076038
0.287843 0.402493 0.077490
0.354808 0.404039 0.079035
0.424447 0.405646 0.080642
0.495373 0.407283 0.082279
0.566197 0.408917 0.083913
0.635529 0.410517 0.085513
0.701983 0.412051 0.087047
0.764169 0.413486 0.088482
0.820699 0.414790 0.089786
0.870184 0.415932 0.090928
0.911236 0.416880 0.091876
0.035167 0.473469 0.077192
0.047395 0.473751 0.077474
0.080161 0.474507 0.078230
0.122543 0.475485 0.079208
0.173154 0.476653 0.080376
0.230605 0.477979 0.081702
0.293507 0.479430 0.083153
0.360472 0.480976 0.084699
0.430111 0.482583 0.086306
0.501037 0.484219 0.087943
0.571860 0.485854 0.089577
0.641193 0.487454 0.091177
0.707647 0.488987 0.092711
0.769833 0.490422 0.094146
0.826362 0.491727 0.095450
0.875848 0.492869 0.096592
0.916900 0.493816 0.097540
0.040851 0.550668 0.082875
0.053078 0.550950 0.083157
0.085844 0.551706 0.083913
0.128226 0.552684 0.084891
0.178837 0.553852 0.086059
0.236288 0.555178 0.087385
0.299190 0.556629 0.088837
0.366155 0.558175 0.090382
0.435794 0.559782 0.091989
0.506720 0.561419 0.093626
0.577544 0.563053 0.095260
0.646876 0.564653 0.096860
0.713330 0.566187 0.098394
0.775516 0.567622 0.099829
0.832046 0.568926 0.101133
0.881531 0.570068 0.102275
0.922583 0.571016 0.103223
0.046435 0.626522 0.088459
0.058662 0.626804 0.088741
0.091428 0.627560 0.089497
0.133811 0.628538 0.090475
0.184421 0.629706 0.091643
0.241872 0.631032 0.092969
0.304774 0.632484 0.094421
0.371739 0.634029 0.095966
0.441379 0.635636 0.097573
0.512304 0.637273 0.099210
0.583128 0.638907 0.100844
0.652460 0.640507 0.102444
0.718914 0.642041 0.103978
0.781100 0.643476 0.105413
0.837630 0.644780 0.106717
0.887115 0.645922 0.107859
0.928168 0.646870 0.108807
0.051802 0.699424 0.093826
0.064029 0.699706 0.094108
0.096795 0.700462 0.094864
0.139177 0.701440 0.095842
0.189788 0.702608 0.097010
0.247239 0.703934 0.098336
0.310141 0.705386 0.099788
0.377106 0.706931 0.101333
0.446745 0.708538 0.102940
0.517671 0.710175 0.104577
0.588495 0.711809 0.106211
0.657827 0.713409 0.107811
0.724281 0.714943 0.109345
0.786467 0.716378 0.110780
0.842996 0.717683 0.112084
0.892482 0.718825 0.113226
0.933534 0.719772 0.114174
0.056833 0.767767 0.098857
0.069060 0.768049 0.099139
0.101826 0.768805 0.099895
0.144208 0.769783 0.100873
0.194819 0.770951 0.102041
0.252270 0.772277 0.103367
0.315172 0.773728 0.104819
0.382137 0.775274 0.106364
0.451777 0.776881 0.107971
0.522702 0.778517 0.109608
0.593526 0.780152 0.111242
0.662858 0.781752 0.112842
0.729312 0.783285 0.114376
0.791498 0.784721 0.115811
0.848028 0.786025 0.117115
0.897513 0.787167 0.118257
0.938565 0.788114 0.119205
0.061410 0.829942 0.103434
0.073638 0.830224 0.103716
0.106403 0.830981 0.104472
0.148786 0.831959 0.105450
0.199396 0.833127 0.106618
0.256847 0.834452 0.107944
0.319749 0.835904 0.109396
0.386714 0.837449 0.110941
0.456354 0.839056 0.112548
0.527279 0.840693 0.114185
0.598103 0.842328 0.115819
0.667436 0.843928 0.117419
0.733889 0.845461 0.118953
0.796075 0.846896 0.120388
0.852605 0.848201 0.121693
0.902090 0.849343 0.122835
0.943143 0.850290 0.123782
0.065415 0.884344 0.107439
0.077642 0.884626 0.107721
0.110408 0.885382 0.108477
0.152790 0.886360 0.109455
0.203401 0.887528 0.110623
0.260852 0.888854 0.111949
0.323754 0.890305 0.113401
0.390719 0.891851 0.114946
0.460359 0.893458 0.116553
0.531284 0.895095 0.118190
0.602108 0.896729 0.119824
0.671440 0.898329 0.121424
0.737894 0.899863 0.122958
0.800080 0.901298 0.124393
0.856610 0.902602 0.125697
0.906095 0.903744 0.126839
0.947147 0.904692 0.127787
0.068729 0.929364 0.110753
0.080957 0.929646 0.111035
0.113722 0.930402 0.111791
0.156105 0.931380 0.112770
0.206715 0.932548 0.113937
0.264166 0.933874 0.115263
0.327068 0.935325 0.116715
0.394033 0.936871 0.118260
0.463673 0.938478 0.119867
0.534598 0.940115 0.121504
0.605422 0.941749 0.123138
0.674755 0.943349 0.124738
0.741208 0.944883 0.126272
0.803394 0.946318 0.127707
0.859924 0.947622 0.129012
0.909409 0.948764 0.130154
0.950462 0.949711 0.131101
0.071234 0.963395 0.113258
0.083462 0.963677 0.113541
0.116228 0.964433 0.114297
0.158610 0.965411 0.115275
0.209221 0.966579 0.116443
0.266671 0.967905 0.117769
0.329573 0.969357 0.119220
0.396538 0.970902 0.120765
0.466178 0.972509 0.122373
0.537104 0.974146 0.124009
0.607927 0.975780 0.125644
0.677260 0.977380 0.127244
0.743713 0.978914 0.128777
0.805899 0.980349 0.130212
0.862429 0.981653 0.131517
0.911914 0.982795 0.132659
0.952967 0.983743 0.133606
0.000704 0.000704 0.088477
0.012932 0.000986 0.088759
0.045698 0.001742 0.089516
0.088080 0.002721 0.090494
0.138691 0.003888 0.091662
0.196141 0.005214 0.092987
0.259043 0.006666 0.094439
0.326008 0.008211 0.095984
0.395648 0.009818 0.097591
0.466574 0.011455 0.099228
0.537397 0.013089 0.100863
0.606730 0.014689 0.102463
0.673183 0.016223 0.103996
0.735369 0.017658 0.105431
0.791899 0.018963 0.106736
0.841384 0.020105 0.107878
0.882437 0.021052 0.108825
0.002920 0.030799 0.090693
0.015147 0.031081 0.090975
0.047913 0.031837 0.091731
0.090295 0.032815 0.092709
0.140906 0.033983 0.093877
0.198357 0.035309 0.095203
0.261259 0.036761 0.096654
0.328224 0.038306 0.098200
0.397863 0.039913 0.099807
0.468789 0.041550 0.101444
0.539613 0.043184 0.103078
0.608945 0.044784 0.104678
0.675399 0.046318 0.106212
0.737585 0.047753 0.107647
0.794115 0.049057 0.108951
0.843600 0.050199 0.110093
0.884652 0.051147 0.111041
0.005983 0.072407 0.093756
0.018210 0.072690 0.094038
0.050976 0.073446 0.094794
0.093359 0.074424 0.095772
0.143969 0.075592 0.096940
0.201420 0.076918 0.098266
0.264322 0.078369 0.099718
0.331287 0.079915 0.101263
0.400927 0.081522 0.102870
0.471852 0.083158 0.104507
0.542676 0.084793 0.106141
0.612008 0.086393 0.107741
0.678462 0.087926 0.109275
0.740648 0.089361 0.110710
0.797178 0.090666 0.112014
0.846663 0.091808 0.113156
0.887715 0.092755 0.114104
0.009775 0.123922 0.097548
0.022003 0.124205 0.097830
0.054768 0.124961 0.098587
0.097151 0.125939 0.099565
0.147762 0.127107 0.100733
0.205212 0.128432 0.102058
0.268114 0.129884 0.103510
0.335079 0.131429 0.105055
0.404719 0.133036 0.106662
0.475645 0.134673 0.108299
0.546468 0.136308 0.109933
0.615801 0.137908 0.111533
0.682254 0.139441 0.113067
0.744440 0.140876 0.114502
0.800970 0.142181 0.115807
0.850455 0.143323 0.116949
0.891508 0.144270 0.117896
0.014178 0.183736 0.101951
0.026406 0.184018 0.102234
0.059172 0.184775 0.102990
0.101554 0.185753 0.103968
0.152165 0.186921 0.105136
0.209615 0.188246 0.106462
0.272518 0.189698 0.107913
0.339483 0.191243 0.109459
0.409122 0.192850 0.111066
0.480048 0.194487 0.112702
0.550871 0.196122 0.114337
0.620204 0.197722 0.115937
0.686658 0.199255 0.117470
0.748843 0.200690 0.118905
0.805373 0.201995 0.120210
0.854859 0.203137 0.121352
0.895911 0.204084 0.122299
0.019074 0.250242 0.106847
0.031302 0.250524 0.107130
0.064068 0.251280 0.107886
0.106450 0.252258 0.108864
0.157061 0.253426 0.110032
0.214511 0.254752 0.111358
0.277413 0.256204 0.112809
0.344378 0.257749 0.114354
0.414018 0.259356 0.115962
0.484944 0.260993 0.117598
0.555767 0.262627 0.119233
0.625100 0.264227 0.120833
0.691553 0.265761 0.122366
0.753739 0.267196 0.123801
0.810269 0.268500 0.125106
0.859755 0.269642 0.126248
0.900807 0.270590 0.127195
0.024344 0.321832 0.112118
0.036572 0.322114 0.112400
0.069338 0.322870 0.113156
0.111720 0.323848 0.114134
0.162331 0.325016 0.115302
0.219782 0.326342 0.116628
0.282684 0.327793 0.118079
0.349649 0.329339 0.119625
0.419288 0.330946 0.121232
0.490214 0.332583 0.122869
0.561037 0.334217 0.124503
0.630370 0.335817 0.126103
0.696824 0.337351 0.127636
0.759010 0.338786 0.129072
0.815539 0.340090 0.130376
0.865025 0.341232 0.131518
0.906077 0.342180 0.132465
0.029871 0.396899 0.117644
0.042098 0.397181 0.117926
0.074864 0.397937 0.118682
0.117246 0.398915 0.119660
0.167857 0.400083 0.120828
0.225308 0.401409 0.122154
0.288210 0.402860 0.123606
0.355175 0.404406 0.125151
0.424814 0.406013 0.126758
0.495740 0.407650 0.128395
0.566564 0.409284 0.130029
0.635896 0.410884 0.131629
0.702350 0.412418 0.133163
0.764536 0.413853 0.134598
0.821066 0.415157 0.135902
0.870551 0.416299 0.137044
0.911603 0.417247 0.137992
0.035534 0.473836 0.123308
0.047762 0.474118 0.123590
0.080528 0.474874 0.124346
0.122910 0.475852 0.125324
0.173521 0.477020 0.126492
0.230972 0.478346 0.127818
0.293874 0.479797 0.129269
0.360839 0.481343 0.130815
0.430478 0.482950 0.132422
0.501404 0.484586 0.134059
0.572227 0.486221 0.135693
0.641560 0.487821 0.137293
0.708014 0.489354 0.138826
0.770200 0.490789 0.140262
0.826729 0.492094 0.141566
0.876215 0.493236 0.142708
0.917267 0.494183 0.143655
0.041218 0.551035 0.128991
0.053445 0.551317 0.129273
0.086211 0.552073 0.130029
0.128593 0.553051 0.131007
0.179204 0.554219 0.132175
0.236655 0.555545 0.133501
0.299557 0.556996 0.134952
0.366522 0.558542 0.136498
0.436161 0.560149 0.138105
0.507087 0.561786 0.139742
0.577911 0.563420 0.141376
0.647243 0.565020 0.142976
0.713697 0.566554 0.144510
0.775883 0.567989 0.145945
0.832413 0.569293 0.147249
0.881898 0.570435 0.148391
0.922950 0.571383 0.149339
0.046802 0.626889 0.134575
0.059029 0.627171 0.134857
0.091795 0.627927 0.135613
0.134178 0.628905 0.136591
0.184788 0.630073 0.137759
0.242239 0.631399 0.139085
0.305141 0.632851 0.140537
0.372106 0.634396 0.142082
0.441746 0.636003 0.143689
0.512671 0.637640 0.145326
0.583495 0.639274 0.146960
0.652827 0.640874 0.148560
0.719281 0.642408 0.150094
0.781467 0.643843 0.151529
0.837997 0.645147 0.152833
0.887482 0.646289 0.153975
0.928535 0.647237 0.154923
0.052169 0.699791 0.139942
0.064396 0.700073 0.140224
0.097162 0.700829 0.140980
0.139544 0.701807 0.141958
0.190155 0.702975 0.143126
0.247606 0.704301 0.144452
0.310508 0.705753 0.145903
0.377473 0.707298 0.147449
0.447112 0.708905 0.149056
0.518038 0.710542 0.150693
0.588862 0.712176 0.152327
0.658194 0.713776 0.153927
0.724648 0.715310 0.155461
0.786834 0.716745 0.156896
0.843363 0.718050 0.158200
0.892849 0.719192 0.159342
0.933901 0.720139 0.160290
0.057200 0.768134 0.144973
0.069427 0.768416 0.145255
0.102193 0.769172 0.146011
0.144575 0.770150 0.146989
0.195186 0.771318 0.148157
0.252637 0.772644 0.149483
0.315539 0.774095 0.150935
0.382504 0.775641 0.152480
0.452144 0.777248 0.154087
0.523069 0.778884 0.155724
0.593893 0.780519 0.157358
0.663225 0.782119 0.158958
0.729679 0.783652 0.160492
0.791865 0.785088 0.161927
0.848395 0.786392 0.163231
0.897880 0.787534 0.164373
0.938932 0.788481 0.165321
0.061777 0.830309 0.149550
0.074005 0.830591 0.149832
0.106770 0.831348 0.150588
0.149153 0.832326 0.151566
0.199763 0.833494 0.152734
0.257214 0.834819 0.154060
0.320116 0.836271 0.155512
0.387081 0.837816 0.157057
0.456721 0.839423 0.158664
0.527646 0.841060 0.160301
0.598470 0.842695 0.161935
0.667803 0.844295 0.163535
0.734256 0.845828 0.165069
0.796442 0.847263 0.166504
0.852972 0.848568 0.167808
0.902457 0.849710 0.168950
0.943510 0.850657 0.169898
0.065782 0.884711 0.153555
0.078009 0.884993 0.153837
0.110775 0.885749 0.154593
0.153158 0.886727 0.155571
0.203768 0.887895 0.156739
0.261219 0.889221 0.158065
0.324121 0.890672 0.159517
0.391086 0.892218 0.161062
0.460726 0.893825 0.162669
0.531651 0.895462 0.164306
0.602475 0.897096 0.165940
0.671807 0.898696 0.167540
0.738261 0.900230 0.169074
0.800447 0.901665 0.170509
0.856977 0.902969 0.171813
0.906462 0.904111 0.172955
0.947514 0.905059 0.173903
0.069096 0.929731 0.156869
0.081324 0.930013 0.157151
0.114089 0.930769 0.157907
0.156472 0.931747 0.158885
0.207082 0.932915 0.160053
0.264533 0.934241 0.161379
0.327435 0.935692 0.162831
0.394400 0.937238 0.164376
0.464040 0.938845 0.165983
0.534965 0.940482 0.167620
0.605789 0.942116 0.169254
0.675122 0.943716 0.170854
0.741575 0.945250 0.172388
0.803761 0.946685 0.173823
0.860291 0.947989 0.175128
0.909776 0.949131 0.176270
0.950829 0.950078 0.177217
0.071601 0.963762 0.159374
0.083829 0.964044 0.159656
0.116595 0.964800 0.160413
0.158977 0.965778 0.161391
0.209588 0.966946 0.162559
0.267038 0.968272 0.163884
0.329940 0.969724 0.165336
0.396905 0.971269 0.166881
0.466545 0.972876 0.168488
0.537471 0.974513 0.170125
0.608294 0.976147 0.171760
0.677627 0.977747 0.173360
0.744080 0.979281 0.174893
0.806266 0.980716 0.176328
0.862796 0.982020 0.177633
0.912281 0.983162 0.178775
0.953334 0.984110 0.179722
0.001149 0.001149 0.144404
0.013377 0.001431 0.144686
0.046143 0.002188 0.145442
0.088525 0.003166 0.146420
0.139136 0.004334 0.147588
0.196586 0.005659 0.148914
0.259488 0.007111 0.150366
0.326453 0.008656 0.151911
0.396093 0.010263 0.153518
0.467019 0.011900 0.155155
0.537842 0.013535 0.156789
0.607175 0.015135 0.158389
0.673628 0.016668 0.159923
0.735814 0.018103 0.161358
0.792344 0.019408 0.162662
0.841830 0.020550 0.163804
0.882882 0.021497 0.164752
0.003365 0.031244 0.146619
0.015592 0.031526 0.146901
