lut-visualizer/public/data/sample_luts/cool_strong.cube
LUT_3D_SIZE 17
DOMAIN_MIN 0.0 0.0 0.0
DOMAIN_MAX 1.0 1.0 1.0
0.000000 0.000000 0.090000
0.000000 0.000000 0.090000
0.035000 0.000000 0.090000
0.097500 0.000000 0.090000
0.160000 0.000000 0.090000
0.222500 0.000000 0.090000
0.285000 0.000000 0.090000
0.347500 0.000000 0.090000
0.410000 0.000000 0.090000
0.472500 0.000000 0.090000
0.535000 0.000000 0.090000
0.597500 0.000000 0.090000
0.660000 0.000000 0.090000
0.722500 0.000000 0.090000
0.785000 0.000000 0.090000
0.847500 0.000000 0.090000
0.910000 0.000000 0.090000
0.000000 0.052500 0.090000
0.000000 0.052500 0.090000
0.035000 0.052500 0.090000
0.097500 0.052500 0.090000
0.160000 0.052500 0.090000
0.222500 0.052500 0.090000
0.285000 0.052500 0.090000
0.347500 0.052500 0.090000
0.410000 0.052500 0.090000
0.472500 0.052500 0.090000
0.535000 0.052500 0.090000
0.597500 0.052500 0.090000
0.660000 0.052500 0.090000
0.722500 0.052500 0.090000
0.785000 0.052500 0.090000
0.847500 0.052500 0.090000
0.910000 0.052500 0.090000
0.000000 0.115000 0.090000
0.000000 0.115000 0.090000
0.035000 0.115000 0.090000
0.097500 0.115000 0.090000
0.160000 0.115000 0.090000
0.222500 0.115000 0.090000
0.285000 0.115000 0.090000
0.347500 0.115000 0.090000
0.410000 0.115000 0.090000
0.472500 0.115000 0.090000
0.535000 0.115000 0.090000
0.597500 0.115000 0.090000
0.660000 0.115000 0.090000
0.722500 0.115000 0.090000
0.785000 0.115000 0.090000
0.847500 0.115000 0.090000
0.910000 0.115000 0.090000
0.000000 0.177500 0.090000
0.000000 0.177500 0.090000
0.035000 0.177500 0.090000
0.097500 0.177500 0.090000
0.160000 0.177500 0.090000
0.222500 0.177500 0.090000
0.285000 0.177500 0.090000
0.347500 0.177500 0.090000
0.410000 0.177500 0.090000
0.472500 0.177500 0.090000
0.535000 0.177500 0.090000
0.597500 0.177500 0.090000
0.660000 0.177500 0.090000
0.722500 0.177500 0.090000
0.785000 0.177500 0.090000
0.847500 0.177500 0.090000
0.910000 0.177500 0.090000
0.000000 0.240000 0.090000
0.000000 0.240000 0.090000
0.035000 0.240000 0.090000
0.097500 0.240000 0.090000
0.160000 0.240000 0.090000
0.222500 0.240000 0.090000
0.285000 0.240000 0.090000
0.347500 0.240000 0.090000
0.410000 0.240000 0.090000
0.472500 0.240000 0.090000
0.535000 0.240000 0.090000
0.597500 0.240000 0.090000
0.660000 0.240000 0.090000
0.722500 0.240000 0.090000
0.785000 0.240000 0.090000
0.847500 0.240000 0.090000
0.910000 0.240000 0.090000
0.000000 0.302500 0.090000
0.000000 0.302500 0.090000
0.035000 0.302500 0.090000
0.097500 0.302500 0.090000
0.160000 0.302500 0.090000
0.222500 0.302500 0.090000
0.285000 0.302500 0.090000
0.347500 0.302500 0.090000
0.410000 0.302500 0.090000
0.472500 0.302500 0.090000
0.535000 0.302500 0.090000
0.597500 0.302500 0.090000
0.660000 0.302500 0.090000
0.722500 0.302500 0.090000
0.785000 0.302500 0.090000
0.847500 0.302500 0.090000
0.910000 0.302500 0.090000
0.000000 0.365000 0.090000
0.000000 0.365000 0.090000
0.035000 0.365000 0.090000
0.097500 0.365000 0.090000
0.160000 0.365000 0.090000
0.222500 0.365000 0.090000
0.285000 0.365000 0.090000
0.347500 0.365000 0.090000
0.410000 0.365000 0.090000
0.472500 0.365000 0.090000
0.535000 0.365000 0.090000
0.597500 0.365000 0.090000
0.660000 0.365000 0.090000
0.722500 0.365000 0.090000
0.785000 0.365000 0.090000
0.847500 0.365000 0.090000
0.910000 0.365000 0.090000
0.000000 0.427500 0.090000
0.000000 0.427500 0.090000
0.035000 0.427500 0.090000
0.097500 0.427500 0.090000
0.160000 0.427500 0.090000
0.222500 0.427500 0.090000
0.285000 0.427500 0.090000
0.347500 0.427500 0.090000
0.410000 0.427500 0.090000
0.472500 0.427500 0.090000
0.535000 0.427500 0.090000
0.597500 0.427500 0.090000
0.660000 0.427500 0.090000
0.722500 0.427500 0.090000
0.785000 0.427500 0.090000
0.847500 0.427500 0.090000
0.910000 0.427500 0.090000
0.000000 0.490000 0.090000
0.000000 0.490000 0.090000
0.035000 0.490000 0.090000
0.097500 0.490000 0.090000
0.160000 0.490000 0.090000
0.222500 0.490000 0.090000
0.285000 0.490000 0.090000
0.347500 0.490000 0.090000
0.410000 0.490000 0.090000
0.472500 0.490000 0.090000
0.535000 0.490000 0.090000
0.597500 0.490000 0.090000
0.660000 0.490000 0.090000
0.722500 0.490000 0.090000
0.785000 0.490000 0.090000
0.847500 0.490000 0.090000
0.910000 0.490000 0.090000
0.000000 0.552500 0.090000
0.000000 0.552500 0.090000
0.035000 0.552500 0.090000
0.097500 0.552500 0.090000
0.160000 0.552500 0.090000
0.222500 0.552500 0.090000
0.285000 0.552500 0.090000
0.347500 0.552500 0.090000
0.410000 0.552500 0.090000
0.472500 0.552500 0.090000
0.535000 0.552500 0.090000
0.597500 0.552500 0.090000
0.660000 0.552500 0.090000
0.722500 0.552500 0.090000
0.785000 0.552500 0.090000
0.847500 0.552500 0.090000
0.910000 0.552500 0.090000
0.000000 0.615000 0.090000
0.000000 0.615000 0.090000
0.035000 0.615000 0.090000
0.097500 0.615000 0.090000
0.160000 0.615000 0.090000
0.222500 0.615000 0.090000
0.285000 0.615000 0.090000
0.347500 0.615000 0.090000
0.410000 0.615000 0.090000
0.472500 0.615000 0.090000
0.535000 0.615000 0.090000
0.597500 0.615000 0.090000
0.660000 0.615000 0.090000
0.722500 0.615000 0.090000
0.785000 0.615000 0.090000
0.847500 0.615000 0.090000
0.910000 0.615000 0.090000
0.000000 0.677500 0.090000
0.000000 0.677500 0.090000
0.035000 0.677500 0.090000
0.097500 0.677500 0.090000
0.160000 0.677500 0.090000
0.222500 0.677500 0.090000
0.285000 0.677500 0.090000
0.347500 0.677500 0.090000
0.410000 0.677500 0.090000
0.472500 0.677500 0.090000
0.535000 0.677500 0.090000
0.597500 0.677500 0.090000
0.660000 0.677500 0.090000
0.722500 0.677500 0.090000
0.785000 0.677500 0.090000
0.847500 0.677500 0.090000
0.910000 0.677500 0.090000
0.000000 0.740000 0.090000
0.000000 0.740000 0.090000
0.035000 0.740000 0.090000
0.097500 0.740000 0.090000
0.160000 0.740000 0.090000
0.222500 0.740000 0.090000
0.285000 0.740000 0.090000
0.347500 0.740000 0.090000
0.410000 0.740000 0.090000
0.472500 0.740000 0.090000
0.535000 0.740000 0.090000
0.597500 0.740000 0.090000
0.660000 0.740000 0.090000
0.722500 0.740000 0.090000
0.785000 0.740000 0.090000
0.847500 0.740000 0.090000
0.910000 0.740000 0.090000
0.000000 0.802500 0.090000
0.000000 0.802500 0.090000
0.035000 0.802500 0.090000
0.097500 0.802500 0.090000
0.160000 0.802500 0.090000
0.222500 0.802500 0.090000
0.285000 0.802500 0.090000
0.347500 0.802500 0.090000
0.410000 0.802500 0.090000
0.472500 0.802500 0.090000
0.535000 0.802500 0.090000
0.597500 0.802500 0.090000
0.660000 0.802500 0.090000
0.722500 0.802500 0.090000
0.785000 0.802500 0.090000
0.847500 0.802500 0.090000
0.910000 0.802500 0.090000
0.000000 0.865000 0.090000
0.000000 0.865000 0.090000
0.035000 0.865000 0.090000
0.097500 0.865000 0.090000
0.160000 0.865000 0.090000
0.222500 0.865000 0.090000
0.285000 0.865000 0.090000
0.347500 0.865000 0.090000
0.410000 0.865000 0.090000
0.472500 0.865000 0.090000
0.535000 0.865000 0.090000
0.597500 0.865000 0.090000
0.660000 0.865000 0.090000
0.722500 0.865000 0.090000
0.785000 0.865000 0.090000
0.847500 0.865000 0.090000
0.910000 0.865000 0.090000
0.000000 0.927500 0.090000
0.000000 0.927500 0.090000
0.035000 0.927500 0.090000
0.097500 0.927500 0.090000
0.160000 0.927500 0.090000
0.222500 0.927500 0.090000
0.285000 0.927500 0.090000
0.347500 0.927500 0.090000
0.410000 0.927500 0.090000
0.472500 0.927500 0.090000
0.535000 0.927500 0.090000
0.597500 0.927500 0.090000
0.660000 0.927500 0.090000
0.722500 0.927500 0.090000
0.785000 0.927500 0.090000
0.847500 0.927500 0.090000
0.910000 0.927500 0.090000
0.000000 0.990000 0.090000
0.000000 0.990000 0.090000
0.035000 0.990000 0.090000
0.097500 0.990000 0.090000
0.160000 0.990000 0.090000
0.222500 0.990000 0.090000
0.285000 0.990000 0.090000
0.347500 0.990000 0.090000
0.410000 0.990000 0.090000
0.472500 0.990000 0.090000
0.535000 0.990000 0.090000
0.597500 0.990000 0.090000
0.660000 0.990000 0.090000
0.722500 0.990000 0.090000
0.785000 0.990000 0.090000
0.847500 0.990000 0.090000
0.910000 0.990000 0.090000
0.000000 0.000000 0.152500
0.000000 0.000000 0.152500
0.035000 0.000000 0.152500
0.097500 0.000000 0.152500
0.160000 0.000000 0.152500
0.222500 0.000000 0.152500
0.285000 0.000000 0.152500
0.347500 0.000000 0.152500
0.410000 0.000000 0.152500
0.472500 0.000000 0.152500
0.535000 0.000000 0.152500
0.597500 0.000000 0.152500
0.660000 0.000000 0.152500
0.722500 0.000000 0.152500
0.785000 0.000000 0.152500
0.847500 0.000000 0.152500
0.910000 0.000000 0.152500
0.000000 0.052500 0.152500
0.000000 0.052500 0.152500
0.035000 0.052500 0.152500
0.097500 0.052500 0.152500
0.160000 0.052500 0.152500
0.222500 0.052500 0.152500
0.285000 0.052500 0.152500
0.347500 0.052500 0.152500
0.410000 0.052500 0.152500
0.472500 0.052500 0.152500
0.535000 0.052500 0.152500
0.597500 0.052500 0.152500
0.660000 0.052500 0.152500
0.722500 0.052500 0.152500
0.785000 0.052500 0.152500
0.847500 0.052500 0.152500
0.910000 0.052500 0.152500
0.000000 0.115000 0.152500
0.000000 0.115000 0.152500
0.035000 0.115000 0.152500
0.097500 0.115000 0.152500
0.160000 0.115000 0.152500
0.222500 0.115000 0.152500
0.285000 0.115000 0.152500
0.347500 0.115000 0.152500
0.410000 0.115000 0.152500
0.472500 0.115000 0.152500
0.535000 0.115000 0.152500
0.597500 0.115000 0.152500
0.660000 0.115000 0.152500
0.722500 0.115000 0.152500
0.785000 0.115000 0.152500
0.847500 0.115000 0.152500
0.910000 0.115000 0.152500
0.000000 0.177500 0.152500
0.000000 0.177500 0.152500
0.035000 0.177500 0.152500
0.097500 0.177500 0.152500
0.160000 0.177500 0.152500
0.222500 0.177500 0.152500
0.285000 0.177500 0.152500
0.347500 0.177500 0.152500
0.410000 0.177500 0.152500
0.472500 0.177500 0.152500
0.535000 0.177500 0.152500
0.597500 0.177500 0.152500
0.660000 0.177500 0.152500
0.722500 0.177500 0.152500
0.785000 0.177500 0.152500
0.847500 0.177500 0.152500
0.910000 0.177500 0.152500
0.000000 0.240000 0.152500
0.000000 0.240000 0.152500
0.035000 0.240000 0.152500
0.097500 0.240000 0.152500
0.160000 0.240000 0.152500
0.222500 0.240000 0.152500
0.285000 0.240000 0.152500
0.347500 0.240000 0.152500
0.410000 0.240000 0.152500
0.472500 0.240000 0.152500
0.535000 0.240000 0.152500
0.597500 0.240000 0.152500
0.660000 0.240000 0.152500
0.722500 0.240000 0.152500
0.785000 0.240000 0.152500
0.847500 0.240000 0.152500
0.910000 0.240000 0.152500
0.000000 0.302500 0.152500
0.000000 0.302500 0.152500
0.035000 0.302500 0.152500
0.097500 0.302500 0.152500
0.160000 0.302500 0.152500
0.222500 0.302500 0.152500
0.285000 0.302500 0.152500
0.347500 0.302500 0.152500
0.410000 0.302500 0.152500
0.472500 0.302500 0.152500
0.535000 0.302500 0.152500
0.597500 0.302500 0.152500
0.660000 0.302500 0.152500
0.722500 0.302500 0.152500
0.785000 0.302500 0.152500
0.847500 0.302500 0.152500
0.910000 0.302500 0.152500
0.000000 0.365000 0.152500
0.000000 0.365000 0.152500
0.035000 0.365000 0.152500
0.097500 0.365000 0.152500
0.160000 0.365000 0.152500
0.222500 0.365000 0.152500
0.285000 0.365000 0.152500
0.347500 0.365000 0.152500
0.410000 0.365000 0.152500
0.472500 0.365000 0.152500
0.535000 0.365000 0.152500
0.597500 0.365000 0.152500
0.660000 0.365000 0.152500
0.722500 0.365000 0.152500
0.785000 0.365000 0.152500
0.847500 0.365000 0.152500
0.910000 0.365000 0.152500
0.000000 0.427500 0.152500
0.000000 0.427500 0.152500
0.035000 0.427500 0.152500
0.097500 0.427500 0.152500
0.160000 0.427500 0.152500
0.222500 0.427500 0.152500
0.285000 0.427500 0.152500
0.347500 0.427500 0.152500
0.410000 0.427500 0.152500
0.472500 0.427500 0.152500
0.535000 0.427500 0.152500
0.597500 0.427500 0.152500
0.660000 0.427500 0.152500
0.722500 0.427500 0.152500
0.785000 0.427500 0.152500
0.847500 0.427500 0.152500
0.910000 0.427500 0.152500
0.000000 0.490000 0.152500
0.000000 0.490000 0.152500
0.035000 0.490000 0.152500
0.097500 0.490000 0.152500
0.160000 0.490000 0.152500
0.222500 0.490000 0.152500
0.285000 0.490000 0.152500
0.347500 0.490000 0.152500
0.410000 0.490000 0.152500
0.472500 0.490000 0.152500
0.535000 0.490000 0.152500
0.597500 0.490000 0.152500
0.660000 0.490000 0.152500
0.722500 0.490000 0.152500
0.785000 0.490000 0.152500
0.847500 0.490000 0.152500
0.910000 0.490000 0.152500
0.000000 0.552500 0.152500
0.000000 0.552500 0.152500
0.035000 0.552500 0.152500
0.097500 0.552500 0.152500
0.160000 0.552500 0.152500
0.222500 0.552500 0.152500
0.285000 0.552500 0.152500
0.347500 0.552500 0.152500
0.410000 0.552500 0.152500
0.472500 0.552500 0.152500
0.535000 0.552500 0.152500
0.597500 0.552500 0.152500
0.660000 0.552500 0.152500
0.722500 0.552500 0.152500
0.785000 0.552500 0.152500
0.847500 0.552500 0.152500
0.910000 0.552500 0.152500
0.000000 0.615000 0.152500
0.000000 0.615000 0.152500
0.035000 0.615000 0.152500
0.097500 0.615000 0.152500
0.160000 0.615000 0.152500
0.222500 0.615000 0.152500
0.285000 0.615000 0.152500
0.347500 0.615000 0.152500
0.410000 0.615000 0.152500
0.472500 0.615000 0.152500
0.535000 0.615000 0.152500
0.597500 0.615000 0.152500
0.660000 0.615000 0.152500
0.722500 0.615000 0.152500
0.785000 0.615000 0.152500
0.847500 0.615000 0.152500
0.910000 0.615000 0.152500
0.000000 0.677500 0.152500
0.000000 0.677500 0.152500
0.035000 0.677500 0.152500
0.097500 0.677500 0.152500
0.160000 0.677500 0.152500
0.222500 0.677500 0.152500
0.285000 0.677500 0.152500
0.347500 0.677500 0.152500
0.410000 0.677500 0.152500
0.472500 0.677500 0.152500
0.535000 0.677500 0.152500
0.597500 0.677500 0.152500
0.660000 0.677500 0.152500
0.722500 0.677500 0.152500
0.785000 0.677500 0.152500
0.847500 0.677500 0.152500
0.910000 0.677500 0.152500
0.000000 0.740000 0.152500
0.000000 0.740000 0.152500
0.035000 0.740000 0.152500
0.097500 0.740000 0.152500
0.160000 0.740000 0.152500
0.222500 0.740000 0.152500
0.285000 0.740000 0.152500
0.347500 0.740000 0.152500
0.410000 0.740000 0.152500
0.472500 0.740000 0.152500
0.535000 0.740000 0.152500
0.597500 0.740000 0.152500
0.660000 0.740000 0.152500
0.722500 0.740000 0.152500
0.785000 0.740000 0.152500
0.847500 0.740000 0.152500
0.910000 0.740000 0.152500
0.000000 0.802500 0.152500
0.000000 0.802500 0.152500
0.035000 0.802500 0.152500
0.097500 0.802500 0.152500
0.160000 0.802500 0.152500
0.222500 0.802500 0.152500
0.285000 0.802500 0.152500
0.347500 0.802500 0.152500
0.410000 0.802500 0.152500
0.472500 0.802500 0.152500
0.535000 0.802500 0.152500
0.597500 0.802500 0.152500
0.660000 0.802500 0.152500
0.722500 0.802500 0.152500
0.785000 0.802500 0.152500
0.847500 0.802500 0.152500
0.910000 0.802500 0.152500
0.000000 0.865000 0.152500
0.000000 0.865000 0.152500
0.035000 0.865000 0.152500
0.097500 0.865000 0.152500
0.160000 0.865000 0.152500
0.222500 0.865000 0.152500
0.285000 0.865000 0.152500
0.347500 0.865000 0.152500
0.410000 0.865000 0.152500
0.472500 0.865000 0.152500
0.535000 0.865000 0.152500
0.597500 0.865000 0.152500
0.660000 0.865000 0.152500
0.722500 0.865000 0.152500
0.785000 0.865000 0.152500
0.847500 0.865000 0.152500
0.910000 0.865000 0.152500
0.000000 0.927500 0.152500
0.000000 0.927500 0.152500
0.035000 0.927500 0.152500
0.097500 0.927500 0.152500
0.160000 0.927500 0.152500
0.222500 0.927500 0.152500
0.285000 0.927500 0.152500
0.347500 0.927500 0.152500
0.410000 0.927500 0.152500
0.472500 0.927500 0.152500
0.535000 0.927500 0.152500
0.597500 0.927500 0.152500
0.660000 0.927500 0.152500
0.722500 0.927500 0.152500
0.785000 0.927500 0.152500
0.847500 0.927500 0.152500
0.910000 0.927500 0.152500
0.000000 0.990000 0.152500
0.000000 0.990000 0.152500
0.035000 0.990000 0.152500
0.097500 0.990000 0.152500
0.160000 0.990000 0.152500
0.222500 0.990000 0.152500
0.285000 0.990000 0.152500
0.347500 0.990000 0.152500
0.410000 0.990000 0.152500
0.472500 0.990000 0.152500
0.535000 0.990000 0.152500
0.597500 0.990000 0.152500
0.660000 0.990000 0.152500
0.722500 0.990000 0.152500
0.785000 0.990000 0.152500
0.847500 0.990000 0.152500
0.910000 0.990000 0.152500
0.000000 0.000000 0.215000
0.000000 0.000000 0.215000
0.035000 0.000000 0.215000
0.097500 0.000000 0.215000
0.160000 0.000000 0.215000
0.222500 0.000000 0.215000
0.285000 0.000000 0.215000
0.347500 0.000000 0.215000
0.410000 0.000000 0.215000
0.472500 0.000000 0.215000
0.535000 0.000000 0.215000
0.597500 0.000000 0.215000
0.660000 0.000000 0.215000
0.722500 0.000000 0.215000
0.785000 0.000000 0.215000
0.847500 0.000000 0.215000
0.910000 0.000000 0.215000
0.000000 0.052500 0.215000
0.000000 0.052500 0.215000
0.035000 0.052500 0.215000
0.097500 0.052500 0.215000
0.160000 0.052500 0.215000
0.222500 0.052500 0.215000
0.285000 0.052500 0.215000
0.347500 0.052500 0.215000
0.410000 0.052500 0.215000
0.472500 0.052500 0.215000
0.535000 0.052500 0.215000
0.597500 0.052500 0.215000
0.660000 0.052500 0.215000
0.722500 0.052500 0.215000
0.785000 0.052500 0.215000
0.847500 0.052500 0.215000
0.910000 0.052500 0.215000
0.000000 0.115000 0.215000
0.000000 0.115000 0.215000
0.035000 0.115000 0.215000
0.097500 0.115000 0.215000
0.160000 0.115000 0.215000
0.222500 0.115000 0.215000
0.285000 0.115000 0.215000
0.347500 0.115000 0.215000
0.410000 0.115000 0.215000
0.472500 0.115000 0.215000
0.535000 0.115000 0.215000
0.597500 0.115000 0.215000
0.660000 0.115000 0.215000
0.722500 0.115000 0.215000
0.785000 0.115000 0.215000
0.847500 0.115000 0.215000
0.910000 0.115000 0.215000
0.000000 0.177500 0.215000
0.000000 0.177500 0.215000
0.035000 0.177500 0.215000
0.097500 0.177500 0.215000
0.160000 0.177500 0.215000
0.222500 0.177500 0.215000
0.285000 0.177500 0.215000
0.347500 0.177500 0.215000
0.410000 0.177500 0.215000
0.472500 0.177500 0.215000
0.535000 0.177500 0.215000
0.597500 0.177500 0.215000
0.660000 0.177500 0.215000
0.722500 0.177500 0.215000
0.785000 0.177500 0.215000
0.847500 0.177500 0.215000
0.910000 0.177500 0.215000
0.000000 0.240000 0.215000
0.000000 0.240000 0.215000
0.035000 0.240000 0.215000
0.097500 0.240000 0.215000
0.160000 0.240000 0.215000
0.222500 0.240000 0.215000
0.285000 0.240000 0.215000
0.347500 0.240000 0.215000
0.410000 0.240000 0.215000
0.472500 0.240000 0.215000
0.535000 0.240000 0.215000
0.597500 0.240000 0.215000
0.660000 0.240000 0.215000
0.722500 0.240000 0.215000
0.785000 0.240000 0.215000
0.847500 0.240000 0.215000
0.910000 0.240000 0.215000
0.000000 0.302500 0.215000
0.000000 0.302500 0.215000
0.035000 0.302500 0.215000
0.097500 0.302500 0.215000
0.160000 0.302500 0.215000
0.222500 0.302500 0.215000
0.285000 0.302500 0.215000
0.347500 0.302500 0.215000
0.410000 0.302500 0.215000
0.472500 0.302500 0.215000
0.535000 0.302500 0.215000
0.597500 0.302500 0.215000
0.660000 0.302500 0.215000
0.722500 0.302500 0.215000
0.785000 0.302500 0.215000
0.847500 0.302500 0.215000
0.910000 0.302500 0.215000
0.000000 0.365000 0.215000
0.000000 0.365000 0.215000
0.035000 0.365000 0.215000
0.097500 0.365000 0.215000
0.160000 0.365000 0.215000
0.222500 0.365000 0.215000
0.285000 0.365000 0.215000
0.347500 0.365000 0.215000
0.410000 0.365000 0.215000
0.472500 0.365000 0.215000
0.535000 0.365000 0.215000
0.597500 0.365000 0.215000
0.660000 0.365000 0.215000
0.722500 0.365000 0.215000
0.785000 0.365000 0.215000
0.847500 0.365000 0.215000
0.910000 0.365000 0.215000
0.000000 0.427500 0.215000
0.000000 0.427500 0.215000
0.035000 0.427500 0.215000
0.097500 0.427500 0.215000
0.160000 0.427500 0.215000
0.222500 0.427500 0.215000
0.285000 0.427500 0.215000
0.347500 0.427500 0.215000
0.410000 0.427500 0.215000
0.472500 0.427500 0.215000
0.535000 0.427500 0.215000
0.597500 0.427500 0.215000
0.660000 0.427500 0.215000
0.722500 0.427500 0.215000
0.785000 0.427500 0.215000
0.847500 0.427500 0.215000
0.910000 0.427500 0.215000
0.000000 0.490000 0.215000
0.000000 0.490000 0.215000
0.035000 0.490000 0.215000
0.097500 0.490000 0.215000
0.160000 0.490000 0.215000
0.222500 0.490000 0.215000
0.285000 0.490000 0.215000
0.347500 0.490000 0.215000
0.410000 0.490000 0.215000
0.472500 0.490000 0.215000
0.535000 0.490000 0.215000
0.597500 0.490000 0.215000
0.660000 0.490000 0.215000
0.722500 0.490000 0.215000
0.785000 0.490000 0.215000
0.847500 0.490000 0.215000
0.910000 0.490000 0.215000
0.000000 0.552500 0.215000
0.000000 0.552500 0.215000
0.035000 0.552500 0.215000
0.097500 0.552500 0.215000
0.160000 0.552500 0.215000
0.222500 0.552500 0.215000
0.285000 0.552500 0.215000
0.347500 0.552500 0.215000
0.410000 0.552500 0.215000
0.472500 0.552500 0.215000
0.535000 0.552500 0.215000
0.597500 0.552500 0.215000
0.660000 0.552500 0.215000
0.722500 0.552500 0.215000
0.785000 0.552500 0.215000
0.847500 0.552500 0.215000
0.910000 0.552500 0.215000
0.000000 0.615000 0.215000
0.000000 0.615000 0.215000
0.035000 0.615000 0.215000
0.097500 0.615000 0.215000
0.160000 0.615000 0.215000
0.222500 0.615000 0.215000
0.285000 0.615000 0.215000
0.347500 0.615000 0.215000
0.410000 0.615000 0.215000
0.472500 0.615000 0.215000
0.535000 0.615000 0.215000
0.597500 0.615000 0.215000
0.660000 0.615000 0.215000
0.722500 0.615000 0.215000
0.785000 0.615000 0.215000
0.847500 0.615000 0.215000
0.910000 0.615000 0.215000
0.000000 0.677500 0.215000
0.000000 0.677500 0.215000
0.035000 0.677500 0.215000
0.097500 0.677500 0.215000
0.160000 0.677500 0.215000
0.222500 0.677500 0.215000
0.285000 0.677500 0.215000
0.347500 0.677500 0.215000
0.410000 0.677500 0.215000
0.472500 0.677500 0.215000
0.535000 0.677500 0.215000
0.597500 0.677500 0.215000
0.660000 0.677500 0.215000
0.722500 0.677500 0.215000
0.785000 0.677500 0.215000
0.847500 0.677500 0.215000
0.910000 0.677500 0.215000
0.000000 0.740000 0.215000
0.000000 0.740000 0.215000
0.035000 0.740000 0.215000
0.097500 0.740000 0.215000
0.160000 0.740000 0.215000
0.222500 0.740000 0.215000
0.285000 0.740000 0.215000
0.347500 0.740000 0.215000
0.410000 0.740000 0.215000
0.472500 0.740000 0.215000
0.535000 0.740000 0.215000
0.597500 0.740000 0.215000
0.660000 0.740000 0.215000
0.722500 0.740000 0.215000
0.785000 0.740000 0.215000
0.847500 0.740000 0.215000
0.910000 0.740000 0.215000
0.000000 0.802500 0.215000
0.000000 0.802500 0.215000
0.035000 0.802500 0.215000
0.097500 0.802500 0.215000
0.160000 0.802500 0.215000
0.222500 0.802500 0.215000
0.285000 0.802500 0.215000
0.347500 0.802500 0.215000
0.410000 0.802500 0.215000
0.472500 0.802500 0.215000
0.535000 0.802500 0.215000
0.597500 0.802500 0.215000
0.660000 0.802500 0.215000
0.722500 0.802500 0.215000
0.785000 0.802500 0.215000
0.847500 0.802500 0.215000
0.910000 0.802500 0.215000
0.000000 0.865000 0.215000
0.000000 0.865000 0.215000
0.035000 0.865000 0.215000
0.097500 0.865000 0.215000
0.160000 0.865000 0.215000
0.222500 0.865000 0.215000
0.285000 0.865000 0.215000
0.347500 0.865000 0.215000
0.410000 0.865000 0.215000
0.472500 0.865000 0.215000
0.535000 0.865000 0.215000
0.597500 0.865000 0.215000
0.660000 0.865000 0.215000
0.722500 0.865000 0.215000
0.785000 0.865000 0.215000
0.847500 0.865000 0.215000
0.910000 0.865000 0.215000
0.000000 0.927500 0.215000
0.000000 0.927500 0.215000
0.035000 0.927500 0.215000
0.097500 0.927500 0.215000
0.160000 0.927500 0.215000
0.222500 0.927500 0.215000
0.285000 0.927500 0.215000
0.347500 0.927500 0.215000
0.410000 0.927500 0.215000
0.472500 0.927500 0.215000
0.535000 0.927500 0.215000
0.597500 0.927500 0.215000
0.660000 0.927500 0.215000
0.722500 0.927500 0.215000
0.785000 0.927500 0.215000
0.847500 0.927500 0.215000
0.910000 0.927500 0.215000
0.000000 0.990000 0.215000
0.000000 0.990000 0.215000
0.035000 0.990000 0.215000
0.097500 0.990000 0.215000
0.160000 0.990000 0.215000
0.222500 0.990000 0.215000
0.285000 0.990000 0.215000
0.347500 0.990000 0.215000
0.410000 0.990000 0.215000
0.472500 0.990000 0.215000
0.535000 0.990000 0.215000
0.597500 0.990000 0.215000
0.660000 0.990000 0.215000
0.722500 0.990000 0.215000
0.785000 0.990000 0.215000
0.847500 0.990000 0.215000
0.910000 0.990000 0.215000
0.000000 0.000000 0.277500
0.000000 0.000000 0.277500
0.035000 0.000000 0.277500
0.097500 0.000000 0.277500
0.160000 0.000000 0.277500
0.222500 0.000000 0.277500
0.285000 0.000000 0.277500
0.347500 0.000000 0.277500
0.410000 0.000000 0.277500
0.472500 0.000000 0.277500
0.535000 0.000000 0.277500
0.597500 0.000000 0.277500
0.660000 0.000000 0.277500
0.722500 0.000000 0.277500
0.785000 0.000000 0.277500
0.847500 0.000000 0.277500
0.910000 0.000000 0.277500
0.000000 0.052500 0.277500
0.000000 0.052500 0.277500
