lut-visualizer/public/data/sample_luts/cool_strong.cube
LUT_3D_SIZE 9
DOMAIN_MIN 0.0 0.0 0.0
DOMAIN_MAX 1.0 1.0 1.0
0.000000 0.000000 0.090000
0.035000 0.000000 0.090000
0.160000 0.000000 0.090000
0.285000 0.000000 0.090000
0.410000 0.000000 0.090000
0.535000 0.000000 0.090000
0.660000 0.000000 0.090000
0.785000 0.000000 0.090000
0.910000 0.000000 0.090000
0.000000 0.115000 0.090000
0.035000 0.115000 0.090000
0.160000 0.115000 0.090000
0.285000 0.115000 0.090000
0.410000 0.115000 0.090000
0.535000 0.115000 0.090000
0.660000 0.115000 0.090000
0.785000 0.115000 0.090000
0.910000 0.115000 0.090000
0.000000 0.240000 0.090000
0.035000 0.240000 0.090000
0.160000 0.240000 0.090000
0.285000 0.240000 0.090000
0.410000 0.240000 0.090000
0.535000 0.240000 0.090000
0.660000 0.240000 0.090000
0.785000 0.240000 0.090000
0.910000 0.240000 0.090000
0.000000 0.365000 0.090000
0.035000 0.365000 0.090000
0.160000 0.365000 0.090000
0.285000 0.365000 0.090000
0.410000 0.365000 0.090000
0.535000 0.365000 0.090000
0.660000 0.365000 0.090000
0.785000 0.365000 0.090000
0.910000 0.365000 0.090000
0.000000 0.490000 0.090000
0.035000 0.490000 0.090000
0.160000 0.490000 0.090000
0.285000 0.490000 0.090000
0.410000 0.490000 0.090000
0.535000 0.490000 0.090000
0.660000 0.490000 0.090000
0.785000 0.490000 0.090000
0.910000 0.490000 0.090000
0.000000 0.615000 0.090000
0.035000 0.615000 0.090000
0.160000 0.615000 0.090000
0.285000 0.615000 0.090000
0.410000 0.615000 0.090000
0.535000 0.615000 0.090000
0.660000 0.615000 0.090000
0.785000 0.615000 0.090000
0.910000 0.615000 0.090000
0.000000 0.740000 0.090000
0.035000 0.740000 0.090000
0.160000 0.740000 0.090000
0.285000 0.740000 0.090000
0.410000 0.740000 0.090000
0.535000 0.740000 0.090000
0.660000 0.740000 0.090000
0.785000 0.740000 0.090000
0.910000 0.740000 0.090000
0.000000 0.865000 0.090000
0.035000 0.865000 0.090000
0.160000 0.865000 0.090000
0.285000 0.865000 0.090000
0.410000 0.865000 0.090000
0.535000 0.865000 0.090000
0.660000 0.865000 0.090000
0.785000 0.865000 0.090000
0.910000 0.865000 0.090000
0.000000 0.990000 0.090000
0.035000 0.990000 0.090000
0.160000 0.990000 0.090000
0.285000 0.990000 0.090000
0.410000 0.990000 0.090000
0.535000 0.990000 0.090000
0.660000 0.990000 0.090000
0.785000 0.990000 0.090000
0.910000 0.990000 0.090000
0.000000 0.000000 0.215000
0.035000 0.000000 0.215000
0.160000 0.000000 0.215000
0.285000 0.000000 0.215000
0.410000 0.000000 0.215000
0.535000 0.000000 0.215000
0.660000 0.000000 0.215000
0.785000 0.000000 0.215000
0.910000 0.000000 0.215000
0.000000 0.115000 0.215000
0.035000 0.115000 0.215000
0.160000 0.115000 0.215000
0.285000 0.115000 0.215000
0.410000 0.115000 0.215000
0.535000 0.115000 0.215000
0.660000 0.115000 0.215000
0.785000 0.115000 0.215000
0.910000 0.115000 0.215000
0.000000 0.240000 0.215000
0.035000 0.240000 0.215000
0.160000 0.240000 0.215000
0.285000 0.240000 0.215000
0.410000 0.240000 0.215000
0.535000 0.240000 0.215000
0.660000 0.240000 0.215000
0.785000 0.240000 0.215000
0.910000 0.240000 0.215000
0.000000 0.365000 0.215000
0.035000 0.365000 0.215000
0.160000 0.365000 0.215000
0.285000 0.365000 0.215000
0.410000 0.365000 0.215000
0.535000 0.365000 0.215000
0.660000 0.365000 0.215000
0.785000 0.365000 0.215000
0.910000 0.365000 0.215000
0.000000 0.490000 0.215000
0.035000 0.490000 0.215000
0.160000 0.490000 0.215000
0.285000 0.490000 0.215000
0.410000 0.490000 0.215000
0.535000 0.490000 0.215000
0.660000 0.490000 0.215000
0.785000 0.490000 0.215000
0.910000 0.490000 0.215000
0.000000 0.615000 0.215000
0.035000 0.615000 0.215000
0.160000 0.615000 0.215000
0.285000 0.615000 0.215000
0.410000 0.615000 0.215000
0.535000 0.615000 0.215000
0.660000 0.615000 0.215000
0.785000 0.615000 0.215000
0.910000 0.615000 0.215000
0.000000 0.740000 0.215000
0.035000 0.740000 0.215000
0.160000 0.740000 0.215000
0.285000 0.740000 0.215000
0.410000 0.740000 0.215000
0.535000 0.740000 0.215000
0.660000 0.740000 0.215000
0.785000 0.740000 0.215000
0.910000 0.740000 0.215000
0.000000 0.865000 0.215000
0.035000 0.865000 0.215000
0.160000 0.865000 0.215000
0.285000 0.865000 0.215000
0.410000 0.865000 0.215000
0.535000 0.865000 0.215000
0.660000 0.865000 0.215000
0.785000 0.865000 0.215000
0.910000 0.865000 0.215000
0.000000 0.990000 0.215000
0.035000 0.990000 0.215000
0.160000 0.990000 0.215000
0.285000 0.990000 0.215000
0.410000 0.990000 0.215000
0.535000 0.990000 0.215000
0.660000 0.990000 0.215000
0.785000 0.990000 0.215000
0.910000 0.990000 0.215000
0.000000 0.000000 0.340000
0.035000 0.000000 0.340000
0.160000 0.000000 0.340000
0.285000 0.000000 0.340000
0.410000 0.000000 0.340000
0.535000 0.000000 0.340000
0.660000 0.000000 0.340000
0.785000 0.000000 0.340000
0.910000 0.000000 0.340000
0.000000 0.115000 0.340000
0.035000 0.115000 0.340000
0.160000 0.115000 0.340000
0.285000 0.115000 0.340000
0.410000 0.115000 0.340000
0.535000 0.115000 0.340000
0.660000 0.115000 0.340000
0.785000 0.115000 0.340000
0.910000 0.115000 0.340000
0.000000 0.240000 0.340000
0.035000 0.240000 0.340000
0.160000 0.240000 0.340000
0.285000 0.240000 0.340000
0.410000 0.240000 0.340000
0.535000 0.240000 0.340000
0.660000 0.240000 0.340000
0.785000 0.240000 0.340000
0.910000 0.240000 0.340000
0.000000 0.365000 0.340000
0.035000 0.365000 0.340000
0.160000 0.365000 0.340000
0.285000 0.365000 0.340000
0.410000 0.365000 0.340000
0.535000 0.365000 0.340000
0.660000 0.365000 0.340000
0.785000 0.365000 0.340000
0.910000 0.365000 0.340000
0.000000 0.490000 0.340000
0.035000 0.490000 0.340000
0.160000 0.490000 0.340000
0.285000 0.490000 0.340000
0.410000 0.490000 0.340000
0.535000 0.490000 0.340000
0.660000 0.490000 0.340000
0.785000 0.490000 0.340000
0.910000 0.490000 0.340000
0.000000 0.615000 0.340000
0.035000 0.615000 0.340000
0.160000 0.615000 0.340000
0.285000 0.615000 0.340000
0.410000 0.615000 0.340000
0.535000 0.615000 0.340000
0.660000 0.615000 0.340000
0.785000 0.615000 0.340000
0.910000 0.615000 0.340000
0.000000 0.740000 0.340000
0.035000 0.740000 0.340000
0.160000 0.740000 0.340000
0.285000 0.740000 0.340000
0.410000 0.740000 0.340000
0.535000 0.740000 0.340000
0.660000 0.740000 0.340000
0.785000 0.740000 0.340000
0.910000 0.740000 0.340000
0.000000 0.865000 0.340000
0.035000 0.865000 0.340000
0.160000 0.865000 0.340000
0.285000 0.865000 0.340000
0.410000 0.865000 0.340000
0.535000 0.865000 0.340000
0.660000 0.865000 0.340000
0.785000 0.865000 0.340000
0.910000 0.865000 0.340000
0.000000 0.990000 0.340000
0.035000 0.990000 0.340000
0.160000 0.990000 0.340000
0.285000 0.990000 0.340000
0.410000 0.990000 0.340000
0.535000 0.990000 0.340000
0.660000 0.990000 0.340000
0.785000 0.990000 0.340000
0.910000 0.990000 0.340000
0.000000 0.000000 0.465000
0.035000 0.000000 0.465000
0.160000 0.000000 0.465000
0.285000 0.000000 0.465000
0.410000 0.000000 0.465000
0.535000 0.000000 0.465000
0.660000 0.000000 0.465000
0.785000 0.000000 0.465000
0.910000 0.000000 0.465000
0.000000 0.115000 0.465000
0.035000 0.115000 0.465000
0.160000 0.115000 0.465000
0.285000 0.115000 0.465000
0.410000 0.115000 0.465000
0.535000 0.115000 0.465000
0.660000 0.115000 0.465000
0.785000 0.115000 0.465000
0.910000 0.115000 0.465000
0.000000 0.240000 0.465000
0.035000 0.240000 0.465000
0.160000 0.240000 0.465000
0.285000 0.240000 0.465000
0.410000 0.240000 0.465000
0.535000 0.240000 0.465000
0.660000 0.240000 0.465000
0.785000 0.240000 0.465000
0.910000 0.240000 0.465000
0.000000 0.365000 0.465000
0.035000 0.365000 0.465000
0.160000 0.365000 0.465000
0.285000 0.365000 0.465000
0.410000 0.365000 0.465000
0.535000 0.365000 0.465000
0.660000 0.365000 0.465000
0.785000 0.365000 0.465000
0.910000 0.365000 0.465000
0.000000 0.490000 0.465000
0.035000 0.490000 0.465000
0.160000 0.490000 0.465000
0.285000 0.490000 0.465000
0.410000 0.490000 0.465000
0.535000 0.490000 0.465000
0.660000 0.490000 0.465000
0.785000 0.490000 0.465000
0.910000 0.490000 0.465000
0.000000 0.615000 0.465000
0.035000 0.615000 0.465000
0.160000 0.615000 0.465000
0.285000 0.615000 0.465000
0.410000 0.615000 0.465000
0.535000 0.615000 0.465000
0.660000 0.615000 0.465000
0.785000 0.615000 0.465000
0.910000 0.615000 0.465000
0.000000 0.740000 0.465000
0.035000 0.740000 0.465000
0.160000 0.740000 0.465000
0.285000 0.740000 0.465000
0.410000 0.740000 0.465000
0.535000 0.740000 0.465000
0.660000 0.740000 0.465000
0.785000 0.740000 0.465000
0.910000 0.740000 0.465000
0.000000 0.865000 0.465000
0.035000 0.865000 0.465000
0.160000 0.865000 0.465000
0.285000 0.865000 0.465000
0.410000 0.865000 0.465000
0.535000 0.865000 0.465000
0.660000 0.865000 0.465000
0.785000 0.865000 0.465000
0.910000 0.865000 0.465000
0.000000 0.990000 0.465000
0.035000 0.990000 0.465000
0.160000 0.990000 0.465000
0.285000 0.990000 0.465000
0.410000 0.990000 0.465000
0.535000 0.990000 0.465000
0.660000 0.990000 0.465000
0.785000 0.990000 0.465000
0.910000 0.990000 0.465000
0.000000 0.000000 0.590000
0.035000 0.000000 0.590000
0.160000 0.000000 0.590000
0.285000 0.000000 0.590000
0.410000 0.000000 0.590000
0.535000 0.000000 0.590000
0.660000 0.000000 0.590000
0.785000 0.000000 0.590000
0.910000 0.000000 0.590000
0.000000 0.115000 0.590000
0.035000 0.115000 0.590000
0.160000 0.115000 0.590000
0.285000 0.115000 0.590000
0.410000 0.115000 0.590000
0.535000 0.115000 0.590000
0.660000 0.115000 0.590000
0.785000 0.115000 0.590000
0.910000 0.115000 0.590000
0.000000 0.240000 0.590000
0.035000 0.240000 0.590000
0.160000 0.240000 0.590000
0.285000 0.240000 0.590000
0.410000 0.240000 0.590000
0.535000 0.240000 0.590000
0.660000 0.240000 0.590000
0.785000 0.240000 0.590000
0.910000 0.240000 0.590000
0.000000 0.365000 0.590000
0.035000 0.365000 0.590000
0.160000 0.365000 0.590000
0.285000 0.365000 0.590000
0.410000 0.365000 0.590000
0.535000 0.365000 0.590000
0.660000 0.365000 0.590000
0.785000 0.365000 0.590000
0.910000 0.365000 0.590000
0.000000 0.490000 0.590000
0.035000 0.490000 0.590000
0.160000 0.490000 0.590000
0.285000 0.490000 0.590000
0.410000 0.490000 0.590000
0.535000 0.490000 0.590000
0.660000 0.490000 0.590000
0.785000 0.490000 0.590000
0.910000 0.490000 0.590000
0.000000 0.615000 0.590000
0.035000 0.615000 0.590000
0.160000 0.615000 0.590000
0.285000 0.615000 0.590000
0.410000 0.615000 0.590000
0.535000 0.615000 0.590000
0.660000 0.615000 0.590000
0.785000 0.615000 0.590000
0.910000 0.615000 0.590000
0.000000 0.740000 0.590000
0.035000 0.740000 0.590000
0.160000 0.740000 0.590000
0.285000 0.740000 0.590000
0.410000 0.740000 0.590000
0.535000 0.740000 0.590000
0.660000 0.740000 0.590000
0.785000 0.740000 0.590000
0.910000 0.740000 0.590000
0.000000 0.865000 0.590000
0.035000 0.865000 0.590000
0.160000 0.865000 0.590000
0.285000 0.865000 0.590000
0.410000 0.865000 0.590000
0.535000 0.865000 0.590000
0.660000 0.865000 0.590000
0.785000 0.865000 0.590000
0.910000 0.865000 0.590000
0.000000 0.990000 0.590000
0.035000 0.990000 0.590000
0.160000 0.990000 0.590000
0.285000 0.990000 0.590000
0.410000 0.990000 0.590000
0.535000 0.990000 0.590000
0.660000 0.990000 0.590000
0.785000 0.990000 0.590000
0.910000 0.990000 0.590000
0.000000 0.000000 0.715000
0.035000 0.000000 0.715000
0.160000 0.000000 0.715000
0.285000 0.000000 0.715000
0.410000 0.000000 0.715000
0.535000 0.000000 0.715000
0.660000 0.000000 0.715000
0.785000 0.000000 0.715000
0.910000 0.000000 0.715000
0.000000 0.115000 0.715000
0.035000 0.115000 0.715000
0.160000 0.115000 0.715000
0.285000 0.115000 0.715000
0.410000 0.115000 0.715000
0.535000 0.115000 0.715000
0.660000 0.115000 0.715000
0.785000 0.115000 0.715000
0.910000 0.115000 0.715000
0.000000 0.240000 0.715000
0.035000 0.240000 0.715000
0.160000 0.240000 0.715000
0.285000 0.240000 0.715000
0.410000 0.240000 0.715000
0.535000 0.240000 0.715000
0.660000 0.240000 0.715000
0.785000 0.240000 0.715000
0.910000 0.240000 0.715000
0.000000 0.365000 0.715000
0.035000 0.365000 0.715000
0.160000 0.365000 0.715000
0.285000 0.365000 0.715000
0.410000 0.365000 0.715000
0.535000 0.365000 0.715000
0.660000 0.365000 0.715000
0.785000 0.365000 0.715000
0.910000 0.365000 0.715000
0.000000 0.490000 0.715000
0.035000 0.490000 0.715000
0.160000 0.490000 0.715000
0.285000 0.490000 0.715000
0.410000 0.490000 0.715000
0.535000 0.490000 0.715000
0.660000 0.490000 0.715000
0.785000 0.490000 0.715000
0.910000 0.490000 0.715000
0.000000 0.615000 0.715000
0.035000 0.615000 0.715000
0.160000 0.615000 0.715000
0.285000 0.615000 0.715000
0.410000 0.615000 0.715000
0.535000 0.615000 0.715000
0.660000 0.615000 0.715000
0.785000 0.615000 0.715000
0.910000 0.615000 0.715000
0.000000 0.740000 0.715000
0.035000 0.740000 0.715000
0.160000 0.740000 0.715000
0.285000 0.740000 0.715000
0.410000 0.740000 0.715000
0.535000 0.740000 0.715000
0.660000 0.740000 0.715000
0.785000 0.740000 0.715000
0.910000 0.740000 0.715000
0.000000 0.865000 0.715000
0.035000 0.865000 0.715000
0.160000 0.865000 0.715000
0.285000 0.865000 0.715000
0.410000 0.865000 0.715000
0.535000 0.865000 0.715000
0.660000 0.865000 0.715000
0.785000 0.865000 0.715000
0.910000 0.865000 0.715000
0.000000 0.990000 0.715000
0.035000 0.990000 0.715000
0.160000 0.990000 0.715000
0.285000 0.990000 0.715000
0.410000 0.990000 0.715000
0.535000 0.990000 0.715000
0.660000 0.990000 0.715000
0.785000 0.990000 0.715000
0.910000 0.990000 0.715000
0.000000 0.000000 0.840000
0.035000 0.000000 0.840000
0.160000 0.000000 0.840000
0.285000 0.000000 0.840000
0.410000 0.000000 0.840000
0.535000 0.000000 0.840000
0.660000 0.000000 0.840000
0.785000 0.000000 0.840000
0.910000 0.000000 0.840000
0.000000 0.115000 0.840000
0.035000 0.115000 0.840000
0.160000 0.115000 0.840000
0.285000 0.115000 0.840000
0.410000 0.115000 0.840000
0.535000 0.115000 0.840000
0.660000 0.115000 0.840000
0.785000 0.115000 0.840000
0.910000 0.115000 0.840000
0.000000 0.240000 0.840000
0.035000 0.240000 0.840000
0.160000 0.240000 0.840000
0.285000 0.240000 0.840000
0.410000 0.240000 0.840000
0.535000 0.240000 0.840000
0.660000 0.240000 0.840000
0.785000 0.240000 0.840000
0.910000 0.240000 0.840000
0.000000 0.365000 0.840000
0.035000 0.365000 0.840000
0.160000 0.365000 0.840000
0.285000 0.365000 0.840000
0.410000 0.365000 0.840000
0.535000 0.365000 0.840000
0.660000 0.365000 0.840000
0.785000 0.365000 0.840000
0.910000 0.365000 0.840000
0.000000 0.490000 0.840000
0.035000 0.490000 0.840000
0.160000 0.490000 0.840000
0.285000 0.490000 0.840000
0.410000 0.490000 0.840000
0.535000 0.490000 0.840000
0.660000 0.490000 0.840000
0.785000 0.490000 0.840000
0.910000 0.490000 0.840000
0.000000 0.615000 0.840000
0.035000 0.615000 0.840000
0.160000 0.615000 0.840000
0.285000 0.615000 0.840000
0.410000 0.615000 0.840000
0.535000 0.615000 0.840000
0.660000 0.615000 0.840000
0.785000 0.615000 0.840000
0.910000 0.615000 0.840000
0.000000 0.740000 0.840000
0.035000 0.740000 0.840000
0.160000 0.740000 0.840000
0.285000 0.740000 0.840000
0.410000 0.740000 0.840000
0.535000 0.740000 0.840000
0.660000 0.740000 0.840000
0.785000 0.740000 0.840000
0.910000 0.740000 0.840000
0.000000 0.865000 0.840000
0.035000 0.865000 0.840000
0.160000 0.865000 0.840000
0.285000 0.865000 0.840000
0.410000 0.865000 0.840000
0.535000 0.865000 0.840000
0.660000 0.865000 0.840000
0.785000 0.865000 0.840000
0.910000 0.865000 0.840000
0.000000 0.990000 0.840000
0.035000 0.990000 0.840000
0.160000 0.990000 0.840000
0.285000 0.990000 0.840000
0.410000 0.990000 0.840000
0.535000 0.990000 0.840000
0.660000 0.990000 0.840000
0.785000 0.990000 0.840000
0.910000 0.990000 0.840000
0.000000 0.000000 0.965000
0.035000 0.000000 0.965000
0.160000 0.000000 0.965000
0.285000 0.000000 0.965000
0.410000 0.000000 0.965000
0.535000 0.000000 0.965000
0.660000 0.000000 0.965000
0.785000 0.000000 0.965000
0.910000 0.000000 0.965000
0.000000 0.115000 0.965000
0.035000 0.115000 0.965000
0.160000 0.115000 0.965000
0.285000 0.115000 0.965000
0.410000 0.115000 0.965000
0.535000 0.115000 0.965000
0.660000 0.115000 0.965000
0.785000 0.115000 0.965000
0.910000 0.115000 0.965000
0.000000 0.240000 0.965000
0.035000 0.240000 0.965000
0.160000 0.240000 0.965000
0.285000 0.240000 0.965000
0.410000 0.240000 0.965000
0.535000 0.240000 0.965000
0.660000 0.240000 0.965000
0.785000 0.240000 0.965000
0.910000 0.240000 0.965000
0.000000 0.365000 0.965000
0.035000 0.365000 0.965000
0.160000 0.365000 0.965000
0.285000 0.365000 0.965000
0.410000 0.365000 0.965000
0.535000 0.365000 0.965000
0.660000 0.365000 0.965000
0.785000 0.365000 0.965000
0.910000 0.365000 0.965000
0.000000 0.490000 0.965000
0.035000 0.490000 0.965000
0.160000 0.490000 0.965000
0.285000 0.490000 0.965000
0.410000 0.490000 0.965000
0.535000 0.490000 0.965000
0.660000 0.490000 0.965000
0.785000 0.490000 0.965000
0.910000 0.490000 0.965000
0.000000 0.615000 0.965000
0.035000 0.615000 0.965000
0.160000 0.615000 0.965000
0.285000 0.615000 0.965000
0.410000 0.615000 0.965000
0.535000 0.615000 0.965000
0.660000 0.615000 0.965000
0.785000 0.615000 0.965000
0.910000 0.615000 0.965000
0.000000 0.740000 0.965000
0.035000 0.740000 0.965000
0.160000 0.740000 0.965000
0.285000 0.740000 0.965000
0.410000 0.740000 0.965000
0.535000 0.740000 0.965000
0.660000 0.740000 0.965000
0.785000 0.740000 0.965000
0.910000 0.740000 0.965000
0.000000 0.865000 0.965000
0.035000 0.865000 0.965000
0.160000 0.865000 0.965000
0.285000 0.865000 0.965000
0.410000 0.865000 0.965000
0.535000 0.865000 0.965000
0.660000 0.865000 0.965000
0.785000 0.865000 0.965000
0.910000 0.865000 0.965000
0.000000 0.990000 0.965000
0.035000 0.990000 0.965000
0.160000 0.990000 0.965000
0.285000 0.990000 0.965000
0.410000 0.990000 0.965000
0.535000 0.990000 0.965000
0.660000 0.990000 0.965000
0.785000 0.990000 0.965000
0.910000 0.990000 0.965000
0.000000 0.000000 1.000000
0.035000 0.000000 1.000000
0.160000 0.000000 1.000000
0.285000 0.000000 1.000000
0.410000 0.000000 1.000000
0.535000 0.000000 1.000000
0.660000 0.000000 1.000000
0.785000 0.000000 1.000000
0.910000 0.000000 1.000000
0.000000 0.115000 1.000000
0.035000 0.115000 1.000000
0.160000 0.115000 1.000000
0.285000 0.115000 1.000000
0.410000 0.115000 1.000000
0.535000 0.115000 1.000000
0.660000 0.115000 1.000000
0.785000 0.115000 1.000000
0.910000 0.115000 1.000000
0.000000 0.240000 1.000000
0.035000 0.240000 1.000000
0.160000 0.240000 1.000000
0.285000 0.240000 1.000000
0.410000 0.240000 1.000000
0.535000 0.240000 1.000000
0.660000 0.240000 1.000000
0.785000 0.240000 1.000000
0.910000 0.240000 1.000000
0.000000 0.365000 1.000000
0.035000 0.365000 1.000000
0.160000 0.365000 1.000000
0.285000 0.365000 1.000000
0.410000 0.365000 1.000000
0.535000 0.365000 1.000000
0.660000 0.365000 1.000000
0.785000 0.365000 1.000000
0.910000 0.365000 1.000000
0.000000 0.490000 1.000000
0.035000 0.490000 1.000000
0.160000 0.490000 1.000000
0.285000 0.490000 1.000000
0.410000 0.490000 1.000000
0.535000 0.490000 1.000000
0.660000 0.490000 1.000000
0.785000 0.490000 1.000000
0.910000 0.490000 1.000000
0.000000 0.615000 1.000000
0.035000 0.615000 1.000000
0.160000 0.615000 1.000000
0.285000 0.615000 1.000000
0.410000 0.615000 1.000000
0.535000 0.615000 1.000000
0.660000 0.615000 1.000000
0.785000 0.615000 1.000000
0.910000 0.615000 1.000000
0.000000 0.740000 1.000000
0.035000 0.740000 1.000000
0.160000 0.740000 1.000000
0.285000 0.740000 1.000000
0.410000 0.740000 1.000000
0.535000 0.740000 1.000000
0.660000 0.740000 1.000000
0.785000 0.740000 1.000000
0.910000 0.740000 1.000000
0.000000 0.865000 1.000000
0.035000 0.865000 1.000000
0.160000 0.865000 1.000000
0.285000 0.865000 1.000000
0.410000 0.865000 1.000000
0.535000 0.865000 1.000000
0.660000 0.865000 1.000000
0.785000 0.865000 1.000000
0.910000 0.865000 1.000000
0.000000 0.990000 1.000000
0.035000 0.990000 1.000000
0.160000 0.990000 1.000000
0.285000 0.990000 1.000000
0.410000 0.990000 1.000000
0.535000 0.990000 1.000000
0.660000 0.990000 1.000000
0.785000 0.990000 1.000000
0.910000 0.990000 1.000000
