lut-visualizer/public/data/sample_luts/cool_grade.cube
LUT_3D_SIZE 9
DOMAIN_MIN 0.0 0.0 0.0
DOMAIN_MAX 1.0 1.0 1.0
0.000063 0.000063 0.007902
0.045056 0.001101 0.008941
0.138049 0.003247 0.011087
0.258402 0.006025 0.013864
0.395007 0.009177 0.017016
0.536756 0.012448 0.020288
0.672542 0.015582 0.023421
0.791258 0.018321 0.026161
0.881796 0.020411 0.028250
0.005341 0.071766 0.013181
0.050335 0.072805 0.014219
0.143328 0.074951 0.016365
0.263681 0.077728 0.019143
0.400285 0.080880 0.022295
0.542034 0.084152 0.025566
0.677821 0.087285 0.028700
0.796536 0.090025 0.031439
0.887074 0.092114 0.033529
0.013537 0.183095 0.021376
0.058530 0.184133 0.022415
0.151524 0.186279 0.024561
0.271876 0.189057 0.027338
0.408481 0.192209 0.030491
0.550230 0.195480 0.033762
0.686016 0.198614 0.036895
0.804732 0.201353 0.039635
0.895270 0.203443 0.041724
0.023703 0.321191 0.031543
0.068697 0.322229 0.032581
0.161690 0.324375 0.034727
0.282042 0.327152 0.037504
0.418647 0.330305 0.040657
0.560396 0.333576 0.043928
0.696182 0.336709 0.047061
0.814898 0.339449 0.049801
0.905436 0.341538 0.051890
0.034893 0.473194 0.042733
0.079887 0.474233 0.043771
0.172880 0.476379 0.045917
0.293232 0.479156 0.048694
0.429837 0.482308 0.051847
0.571586 0.485580 0.055118
0.707372 0.488713 0.058251
0.826088 0.491453 0.060991
0.916626 0.493542 0.063080
0.046160 0.626248 0.054000
0.091154 0.627286 0.055038
0.184147 0.629432 0.057184
0.304500 0.632209 0.059962
0.441104 0.635362 0.063114
0.582853 0.638633 0.066385
0.718640 0.641767 0.069519
0.837355 0.644506 0.072258
0.927893 0.646596 0.074348
0.056558 0.767492 0.064398
0.101552 0.768531 0.065436
0.194545 0.770677 0.067582
0.314898 0.773454 0.070360
0.451502 0.776606 0.073512
0.593251 0.779878 0.076783
0.729038 0.783011 0.079917
0.847753 0.785751 0.082656
0.938291 0.787840 0.084746
0.065140 0.884069 0.072980
0.110134 0.885108 0.074018
0.203127 0.887254 0.076164
0.323480 0.890031 0.078942
0.460084 0.893184 0.082094
0.601833 0.896455 0.085365
0.737620 0.899588 0.088499
0.856335 0.902328 0.091238
0.946873 0.904417 0.093328
0.070960 0.963121 0.078799
0.115953 0.964159 0.079838
0.208946 0.966305 0.081984
0.329299 0.969082 0.084761
0.465904 0.972235 0.087913
0.607653 0.975506 0.091185
0.743439 0.978639 0.094318
0.862155 0.981379 0.097058
0.952693 0.983468 0.099147
0.000704 0.000704 0.088477
0.045698 0.001742 0.089516
0.138691 0.003888 0.091662
0.259043 0.006666 0.094439
0.395648 0.009818 0.097591
0.537397 0.013089 0.100863
0.673183 0.016223 0.103996
0.791899 0.018963 0.106736
0.882437 0.021052 0.108825
0.005983 0.072407 0.093756
0.050976 0.073446 0.094794
0.143969 0.075592 0.096940
0.264322 0.078369 0.099718
0.400927 0.081522 0.102870
0.542676 0.084793 0.106141
0.678462 0.087926 0.109275
0.797178 0.090666 0.112014
0.887715 0.092755 0.114104
0.014178 0.183736 0.101951
0.059172 0.184775 0.102990
0.152165 0.186921 0.105136
0.272518 0.189698 0.107913
0.409122 0.192850 0.111066
0.550871 0.196122 0.114337
0.686658 0.199255 0.117470
0.805373 0.201995 0.120210
0.895911 0.204084 0.122299
0.024344 0.321832 0.112118
0.069338 0.322870 0.113156
0.162331 0.325016 0.115302
0.282684 0.327793 0.118079
0.419288 0.330946 0.121232
0.561037 0.334217 0.124503
0.696824 0.337351 0.127636
0.815539 0.340090 0.130376
0.906077 0.342180 0.132465
0.035534 0.473836 0.123308
0.080528 0.474874 0.124346
0.173521 0.477020 0.126492
0.293874 0.479797 0.129269
0.430478 0.482950 0.132422
0.572227 0.486221 0.135693
0.708014 0.489354 0.138826
0.826729 0.492094 0.141566
0.917267 0.494183 0.143655
0.046802 0.626889 0.134575
0.091795 0.627927 0.135613
0.184788 0.630073 0.137759
0.305141 0.632851 0.140537
0.441746 0.636003 0.143689
0.583495 0.639274 0.146960
0.719281 0.642408 0.150094
0.837997 0.645147 0.152833
0.928535 0.647237 0.154923
0.057200 0.768134 0.144973
0.102193 0.769172 0.146011
0.195186 0.771318 0.148157
0.315539 0.774095 0.150935
0.452144 0.777248 0.154087
0.593893 0.780519 0.157358
0.729679 0.783652 0.160492
0.848395 0.786392 0.163231
0.938932 0.788481 0.165321
0.065782 0.884711 0.153555
0.110775 0.885749 0.154593
0.203768 0.887895 0.156739
0.324121 0.890672 0.159517
0.460726 0.893825 0.162669
0.602475 0.897096 0.165940
0.738261 0.900230 0.169074
0.856977 0.902969 0.171813
0.947514 0.905059 0.173903
0.071601 0.963762 0.159374
0.116595 0.964800 0.160413
0.209588 0.966946 0.162559
0.329940 0.969724 0.165336
0.466545 0.972876 0.168488
0.608294 0.976147 0.171760
0.744080 0.979281 0.174893
0.862796 0.982020 0.177633
0.953334 0.984110 0.179722
0.001658 0.001658 0.208295
0.046651 0.002696 0.209333
0.139644 0.004842 0.211479
0.259997 0.007619 0.214257
0.396602 0.010772 0.217409
0.538351 0.014043 0.220680
0.674137 0.017177 0.223814
0.792853 0.019916 0.226553
0.883390 0.022006 0.228643
0.006936 0.073361 0.213573
0.051930 0.074399 0.214612
0.144923 0.076545 0.216758
0.265275 0.079323 0.219535
0.401880 0.082475 0.222688
0.543629 0.085746 0.225959
0.679415 0.088880 0.229092
0.798131 0.091620 0.231832
0.888669 0.093709 0.233921
0.015132 0.184690 0.221769
0.060125 0.185728 0.222807
0.153118 0.187874 0.224953
0.273471 0.190651 0.227731
0.410076 0.193804 0.230883
0.551825 0.197075 0.234154
0.687611 0.200209 0.237288
0.806327 0.202948 0.240028
0.896865 0.205038 0.242117
0.025298 0.322785 0.231935
0.070291 0.323824 0.232974
0.163285 0.325970 0.235120
0.283637 0.328747 0.237897
0.420242 0.331899 0.241049
0.561991 0.335171 0.244321
0.697777 0.338304 0.247454
0.816493 0.341044 0.250194
0.907031 0.343133 0.252283
0.036488 0.474789 0.243125
0.081481 0.475827 0.244164
0.174475 0.477973 0.246310
0.294827 0.480751 0.249087
0.431432 0.483903 0.252239
0.573181 0.487174 0.255511
0.708967 0.490308 0.258644
0.827683 0.493048 0.261384
0.918221 0.495137 0.263473
0.047755 0.627843 0.254393
0.092749 0.628881 0.255431
0.185742 0.631027 0.257577
0.306094 0.633804 0.260354
0.442699 0.636957 0.263507
0.584448 0.640228 0.266778
0.720234 0.643361 0.269911
0.838950 0.646101 0.272651
0.929488 0.648190 0.274740
0.058153 0.769087 0.264790
0.103147 0.770125 0.265829
0.196140 0.772271 0.267975
0.316492 0.775049 0.270752
0.453097 0.778201 0.273905
0.594846 0.781472 0.277176
0.730632 0.784606 0.280309
0.849348 0.787346 0.283049
0.939886 0.789435 0.285138
0.066735 0.885664 0.273372
0.111729 0.886703 0.274411
0.204722 0.888849 0.276557
0.325074 0.891626 0.279334
0.461679 0.894778 0.282487
0.603428 0.898050 0.285758
0.739214 0.901183 0.288891
0.857930 0.903923 0.291631
0.948468 0.906012 0.293720
0.072555 0.964715 0.279192
0.117548 0.965754 0.280230
0.210541 0.967900 0.282376
0.330894 0.970677 0.285154
0.467499 0.973830 0.288306
0.609248 0.977101 0.291577
0.745034 0.980234 0.294711
0.863750 0.982974 0.297450
0.954288 0.985063 0.299540
0.002806 0.002806 0.352586
0.047799 0.003844 0.353625
0.140793 0.005990 0.355771
0.261145 0.008768 0.358548
0.397750 0.011920 0.361701
0.539499 0.015191 0.364972
0.675285 0.018325 0.368105
0.794001 0.021064 0.370845
0.884539 0.023154 0.372934
0.008085 0.074509 0.357865
0.053078 0.075548 0.358903
0.146071 0.077694 0.361049
0.266424 0.080471 0.363827
0.403028 0.083624 0.366979
0.544778 0.086895 0.370250
0.680564 0.090028 0.373384
0.799280 0.092768 0.376123
0.889817 0.094857 0.378213
0.016280 0.185838 0.366061
0.061274 0.186876 0.367099
0.154267 0.189022 0.369245
0.274619 0.191800 0.372022
0.411224 0.194952 0.375175
0.552973 0.198223 0.378446
0.688759 0.201357 0.381580
0.807475 0.204097 0.384319
0.898013 0.206186 0.386408
0.026446 0.323934 0.376227
0.071440 0.324972 0.377265
0.164433 0.327118 0.379411
0.284786 0.329895 0.382189
0.421390 0.333048 0.385341
0.563139 0.336319 0.388612
0.698926 0.339453 0.391746
0.817641 0.342192 0.394485
0.908179 0.344281 0.396575
0.037636 0.475937 0.387417
0.082630 0.476976 0.388455
0.175623 0.479122 0.390601
0.295976 0.481899 0.393379
0.432580 0.485052 0.396531
0.574329 0.488323 0.399802
0.710116 0.491456 0.402936
0.828831 0.494196 0.405675
0.919369 0.496285 0.407765
0.048904 0.628991 0.398684
0.093897 0.630029 0.399722
0.186890 0.632175 0.401868
0.307243 0.634953 0.404646
0.443847 0.638105 0.407798
0.585597 0.641376 0.411069
0.721383 0.644510 0.414203
0.840099 0.647249 0.416943
0.930636 0.649339 0.419032
0.059302 0.770235 0.409082
0.104295 0.771274 0.410120
0.197288 0.773420 0.412266
0.317641 0.776197 0.415044
0.454245 0.779350 0.418196
0.595995 0.782621 0.421467
0.731781 0.785754 0.424601
0.850497 0.788494 0.427340
0.941034 0.790583 0.429430
0.067884 0.886813 0.417664
0.112877 0.887851 0.418702
0.205870 0.889997 0.420848
0.326223 0.892774 0.423626
0.462827 0.895927 0.426778
0.604577 0.899198 0.430049
0.740363 0.902331 0.433183
0.859079 0.905071 0.435923
0.949616 0.907160 0.438012
0.073703 0.965864 0.423483
0.118696 0.966902 0.424522
0.211690 0.969048 0.426668
0.332042 0.971825 0.429445
0.468647 0.974978 0.432598
0.610396 0.978249 0.435869
0.746182 0.981383 0.439002
0.864898 0.984122 0.441742
0.955436 0.986212 0.443831
0.004032 0.004032 0.506583
0.049025 0.005070 0.507621
0.142018 0.007216 0.509767
0.262371 0.009993 0.512545
0.398975 0.013146 0.515697
0.540725 0.016417 0.518968
0.676511 0.019550 0.522102
0.795227 0.022290 0.524842
0.885764 0.024379 0.526931
0.009310 0.075735 0.511862
0.054304 0.076773 0.512900
0.147297 0.078919 0.515046
0.267649 0.081697 0.517823
0.404254 0.084849 0.520976
0.546003 0.088120 0.524247
0.681789 0.091254 0.527381
0.800505 0.093993 0.530120
0.891043 0.096083 0.532210
0.017506 0.187064 0.520057
0.062499 0.188102 0.521096
0.155492 0.190248 0.523242
0.275845 0.193025 0.526019
0.412450 0.196178 0.529172
0.554199 0.199449 0.532443
0.689985 0.202583 0.535576
0.808701 0.205322 0.538316
0.899239 0.207411 0.540405
0.027672 0.325159 0.530223
0.072665 0.326198 0.531262
0.165658 0.328344 0.533408
0.286011 0.331121 0.536185
0.422616 0.334273 0.539338
0.564365 0.337545 0.542609
0.700151 0.340678 0.545742
0.818867 0.343418 0.548482
0.909405 0.345507 0.550571
0.038862 0.477163 0.541413
0.083855 0.478201 0.542452
0.176848 0.480347 0.544598
0.297201 0.483125 0.547375
0.433806 0.486277 0.550528
0.575555 0.489548 0.553799
0.711341 0.492682 0.556932
0.830057 0.495421 0.559672
0.920595 0.497511 0.561761
0.050129 0.630216 0.552681
0.095123 0.631255 0.553719
0.188116 0.633401 0.555865
0.308468 0.636178 0.558642
0.445073 0.639331 0.561795
0.586822 0.642602 0.565066
0.722608 0.645735 0.568200
0.841324 0.648475 0.570939
0.931862 0.650564 0.573029
0.060527 0.771461 0.563079
0.105521 0.772499 0.564117
0.198514 0.774645 0.566263
0.318866 0.777423 0.569040
0.455471 0.780575 0.572193
0.597220 0.783846 0.575464
0.733006 0.786980 0.578598
0.851722 0.789719 0.581337
0.942260 0.791809 0.583427
0.069109 0.888038 0.571661
0.114103 0.889076 0.572699
0.207096 0.891222 0.574845
0.327448 0.894000 0.577622
0.464053 0.897152 0.580775
0.605802 0.900423 0.584046
0.741588 0.903557 0.587180
0.860304 0.906297 0.589919
0.950842 0.908386 0.592009
0.074929 0.967089 0.577480
0.119922 0.968128 0.578519
0.212915 0.970274 0.580665
0.333268 0.973051 0.583442
0.469872 0.976203 0.586594
0.611622 0.979475 0.589866
0.747408 0.982608 0.592999
0.866124 0.985348 0.595739
0.956661 0.987437 0.597828
0.005217 0.005217 0.655516
0.050210 0.006255 0.656555
0.143203 0.008401 0.658701
0.263556 0.011179 0.661478
0.400161 0.014331 0.664630
0.541910 0.017602 0.667902
0.677696 0.020736 0.671035
0.796412 0.023475 0.673775
0.886950 0.025565 0.675864
0.010495 0.076920 0.660795
0.055489 0.077959 0.661833
0.148482 0.080105 0.663979
0.268835 0.082882 0.666757
0.405439 0.086034 0.669909
0.547188 0.089306 0.673180
0.682975 0.092439 0.676314
0.801690 0.095179 0.679053
0.892228 0.097268 0.681143
0.018691 0.188249 0.668991
0.063684 0.189287 0.670029
0.156678 0.191433 0.672175
0.277030 0.194211 0.674952
0.413635 0.197363 0.678105
0.555384 0.200634 0.681376
0.691170 0.203768 0.684509
0.809886 0.206507 0.687249
0.900424 0.208597 0.689338
0.028857 0.326344 0.679157
0.073851 0.327383 0.680195
0.166844 0.329529 0.682341
0.287196 0.332306 0.685118
0.423801 0.335459 0.688271
0.565550 0.338730 0.691542
0.701336 0.341863 0.694675
0.820052 0.344603 0.697415
0.910590 0.346692 0.699504
0.040047 0.478348 0.690347
0.085041 0.479387 0.691385
0.178034 0.481533 0.693531
0.298386 0.484310 0.696308
0.434991 0.487462 0.699461
0.576740 0.490734 0.702732
0.712526 0.493867 0.705865
0.831242 0.496607 0.708605
0.921780 0.498696 0.710694
0.051314 0.631402 0.701614
0.096308 0.632440 0.702652
0.189301 0.634586 0.704798
0.309654 0.637363 0.707576
0.446258 0.640516 0.710728
0.588007 0.643787 0.713999
0.723794 0.646921 0.717133
0.842509 0.649660 0.719872
0.933047 0.651750 0.721962
0.061712 0.772646 0.712012
0.106706 0.773685 0.713050
0.199699 0.775831 0.715196
0.320052 0.778608 0.717974
0.456656 0.781760 0.721126
0.598405 0.785032 0.724397
0.734192 0.788165 0.727531
0.852907 0.790905 0.730270
0.943445 0.792994 0.732360
0.070294 0.889223 0.720594
0.115288 0.890262 0.721632
0.208281 0.892408 0.723778
0.328634 0.895185 0.726556
0.465238 0.898338 0.729708
0.606987 0.901609 0.732979
0.742774 0.904742 0.736113
0.861489 0.907482 0.738852
0.952027 0.909571 0.740942
0.076114 0.968275 0.726413
0.121107 0.969313 0.727452
0.214100 0.971459 0.729598
0.334453 0.974236 0.732375
0.471058 0.977389 0.735527
0.612807 0.980660 0.738799
0.748593 0.983793 0.741932
0.867309 0.986533 0.744672
0.957847 0.988622 0.746761
0.006244 0.006244 0.784617
0.051238 0.007283 0.785655
0.144231 0.009429 0.787801
0.264583 0.012206 0.790579
0.401188 0.015358 0.793731
0.542937 0.018630 0.797002
0.678723 0.021763 0.800136
0.797439 0.024503 0.802876
0.887977 0.026592 0.804965
0.011523 0.077948 0.789896
0.056516 0.078986 0.790934
0.149509 0.081132 0.793080
0.269862 0.083909 0.795857
0.406467 0.087062 0.799010
0.548216 0.090333 0.802281
0.684002 0.093466 0.805415
0.802718 0.096206 0.808154
0.893256 0.098295 0.810244
0.019718 0.189276 0.798091
0.064712 0.190315 0.799130
0.157705 0.192461 0.801276
0.278058 0.195238 0.804053
0.414662 0.198391 0.807206
0.556411 0.201662 0.810477
0.692198 0.204795 0.813610
0.810913 0.207535 0.816350
0.901451 0.209624 0.818439
0.029885 0.327372 0.808257
0.074878 0.328410 0.809296
0.167871 0.330556 0.811442
0.288224 0.333334 0.814219
0.424828 0.336486 0.817372
0.566578 0.339757 0.820643
0.702364 0.342891 0.823776
0.821080 0.345630 0.826516
0.911617 0.347720 0.828605
0.041075 0.479376 0.819447
0.086068 0.480414 0.820486
0.179061 0.482560 0.822632
0.299414 0.485337 0.825409
0.436018 0.488490 0.828562
0.577768 0.491761 0.831833
0.713554 0.494895 0.834966
0.832270 0.497634 0.837706
0.922807 0.499724 0.839795
0.052342 0.632429 0.830715
0.097335 0.633467 0.831753
0.190328 0.635613 0.833899
0.310681 0.638391 0.836676
0.447286 0.641543 0.839829
0.589035 0.644814 0.843100
0.724821 0.647948 0.846234
0.843537 0.650688 0.848973
0.934075 0.652777 0.851063
0.062740 0.773674 0.841113
0.107733 0.774712 0.842151
0.200726 0.776858 0.844297
0.321079 0.779635 0.847074
0.457684 0.782788 0.850227
0.599433 0.786059 0.853498
0.735219 0.789193 0.856632
0.853935 0.791932 0.859371
0.944473 0.794022 0.861461
0.071322 0.890251 0.849695
0.116315 0.891289 0.850733
0.209308 0.893435 0.852879
0.329661 0.896213 0.855656
0.466266 0.899365 0.858809
0.608015 0.902636 0.862080
0.743801 0.905770 0.865214
0.862517 0.908509 0.867953
0.953055 0.910599 0.870043
0.077141 0.969302 0.855514
0.122135 0.970340 0.856552
0.215128 0.972486 0.858699
0.335481 0.975264 0.861476
0.472085 0.978416 0.864628
0.613834 0.981687 0.867899
0.749621 0.984821 0.871033
0.868336 0.987560 0.873773
0.958874 0.989650 0.875862
0.006996 0.006996 0.879117
0.051990 0.008035 0.880155
0.144983 0.010181 0.882301
0.265336 0.012958 0.885079
0.401940 0.016111 0.888231
0.543689 0.019382 0.891502
0.679476 0.022515 0.894636
0.798191 0.025255 0.897375
0.888729 0.027344 0.899465
0.012275 0.078700 0.884396
0.057268 0.079738 0.885434
0.150261 0.081884 0.887580
0.270614 0.084661 0.890357
0.407219 0.087814 0.893510
0.548968 0.091085 0.896781
0.684754 0.094219 0.899914
0.803470 0.096958 0.902654
0.894008 0.099048 0.904743
0.020471 0.190028 0.892591
0.065464 0.191067 0.893629
0.158457 0.193213 0.895776
0.278810 0.195990 0.898553
0.415414 0.199143 0.901705
0.557164 0.202414 0.904976
0.692950 0.205547 0.908110
0.811666 0.208287 0.910850
0.902203 0.210376 0.912939
0.030637 0.328124 0.902757
0.075630 0.329162 0.903796
0.168623 0.331308 0.905942
0.288976 0.334086 0.908719
0.425581 0.337238 0.911871
0.567330 0.340509 0.915143
0.703116 0.343643 0.918276
0.821832 0.346382 0.921016
0.912369 0.348472 0.923105
0.041827 0.480128 0.913947
0.086820 0.481166 0.914986
0.179813 0.483312 0.917132
0.300166 0.486089 0.919909
0.436771 0.489242 0.923061
0.578520 0.492513 0.926333
0.714306 0.495647 0.929466
0.833022 0.498386 0.932206
0.923559 0.500476 0.934295
0.053094 0.633181 0.925215
0.098087 0.634220 0.926253
0.191080 0.636366 0.928399
0.311433 0.639143 0.931176
0.448038 0.642295 0.934329
0.589787 0.645567 0.937600
0.725573 0.648700 0.940733
0.844289 0.651440 0.943473
0.934827 0.653529 0.945562
0.063492 0.774426 0.935613
0.108485 0.775464 0.936651
0.201478 0.777610 0.938797
0.321831 0.780388 0.941574
0.458436 0.783540 0.944727
0.600185 0.786811 0.947998
0.735971 0.789945 0.951131
0.854687 0.792684 0.953871
0.945225 0.794774 0.955960
0.072074 0.891003 0.944195
0.117067 0.892041 0.945233
0.210060 0.894187 0.947379
0.330413 0.896965 0.950156
0.467018 0.900117 0.953309
0.608767 0.903388 0.956580
0.744553 0.906522 0.959713
0.863269 0.909261 0.962453
0.953807 0.911351 0.964542
0.077893 0.970054 0.950014
0.122887 0.971092 0.951052
0.215880 0.973238 0.953198
0.336233 0.976016 0.955976
0.472837 0.979168 0.959128
0.614586 0.982439 0.962399
0.750373 0.985573 0.965533
0.869088 0.988312 0.968272
0.959626 0.990402 0.970362
0.007220 0.007220 0.907220
0.052213 0.008258 0.908258
0.145207 0.010404 0.910404
0.265559 0.013182 0.913182
0.402164 0.016334 0.916334
0.543913 0.019605 0.919605
0.679699 0.022739 0.922739
0.798415 0.025478 0.925478
0.888953 0.027568 0.927568
0.012499 0.078923 0.912499
0.057492 0.079962 0.913537
0.150485 0.082108 0.915683
0.270838 0.084885 0.918460
0.407442 0.088038 0.921613
0.549192 0.091309 0.924884
0.684978 0.094442 0.928017
0.803694 0.097182 0.930757
0.894231 0.099271 0.932846
0.020694 0.190252 0.920694
0.065688 0.191290 0.921733
0.158681 0.193436 0.923879
0.279033 0.196214 0.926656
0.415638 0.199366 0.929808
0.557387 0.202637 0.933080
0.693173 0.205771 0.936213
0.811889 0.208511 0.938953
0.902427 0.210600 0.941042
0.030860 0.328348 0.930860
0.075854 0.329386 0.931899
0.168847 0.331532 0.934045
0.289200 0.334309 0.936822
0.425804 0.337462 0.939974
0.567553 0.340733 0.943246
0.703340 0.343866 0.946379
0.822055 0.346606 0.949119
0.912593 0.348695 0.951208
0.042050 0.480351 0.942050
0.087044 0.481390 0.943089
0.180037 0.483536 0.945235
0.300390 0.486313 0.948012
0.436994 0.489466 0.951164
0.578743 0.492737 0.954436
0.714530 0.495870 0.957569
0.833245 0.498610 0.960309
0.923783 0.500699 0.962398
0.053318 0.633405 0.953318
0.098311 0.634443 0.954356
0.191304 0.636589 0.956502
0.311657 0.639367 0.959279
0.448261 0.642519 0.962432
0.590011 0.645790 0.965703
0.725797 0.648924 0.968836
0.844513 0.651663 0.971576
0.935050 0.653753 0.973665
0.063716 0.774649 0.963716
0.108709 0.775688 0.964754
0.201702 0.777834 0.966900
0.322055 0.780611 0.969677
0.458659 0.783764 0.972830
0.600409 0.787035 0.976101
0.736195 0.790168 0.979234
0.854911 0.792908 0.981974
0.945448 0.794997 0.984063
0.072298 0.891227 0.972298
0.117291 0.892265 0.973336
0.210284 0.894411 0.975482
0.330637 0.897188 0.978259
0.467241 0.900341 0.981412
0.608991 0.903612 0.984683
0.744777 0.906745 0.987816
0.863493 0.909485 0.990556
0.954030 0.911574 0.992645
0.078117 0.970278 0.978117
0.123110 0.971316 0.979155
0.216104 0.973462 0.981301
0.336456 0.976239 0.984079
0.473061 0.979392 0.987231
0.614810 0.982663 0.990502
0.750596 0.985797 0.993636
0.869312 0.988536 0.996376
0.959850 0.990625 0.998465
