lut-visualizer/public/data/sample_luts/cool_grade.cube
LUT_3D_SIZE 5
DOMAIN_MIN 0.0 0.0 0.0
DOMAIN_MAX 1.0 1.0 1.0
0.000063 0.000063 0.007902
0.138049 0.003247 0.011087
0.395007 0.009177 0.017016
0.672542 0.015582 0.023421
0.881796 0.020411 0.028250
0.013537 0.183095 0.021376
0.151524 0.186279 0.024561
0.408481 0.192209 0.030491
0.686016 0.198614 0.036895
0.895270 0.203443 0.041724
0.034893 0.473194 0.042733
0.172880 0.476379 0.045917
0.429837 0.482308 0.051847
0.707372 0.488713 0.058251
0.916626 0.493542 0.063080
0.056558 0.767492 0.064398
0.194545 0.770677 0.067582
0.451502 0.776606 0.073512
0.729038 0.783011 0.079917
0.938291 0.787840 0.084746
0.070960 0.963121 0.078799
0.208946 0.966305 0.081984
0.465904 0.972235 0.087913
0.743439 0.978639 0.094318
0.952693 0.983468 0.099147
0.001658 0.001658 0.208295
0.139644 0.004842 0.211479
0.396602 0.010772 0.217409
0.674137 0.017177 0.223814
0.883390 0.022006 0.228643
0.015132 0.184690 0.221769
0.153118 0.187874 0.224953
0.410076 0.193804 0.230883
0.687611 0.200209 0.237288
0.896865 0.205038 0.242117
0.036488 0.474789 0.243125
0.174475 0.477973 0.246310
0.431432 0.483903 0.252239
0.708967 0.490308 0.258644
0.918221 0.495137 0.263473
0.058153 0.769087 0.264790
0.196140 0.772271 0.267975
0.453097 0.778201 0.273905
0.730632 0.784606 0.280309
0.939886 0.789435 0.285138
0.072555 0.964715 0.279192
0.210541 0.967900 0.282376
0.467499 0.973830 0.288306
0.745034 0.980234 0.294711
0.954288 0.985063 0.299540
0.004032 0.004032 0.506583
0.142018 0.007216 0.509767
0.398975 0.013146 0.515697
0.676511 0.019550 0.522102
0.885764 0.024379 0.526931
0.017506 0.187064 0.520057
0.155492 0.190248 0.523242
0.412450 0.196178 0.529172
0.689985 0.202583 0.535576
0.899239 0.207411 0.540405
0.038862 0.477163 0.541413
0.176848 0.480347 0.544598
0.433806 0.486277 0.550528
0.711341 0.492682 0.556932
0.920595 0.497511 0.561761
0.060527 0.771461 0.563079
0.198514 0.774645 0.566263
0.455471 0.780575 0.572193
0.733006 0.786980 0.578598
0.942260 0.791809 0.583427
0.074929 0.967089 0.577480
0.212915 0.970274 0.580665
0.469872 0.976203 0.586594
0.747408 0.982608 0.592999
0.956661 0.987437 0.597828
0.006244 0.006244 0.784617
0.144231 0.009429 0.787801
0.401188 0.015358 0.793731
0.678723 0.021763 0.800136
0.887977 0.026592 0.804965
0.019718 0.189276 0.798091
0.157705 0.192461 0.801276
0.414662 0.198391 0.807206
0.692198 0.204795 0.813610
0.901451 0.209624 0.818439
0.041075 0.479376 0.819447
0.179061 0.482560 0.822632
0.436018 0.488490 0.828562
0.713554 0.494895 0.834966
0.922807 0.499724 0.839795
0.062740 0.773674 0.841113
0.200726 0.776858 0.844297
0.457684 0.782788 0.850227
0.735219 0.789193 0.856632
0.944473 0.794022 0.861461
0.077141 0.969302 0.855514
0.215128 0.972486 0.858699
0.472085 0.978416 0.864628
0.749621 0.984821 0.871033
0.958874 0.989650 0.875862
0.007220 0.007220 0.907220
0.145207 0.010404 0.910404
0.402164 0.016334 0.916334
0.679699 0.022739 0.922739
0.888953 0.027568 0.927568
0.020694 0.190252 0.920694
0.158681 0.193436 0.923879
0.415638 0.199366 0.929808
0.693173 0.205771 0.936213
0.902427 0.210600 0.941042
0.042050 0.480351 0.942050
0.180037 0.483536 0.945235
0.436994 0.489466 0.951164
0.714530 0.495870 0.957569
0.923783 0.500699 0.962398
0.063716 0.774649 0.963716
0.201702 0.777834 0.966900
0.458659 0.783764 0.972830
0.736195 0.790168 0.979234
0.945448 0.794997 0.984063
0.078117 0.970278 0.978117
0.216104 0.973462 0.981301
0.473061 0.979392 0.987231
0.750596 0.985797 0.993636
0.959850 0.990625 0.998465
