lut-visualizer/public/data/sample_luts/cool_mild.cube
LUT_3D_SIZE 17
DOMAIN_MIN 0.0 0.0 0.0
DOMAIN_MAX 1.0 1.0 1.0
0.000000 0.000000 0.040000
0.022500 0.000000 0.040000
0.085000 0.000000 0.040000
0.147500 0.000000 0.040000
0.210000 0.000000 0.040000
0.272500 0.000000 0.040000
0.335000 0.000000 0.040000
0.397500 0.000000 0.040000
0.460000 0.000000 0.040000
0.522500 0.000000 0.040000
0.585000 0.000000 0.040000
0.647500 0.000000 0.040000
0.710000 0.000000 0.040000
0.772500 0.000000 0.040000
0.835000 0.000000 0.040000
0.897500 0.000000 0.040000
0.960000 0.000000 0.040000
0.000000 0.057500 0.040000
0.022500 0.057500 0.040000
0.085000 0.057500 0.040000
0.147500 0.057500 0.040000
0.210000 0.057500 0.040000
0.272500 0.057500 0.040000
0.335000 0.057500 0.040000
0.397500 0.057500 0.040000
0.460000 0.057500 0.040000
0.522500 0.057500 0.040000
0.585000 0.057500 0.040000
0.647500 0.057500 0.040000
0.710000 0.057500 0.040000
0.772500 0.057500 0.040000
0.835000 0.057500 0.040000
0.897500 0.057500 0.040000
0.960000 0.057500 0.040000
0.000000 0.120000 0.040000
0.022500 0.120000 0.040000
0.085000 0.120000 0.040000
0.147500 0.120000 0.040000
0.210000 0.120000 0.040000
0.272500 0.120000 0.040000
0.335000 0.120000 0.040000
0.397500 0.120000 0.040000
0.460000 0.120000 0.040000
0.522500 0.120000 0.040000
0.585000 0.120000 0.040000
0.647500 0.120000 0.040000
0.710000 0.120000 0.040000
0.772500 0.120000 0.040000
0.835000 0.120000 0.040000
0.897500 0.120000 0.040000
0.960000 0.120000 0.040000
0.000000 0.182500 0.040000
0.022500 0.182500 0.040000
0.085000 0.182500 0.040000
0.147500 0.182500 0.040000
0.210000 0.182500 0.040000
0.272500 0.182500 0.040000
0.335000 0.182500 0.040000
0.397500 0.182500 0.040000
0.460000 0.182500 0.040000
0.522500 0.182500 0.040000
0.585000 0.182500 0.040000
0.647500 0.182500 0.040000
0.710000 0.182500 0.040000
0.772500 0.182500 0.040000
0.835000 0.182500 0.040000
0.897500 0.182500 0.040000
0.960000 0.182500 0.040000
0.000000 0.245000 0.040000
0.022500 0.245000 0.040000
0.085000 0.245000 0.040000
0.147500 0.245000 0.040000
0.210000 0.245000 0.040000
0.272500 0.245000 0.040000
0.335000 0.245000 0.040000
0.397500 0.245000 0.040000
0.460000 0.245000 0.040000
0.522500 0.245000 0.040000
0.585000 0.245000 0.040000
0.647500 0.245000 0.040000
0.710000 0.245000 0.040000
0.772500 0.245000 0.040000
0.835000 0.245000 0.040000
0.897500 0.245000 0.040000
0.960000 0.245000 0.040000
0.000000 0.307500 0.040000
0.022500 0.307500 0.040000
0.085000 0.307500 0.040000
0.147500 0.307500 0.040000
0.210000 0.307500 0.040000
0.272500 0.307500 0.040000
0.335000 0.307500 0.040000
0.397500 0.307500 0.040000
0.460000 0.307500 0.040000
0.522500 0.307500 0.040000
0.585000 0.307500 0.040000
0.647500 0.307500 0.040000
0.710000 0.307500 0.040000
0.772500 0.307500 0.040000
0.835000 0.307500 0.040000
0.897500 0.307500 0.040000
0.960000 0.307500 0.040000
0.000000 0.370000 0.040000
0.022500 0.370000 0.040000
0.085000 0.370000 0.040000
0.147500 0.370000 0.040000
0.210000 0.370000 0.040000
0.272500 0.370000 0.040000
0.335000 0.370000 0.040000
0.397500 0.370000 0.040000
0.460000 0.370000 0.040000
0.522500 0.370000 0.040000
0.585000 0.370000 0.040000
0.647500 0.370000 0.040000
0.710000 0.370000 0.040000
0.772500 0.370000 0.040000
0.835000 0.370000 0.040000
0.897500 0.370000 0.040000
0.960000 0.370000 0.040000
0.000000 0.432500 0.040000
0.022500 0.432500 0.040000
0.085000 0.432500 0.040000
0.147500 0.432500 0.040000
0.210000 0.432500 0.040000
0.272500 0.432500 0.040000
0.335000 0.432500 0.040000
0.397500 0.432500 0.040000
0.460000 0.432500 0.040000
0.522500 0.432500 0.040000
0.585000 0.432500 0.040000
0.647500 0.432500 0.040000
0.710000 0.432500 0.040000
0.772500 0.432500 0.040000
0.835000 0.432500 0.040000
0.897500 0.432500 0.040000
0.960000 0.432500 0.040000
0.000000 0.495000 0.040000
0.022500 0.495000 0.040000
0.085000 0.495000 0.040000
0.147500 0.495000 0.040000
0.210000 0.495000 0.040000
0.272500 0.495000 0.040000
0.335000 0.495000 0.040000
0.397500 0.495000 0.040000
0.460000 0.495000 0.040000
0.522500 0.495000 0.040000
0.585000 0.495000 0.040000
0.647500 0.495000 0.040000
0.710000 0.495000 0.040000
0.772500 0.495000 0.040000
0.835000 0.495000 0.040000
0.897500 0.495000 0.040000
0.960000 0.495000 0.040000
0.000000 0.557500 0.040000
0.022500 0.557500 0.040000
0.085000 0.557500 0.040000
0.147500 0.557500 0.040000
0.210000 0.557500 0.040000
0.272500 0.557500 0.040000
0.335000 0.557500 0.040000
0.397500 0.557500 0.040000
0.460000 0.557500 0.040000
0.522500 0.557500 0.040000
0.585000 0.557500 0.040000
0.647500 0.557500 0.040000
0.710000 0.557500 0.040000
0.772500 0.557500 0.040000
0.835000 0.557500 0.040000
0.897500 0.557500 0.040000
0.960000 0.557500 0.040000
0.000000 0.620000 0.040000
0.022500 0.620000 0.040000
0.085000 0.620000 0.040000
0.147500 0.620000 0.040000
0.210000 0.620000 0.040000
0.272500 0.620000 0.040000
0.335000 0.620000 0.040000
0.397500 0.620000 0.040000
0.460000 0.620000 0.040000
0.522500 0.620000 0.040000
0.585000 0.620000 0.040000
0.647500 0.620000 0.040000
0.710000 0.620000 0.040000
0.772500 0.620000 0.040000
0.835000 0.620000 0.040000
0.897500 0.620000 0.040000
0.960000 0.620000 0.040000
0.000000 0.682500 0.040000
0.022500 0.682500 0.040000
0.085000 0.682500 0.040000
0.147500 0.682500 0.040000
0.210000 0.682500 0.040000
0.272500 0.682500 0.040000
0.335000 0.682500 0.040000
0.397500 0.682500 0.040000
0.460000 0.682500 0.040000
0.522500 0.682500 0.040000
0.585000 0.682500 0.040000
0.647500 0.682500 0.040000
0.710000 0.682500 0.040000
0.772500 0.682500 0.040000
0.835000 0.682500 0.040000
0.897500 0.682500 0.040000
0.960000 0.682500 0.040000
0.000000 0.745000 0.040000
0.022500 0.745000 0.040000
0.085000 0.745000 0.040000
0.147500 0.745000 0.040000
0.210000 0.745000 0.040000
0.272500 0.745000 0.040000
0.335000 0.745000 0.040000
0.397500 0.745000 0.040000
0.460000 0.745000 0.040000
0.522500 0.745000 0.040000
0.585000 0.745000 0.040000
0.647500 0.745000 0.040000
0.710000 0.745000 0.040000
0.772500 0.745000 0.040000
0.835000 0.745000 0.040000
0.897500 0.745000 0.040000
0.960000 0.745000 0.040000
0.000000 0.807500 0.040000
0.022500 0.807500 0.040000
0.085000 0.807500 0.040000
0.147500 0.807500 0.040000
0.210000 0.807500 0.040000
0.272500 0.807500 0.040000
0.335000 0.807500 0.040000
0.397500 0.807500 0.040000
0.460000 0.807500 0.040000
0.522500 0.807500 0.040000
0.585000 0.807500 0.040000
0.647500 0.807500 0.040000
0.710000 0.807500 0.040000
0.772500 0.807500 0.040000
0.835000 0.807500 0.040000
0.897500 0.807500 0.040000
0.960000 0.807500 0.040000
0.000000 0.870000 0.040000
0.022500 0.870000 0.040000
0.085000 0.870000 0.040000
0.147500 0.870000 0.040000
0.210000 0.870000 0.040000
0.272500 0.870000 0.040000
0.335000 0.870000 0.040000
0.397500 0.870000 0.040000
0.460000 0.870000 0.040000
0.522500 0.870000 0.040000
0.585000 0.870000 0.040000
0.647500 0.870000 0.040000
0.710000 0.870000 0.040000
0.772500 0.870000 0.040000
0.835000 0.870000 0.040000
0.897500 0.870000 0.040000
0.960000 0.870000 0.040000
0.000000 0.932500 0.040000
0.022500 0.932500 0.040000
0.085000 0.932500 0.040000
0.147500 0.932500 0.040000
0.210000 0.932500 0.040000
0.272500 0.932500 0.040000
0.335000 0.932500 0.040000
0.397500 0.932500 0.040000
0.460000 0.932500 0.040000
0.522500 0.932500 0.040000
0.585000 0.932500 0.040000
0.647500 0.932500 0.040000
0.710000 0.932500 0.040000
0.772500 0.932500 0.040000
0.835000 0.932500 0.040000
0.897500 0.932500 0.040000
0.960000 0.932500 0.040000
0.000000 0.995000 0.040000
0.022500 0.995000 0.040000
0.085000 0.995000 0.040000
0.147500 0.995000 0.040000
0.210000 0.995000 0.040000
0.272500 0.995000 0.040000
0.335000 0.995000 0.040000
0.397500 0.995000 0.040000
0.460000 0.995000 0.040000
0.522500 0.995000 0.040000
0.585000 0.995000 0.040000
0.647500 0.995000 0.040000
0.710000 0.995000 0.040000
0.772500 0.995000 0.040000
0.835000 0.995000 0.040000
0.897500 0.995000 0.040000
0.960000 0.995000 0.040000
0.000000 0.000000 0.102500
0.022500 0.000000 0.102500
0.085000 0.000000 0.102500
0.147500 0.000000 0.102500
0.210000 0.000000 0.102500
0.272500 0.000000 0.102500
0.335000 0.000000 0.102500
0.397500 0.000000 0.102500
0.460000 0.000000 0.102500
0.522500 0.000000 0.102500
0.585000 0.000000 0.102500
0.647500 0.000000 0.102500
0.710000 0.000000 0.102500
0.772500 0.000000 0.102500
0.835000 0.000000 0.102500
0.897500 0.000000 0.102500
0.960000 0.000000 0.102500
0.000000 0.057500 0.102500
0.022500 0.057500 0.102500
0.085000 0.057500 0.102500
0.147500 0.057500 0.102500
0.210000 0.057500 0.102500
0.272500 0.057500 0.102500
0.335000 0.057500 0.102500
0.397500 0.057500 0.102500
0.460000 0.057500 0.102500
0.522500 0.057500 0.102500
0.585000 0.057500 0.102500
0.647500 0.057500 0.102500
0.710000 0.057500 0.102500
0.772500 0.057500 0.102500
0.835000 0.057500 0.102500
0.897500 0.057500 0.102500
0.960000 0.057500 0.102500
0.000000 0.120000 0.102500
0.022500 0.120000 0.102500
0.085000 0.120000 0.102500
0.147500 0.120000 0.102500
0.210000 0.120000 0.102500
0.272500 0.120000 0.102500
0.335000 0.120000 0.102500
0.397500 0.120000 0.102500
0.460000 0.120000 0.102500
0.522500 0.120000 0.102500
0.585000 0.120000 0.102500
0.647500 0.120000 0.102500
0.710000 0.120000 0.102500
0.772500 0.120000 0.102500
0.835000 0.120000 0.102500
0.897500 0.120000 0.102500
0.960000 0.120000 0.102500
0.000000 0.182500 0.102500
0.022500 0.182500 0.102500
0.085000 0.182500 0.102500
0.147500 0.182500 0.102500
0.210000 0.182500 0.102500
0.272500 0.182500 0.102500
0.335000 0.182500 0.102500
0.397500 0.182500 0.102500
0.460000 0.182500 0.102500
0.522500 0.182500 0.102500
0.585000 0.182500 0.102500
0.647500 0.182500 0.102500
0.710000 0.182500 0.102500
0.772500 0.182500 0.102500
0.835000 0.182500 0.102500
0.897500 0.182500 0.102500
0.960000 0.182500 0.102500
0.000000 0.245000 0.102500
0.022500 0.245000 0.102500
0.085000 0.245000 0.102500
0.147500 0.245000 0.102500
0.210000 0.245000 0.102500
0.272500 0.245000 0.102500
0.335000 0.245000 0.102500
0.397500 0.245000 0.102500
0.460000 0.245000 0.102500
0.522500 0.245000 0.102500
0.585000 0.245000 0.102500
0.647500 0.245000 0.102500
0.710000 0.245000 0.102500
0.772500 0.245000 0.102500
0.835000 0.245000 0.102500
0.897500 0.245000 0.102500
0.960000 0.245000 0.102500
0.000000 0.307500 0.102500
0.022500 0.307500 0.102500
0.085000 0.307500 0.102500
0.147500 0.307500 0.102500
0.210000 0.307500 0.102500
0.272500 0.307500 0.102500
0.335000 0.307500 0.102500
0.397500 0.307500 0.102500
0.460000 0.307500 0.102500
0.522500 0.307500 0.102500
0.585000 0.307500 0.102500
0.647500 0.307500 0.102500
0.710000 0.307500 0.102500
0.772500 0.307500 0.102500
0.835000 0.307500 0.102500
0.897500 0.307500 0.102500
0.960000 0.307500 0.102500
0.000000 0.370000 0.102500
0.022500 0.370000 0.102500
0.085000 0.370000 0.102500
0.147500 0.370000 0.102500
0.210000 0.370000 0.102500
0.272500 0.370000 0.102500
0.335000 0.370000 0.102500
0.397500 0.370000 0.102500
0.460000 0.370000 0.102500
0.522500 0.370000 0.102500
0.585000 0.370000 0.102500
0.647500 0.370000 0.102500
0.710000 0.370000 0.102500
0.772500 0.370000 0.102500
0.835000 0.370000 0.102500
0.897500 0.370000 0.102500
0.960000 0.370000 0.102500
0.000000 0.432500 0.102500
0.022500 0.432500 0.102500
0.085000 0.432500 0.102500
0.147500 0.432500 0.102500
0.210000 0.432500 0.102500
0.272500 0.432500 0.102500
0.335000 0.432500 0.102500
0.397500 0.432500 0.102500
0.460000 0.432500 0.102500
0.522500 0.432500 0.102500
0.585000 0.432500 0.102500
0.647500 0.432500 0.102500
0.710000 0.432500 0.102500
0.772500 0.432500 0.102500
0.835000 0.432500 0.102500
0.897500 0.432500 0.102500
0.960000 0.432500 0.102500
0.000000 0.495000 0.102500
0.022500 0.495000 0.102500
0.085000 0.495000 0.102500
0.147500 0.495000 0.102500
0.210000 0.495000 0.102500
0.272500 0.495000 0.102500
0.335000 0.495000 0.102500
0.397500 0.495000 0.102500
0.460000 0.495000 0.102500
0.522500 0.495000 0.102500
0.585000 0.495000 0.102500
0.647500 0.495000 0.102500
0.710000 0.495000 0.102500
0.772500 0.495000 0.102500
0.835000 0.495000 0.102500
0.897500 0.495000 0.102500
0.960000 0.495000 0.102500
0.000000 0.557500 0.102500
0.022500 0.557500 0.102500
0.085000 0.557500 0.102500
0.147500 0.557500 0.102500
0.210000 0.557500 0.102500
0.272500 0.557500 0.102500
0.335000 0.557500 0.102500
0.397500 0.557500 0.102500
0.460000 0.557500 0.102500
0.522500 0.557500 0.102500
0.585000 0.557500 0.102500
0.647500 0.557500 0.102500
0.710000 0.557500 0.102500
0.772500 0.557500 0.102500
0.835000 0.557500 0.102500
0.897500 0.557500 0.102500
0.960000 0.557500 0.102500
0.000000 0.620000 0.102500
0.022500 0.620000 0.102500
0.085000 0.620000 0.102500
0.147500 0.620000 0.102500
0.210000 0.620000 0.102500
0.272500 0.620000 0.102500
0.335000 0.620000 0.102500
0.397500 0.620000 0.102500
0.460000 0.620000 0.102500
0.522500 0.620000 0.102500
0.585000 0.620000 0.102500
0.647500 0.620000 0.102500
0.710000 0.620000 0.102500
0.772500 0.620000 0.102500
0.835000 0.620000 0.102500
0.897500 0.620000 0.102500
0.960000 0.620000 0.102500
0.000000 0.682500 0.102500
0.022500 0.682500 0.102500
0.085000 0.682500 0.102500
0.147500 0.682500 0.102500
0.210000 0.682500 0.102500
0.272500 0.682500 0.102500
0.335000 0.682500 0.102500
0.397500 0.682500 0.102500
0.460000 0.682500 0.102500
0.522500 0.682500 0.102500
0.585000 0.682500 0.102500
0.647500 0.682500 0.102500
0.710000 0.682500 0.102500
0.772500 0.682500 0.102500
0.835000 0.682500 0.102500
0.897500 0.682500 0.102500
0.960000 0.682500 0.102500
0.000000 0.745000 0.102500
0.022500 0.745000 0.102500
0.085000 0.745000 0.102500
0.147500 0.745000 0.102500
0.210000 0.745000 0.102500
0.272500 0.745000 0.102500
0.335000 0.745000 0.102500
0.397500 0.745000 0.102500
0.460000 0.745000 0.102500
0.522500 0.745000 0.102500
0.585000 0.745000 0.102500
0.647500 0.745000 0.102500
0.710000 0.745000 0.102500
0.772500 0.745000 0.102500
0.835000 0.745000 0.102500
0.897500 0.745000 0.102500
0.960000 0.745000 0.102500
0.000000 0.807500 0.102500
0.022500 0.807500 0.102500
0.085000 0.807500 0.102500
0.147500 0.807500 0.102500
0.210000 0.807500 0.102500
0.272500 0.807500 0.102500
0.335000 0.807500 0.102500
0.397500 0.807500 0.102500
0.460000 0.807500 0.102500
0.522500 0.807500 0.102500
0.585000 0.807500 0.102500
0.647500 0.807500 0.102500
0.710000 0.807500 0.102500
0.772500 0.807500 0.102500
0.835000 0.807500 0.102500
0.897500 0.807500 0.102500
0.960000 0.807500 0.102500
0.000000 0.870000 0.102500
0.022500 0.870000 0.102500
0.085000 0.870000 0.102500
0.147500 0.870000 0.102500
0.210000 0.870000 0.102500
0.272500 0.870000 0.102500
0.335000 0.870000 0.102500
0.397500 0.870000 0.102500
0.460000 0.870000 0.102500
0.522500 0.870000 0.102500
0.585000 0.870000 0.102500
0.647500 0.870000 0.102500
0.710000 0.870000 0.102500
0.772500 0.870000 0.102500
0.835000 0.870000 0.102500
0.897500 0.870000 0.102500
0.960000 0.870000 0.102500
0.000000 0.932500 0.102500
0.022500 0.932500 0.102500
0.085000 0.932500 0.102500
0.147500 0.932500 0.102500
0.210000 0.932500 0.102500
0.272500 0.932500 0.102500
0.335000 0.932500 0.102500
0.397500 0.932500 0.102500
0.460000 0.932500 0.102500
0.522500 0.932500 0.102500
0.585000 0.932500 0.102500
0.647500 0.932500 0.102500
0.710000 0.932500 0.102500
0.772500 0.932500 0.102500
0.835000 0.932500 0.102500
0.897500 0.932500 0.102500
0.960000 0.932500 0.102500
0.000000 0.995000 0.102500
0.022500 0.995000 0.102500
0.085000 0.995000 0.102500
0.147500 0.995000 0.102500
0.210000 0.995000 0.102500
0.272500 0.995000 0.102500
0.335000 0.995000 0.102500
0.397500 0.995000 0.102500
0.460000 0.995000 0.102500
0.522500 0.995000 0.102500
0.585000 0.995000 0.102500
0.647500 0.995000 0.102500
0.710000 0.995000 0.102500
0.772500 0.995000 0.102500
0.835000 0.995000 0.102500
0.897500 0.995000 0.102500
0.960000 0.995000 0.102500
0.000000 0.000000 0.165000
0.022500 0.000000 0.165000
0.085000 0.000000 0.165000
0.147500 0.000000 0.165000
0.210000 0.000000 0.165000
0.272500 0.000000 0.165000
0.335000 0.000000 0.165000
0.397500 0.000000 0.165000
0.460000 0.000000 0.165000
0.522500 0.000000 0.165000
0.585000 0.000000 0.165000
0.647500 0.000000 0.165000
0.710000 0.000000 0.165000
0.772500 0.000000 0.165000
0.835000 0.000000 0.165000
0.897500 0.000000 0.165000
0.960000 0.000000 0.165000
0.000000 0.057500 0.165000
0.022500 0.057500 0.165000
0.085000 0.057500 0.165000
0.147500 0.057500 0.165000
0.210000 0.057500 0.165000
0.272500 0.057500 0.165000
0.335000 0.057500 0.165000
0.397500 0.057500 0.165000
0.460000 0.057500 0.165000
0.522500 0.057500 0.165000
0.585000 0.057500 0.165000
0.647500 0.057500 0.165000
0.710000 0.057500 0.165000
0.772500 0.057500 0.165000
0.835000 0.057500 0.165000
0.897500 0.057500 0.165000
0.960000 0.057500 0.165000
0.000000 0.120000 0.165000
0.022500 0.120000 0.165000
0.085000 0.120000 0.165000
0.147500 0.120000 0.165000
0.210000 0.120000 0.165000
0.272500 0.120000 0.165000
0.335000 0.120000 0.165000
0.397500 0.120000 0.165000
0.460000 0.120000 0.165000
0.522500 0.120000 0.165000
0.585000 0.120000 0.165000
0.647500 0.120000 0.165000
0.710000 0.120000 0.165000
0.772500 0.120000 0.165000
0.835000 0.120000 0.165000
0.897500 0.120000 0.165000
0.960000 0.120000 0.165000
0.000000 0.182500 0.165000
0.022500 0.182500 0.165000
0.085000 0.182500 0.165000
0.147500 0.182500 0.165000
0.210000 0.182500 0.165000
0.272500 0.182500 0.165000
0.335000 0.182500 0.165000
0.397500 0.182500 0.165000
0.460000 0.182500 0.165000
0.522500 0.182500 0.165000
0.585000 0.182500 0.165000
0.647500 0.182500 0.165000
0.710000 0.182500 0.165000
0.772500 0.182500 0.165000
0.835000 0.182500 0.165000
0.897500 0.182500 0.165000
0.960000 0.182500 0.165000
0.000000 0.245000 0.165000
0.022500 0.245000 0.165000
0.085000 0.245000 0.165000
0.147500 0.245000 0.165000
0.210000 0.245000 0.165000
0.272500 0.245000 0.165000
0.335000 0.245000 0.165000
0.397500 0.245000 0.165000
0.460000 0.245000 0.165000
0.522500 0.245000 0.165000
0.585000 0.245000 0.165000
0.647500 0.245000 0.165000
0.710000 0.245000 0.165000
0.772500 0.245000 0.165000
0.835000 0.245000 0.165000
0.897500 0.245000 0.165000
0.960000 0.245000 0.165000
0.000000 0.307500 0.165000
0.022500 0.307500 0.165000
0.085000 0.307500 0.165000
0.147500 0.307500 0.165000
0.210000 0.307500 0.165000
0.272500 0.307500 0.165000
0.335000 0.307500 0.165000
0.397500 0.307500 0.165000
0.460000 0.307500 0.165000
0.522500 0.307500 0.165000
0.585000 0.307500 0.165000
0.647500 0.307500 0.165000
0.710000 0.307500 0.165000
0.772500 0.307500 0.165000
0.835000 0.307500 0.165000
0.897500 0.307500 0.165000
0.960000 0.307500 0.165000
0.000000 0.370000 0.165000
0.022500 0.370000 0.165000
0.085000 0.370000 0.165000
0.147500 0.370000 0.165000
0.210000 0.370000 0.165000
0.272500 0.370000 0.165000
0.335000 0.370000 0.165000
0.397500 0.370000 0.165000
0.460000 0.370000 0.165000
0.522500 0.370000 0.165000
0.585000 0.370000 0.165000
0.647500 0.370000 0.165000
0.710000 0.370000 0.165000
0.772500 0.370000 0.165000
0.835000 0.370000 0.165000
0.897500 0.370000 0.165000
0.960000 0.370000 0.165000
0.000000 0.432500 0.165000
0.022500 0.432500 0.165000
0.085000 0.432500 0.165000
0.147500 0.432500 0.165000
0.210000 0.432500 0.165000
0.272500 0.432500 0.165000
0.335000 0.432500 0.165000
0.397500 0.432500 0.165000
0.460000 0.432500 0.165000
0.522500 0.432500 0.165000
0.585000 0.432500 0.165000
0.647500 0.432500 0.165000
0.710000 0.432500 0.165000
0.772500 0.432500 0.165000
0.835000 0.432500 0.165000
0.897500 0.432500 0.165000
0.960000 0.432500 0.165000
0.000000 0.495000 0.165000
0.022500 0.495000 0.165000
0.085000 0.495000 0.165000
0.147500 0.495000 0.165000
0.210000 0.495000 0.165000
0.272500 0.495000 0.165000
0.335000 0.495000 0.165000
0.397500 0.495000 0.165000
0.460000 0.495000 0.165000
0.522500 0.495000 0.165000
0.585000 0.495000 0.165000
0.647500 0.495000 0.165000
0.710000 0.495000 0.165000
0.772500 0.495000 0.165000
0.835000 0.495000 0.165000
0.897500 0.495000 0.165000
0.960000 0.495000 0.165000
0.000000 0.557500 0.165000
0.022500 0.557500 0.165000
0.085000 0.557500 0.165000
0.147500 0.557500 0.165000
0.210000 0.557500 0.165000
0.272500 0.557500 0.165000
0.335000 0.557500 0.165000
0.397500 0.557500 0.165000
0.460000 0.557500 0.165000
0.522500 0.557500 0.165000
0.585000 0.557500 0.165000
0.647500 0.557500 0.165000
0.710000 0.557500 0.165000
0.772500 0.557500 0.165000
0.835000 0.557500 0.165000
0.897500 0.557500 0.165000
0.960000 0.557500 0.165000
0.000000 0.620000 0.165000
0.022500 0.620000 0.165000
0.085000 0.620000 0.165000
0.147500 0.620000 0.165000
0.210000 0.620000 0.165000
0.272500 0.620000 0.165000
0.335000 0.620000 0.165000
0.397500 0.620000 0.165000
0.460000 0.620000 0.165000
0.522500 0.620000 0.165000
0.585000 0.620000 0.165000
0.647500 0.620000 0.165000
0.710000 0.620000 0.165000
0.772500 0.620000 0.165000
0.835000 0.620000 0.165000
0.897500 0.620000 0.165000
0.960000 0.620000 0.165000
0.000000 0.682500 0.165000
0.022500 0.682500 0.165000
0.085000 0.682500 0.165000
0.147500 0.682500 0.165000
0.210000 0.682500 0.165000
0.272500 0.682500 0.165000
0.335000 0.682500 0.165000
0.397500 0.682500 0.165000
0.460000 0.682500 0.165000
0.522500 0.682500 0.165000
0.585000 0.682500 0.165000
0.647500 0.682500 0.165000
0.710000 0.682500 0.165000
0.772500 0.682500 0.165000
0.835000 0.682500 0.165000
0.897500 0.682500 0.165000
0.960000 0.682500 0.165000
0.000000 0.745000 0.165000
0.022500 0.745000 0.165000
0.085000 0.745000 0.165000
0.147500 0.745000 0.165000
0.210000 0.745000 0.165000
0.272500 0.745000 0.165000
0.335000 0.745000 0.165000
0.397500 0.745000 0.165000
0.460000 0.745000 0.165000
0.522500 0.745000 0.165000
0.585000 0.745000 0.165000
0.647500 0.745000 0.165000
0.710000 0.745000 0.165000
0.772500 0.745000 0.165000
0.835000 0.745000 0.165000
0.897500 0.745000 0.165000
0.960000 0.745000 0.165000
0.000000 0.807500 0.165000
0.022500 0.807500 0.165000
0.085000 0.807500 0.165000
0.147500 0.807500 0.165000
0.210000 0.807500 0.165000
0.272500 0.807500 0.165000
0.335000 0.807500 0.165000
0.397500 0.807500 0.165000
0.460000 0.807500 0.165000
0.522500 0.807500 0.165000
0.585000 0.807500 0.165000
0.647500 0.807500 0.165000
0.710000 0.807500 0.165000
0.772500 0.807500 0.165000
0.835000 0.807500 0.165000
0.897500 0.807500 0.165000
0.960000 0.807500 0.165000
0.000000 0.870000 0.165000
0.022500 0.870000 0.165000
0.085000 0.870000 0.165000
0.147500 0.870000 0.165000
0.210000 0.870000 0.165000
0.272500 0.870000 0.165000
0.335000 0.870000 0.165000
0.397500 0.870000 0.165000
0.460000 0.870000 0.165000
0.522500 0.870000 0.165000
0.585000 0.870000 0.165000
0.647500 0.870000 0.165000
0.710000 0.870000 0.165000
0.772500 0.870000 0.165000
0.835000 0.870000 0.165000
0.897500 0.870000 0.165000
0.960000 0.870000 0.165000
0.000000 0.932500 0.165000
0.022500 0.932500 0.165000
0.085000 0.932500 0.165000
0.147500 0.932500 0.165000
0.210000 0.932500 0.165000
0.272500 0.932500 0.165000
0.335000 0.932500 0.165000
0.397500 0.932500 0.165000
0.460000 0.932500 0.165000
0.522500 0.932500 0.165000
0.585000 0.932500 0.165000
0.647500 0.932500 0.165000
0.710000 0.932500 0.165000
0.772500 0.932500 0.165000
0.835000 0.932500 0.165000
0.897500 0.932500 0.165000
0.960000 0.932500 0.165000
0.000000 0.995000 0.165000
0.022500 0.995000 0.165000
0.085000 0.995000 0.165000
0.147500 0.995000 0.165000
0.210000 0.995000 0.165000
0.272500 0.995000 0.165000
0.335000 0.995000 0.165000
0.397500 0.995000 0.165000
0.460000 0.995000 0.165000
0.522500 0.995000 0.165000
0.585000 0.995000 0.165000
0.647500 0.995000 0.165000
0.710000 0.995000 0.165000
0.772500 0.995000 0.165000
0.835000 0.995000 0.165000
0.897500 0.995000 0.165000
0.960000 0.995000 0.165000
0.000000 0.000000 0.227500
0.022500 0.000000 0.227500
0.085000 0.000000 0.227500
0.147500 0.000000 0.227500
0.210000 0.000000 0.227500
0.272500 0.000000 0.227500
0.335000 0.000000 0.227500
0.397500 0.000000 0.227500
0.460000 0.000000 0.227500
0.522500 0.000000 0.227500
0.585000 0.000000 0.227500
0.647500 0.000000 0.227500
0.710000 0.000000 0.227500
0.772500 0.000000 0.227500
0.835000 0.000000 0.227500
0.897500 0.000000 0.227500
0.960000 0.000000 0.227500
0.000000 0.057500 0.227500
0.022500 0.057500 0.227500
