lut-visualizer/public/data/sample_luts/cross_process.cube
LUT_3D_SIZE 5
DOMAIN_MIN 0.0 0.0 0.0
DOMAIN_MAX 1.0 1.0 1.0
0.000000 0.028625 0.000000
0.128078 0.028625 0.000000
0.500000 0.028625 0.000000
0.871922 0.028625 0.000000
1.000000 0.028625 0.000000
0.000000 0.286609 0.000000
0.128078 0.286609 0.000000
0.500000 0.286609 0.000000
0.871922 0.286609 0.000000
1.000000 0.286609 0.000000
0.000000 0.624000 0.000000
0.128078 0.624000 0.000000
0.500000 0.624000 0.000000
0.871922 0.624000 0.000000
1.000000 0.624000 0.000000
0.000000 0.916016 0.000000
0.128078 0.916016 0.000000
0.500000 0.916016 0.000000
0.871922 0.916016 0.000000
1.000000 0.916016 0.000000
0.000000 1.000000 0.000000
0.128078 1.000000 0.000000
0.500000 1.000000 0.000000
0.871922 1.000000 0.000000
1.000000 1.000000 0.000000
0.000000 0.028625 0.146847
0.128078 0.028625 0.146847
0.500000 0.028625 0.146847
0.871922 0.028625 0.146847
1.000000 0.028625 0.146847
0.000000 0.286609 0.146847
0.128078 0.286609 0.146847
0.500000 0.286609 0.146847
0.871922 0.286609 0.146847
1.000000 0.286609 0.146847
0.000000 0.624000 0.146847
0.128078 0.624000 0.146847
0.500000 0.624000 0.146847
0.871922 0.624000 0.146847
1.000000 0.624000 0.146847
0.000000 0.916016 0.146847
0.128078 0.916016 0.146847
0.500000 0.916016 0.146847
0.871922 0.916016 0.146847
1.000000 0.916016 0.146847
0.000000 1.000000 0.146847
0.128078 1.000000 0.146847
0.500000 1.000000 0.146847
0.871922 1.000000 0.146847
1.000000 1.000000 0.146847
0.000000 0.028625 0.385600
0.128078 0.028625 0.385600
0.500000 0.028625 0.385600
0.871922 0.028625 0.385600
1.000000 0.028625 0.385600
0.000000 0.286609 0.385600
0.128078 0.286609 0.385600
0.500000 0.286609 0.385600
0.871922 0.286609 0.385600
1.000000 0.286609 0.385600
0.000000 0.624000 0.385600
0.128078 0.624000 0.385600
0.500000 0.624000 0.385600
0.871922 0.624000 0.385600
1.000000 0.624000 0.385600
0.000000 0.916016 0.385600
0.128078 0.916016 0.385600
0.500000 0.916016 0.385600
0.871922 0.916016 0.385600
1.000000 0.916016 0.385600
0.000000 1.000000 0.385600
0.128078 1.000000 0.385600
0.500000 1.000000 0.385600
0.871922 1.000000 0.385600
1.000000 1.000000 0.385600
0.000000 0.028625 0.642578
0.128078 0.028625 0.642578
0.500000 0.028625 0.642578
0.871922 0.028625 0.642578
1.000000 0.028625 0.642578
0.000000 0.286609 0.642578
0.128078 0.286609 0.642578
0.500000 0.286609 0.642578
0.871922 0.286609 0.642578
1.000000 0.286609 0.642578
0.000000 0.624000 0.642578
0.128078 0.624000 0.642578
0.500000 0.624000 0.642578
0.871922 0.624000 0.642578
1.000000 0.624000 0.642578
0.000000 0.916016 0.642578
0.128078 0.916016 0.642578
0.500000 0.916016 0.642578
0.871922 0.916016 0.642578
1.000000 0.916016 0.642578
0.000000 1.000000 0.642578
0.128078 1.000000 0.642578
0.500000 1.000000 0.642578
0.871922 1.000000 0.642578
1.000000 1.000000 0.642578
0.000000 0.028625 0.876775
0.128078 0.028625 0.876775
0.500000 0.028625 0.876775
0.871922 0.028625 0.876775
1.000000 0.028625 0.876775
0.000000 0.286609 0.876775
0.128078 0.286609 0.876775
0.500000 0.286609 0.876775
0.871922 0.286609 0.876775
1.000000 0.286609 0.876775
0.000000 0.624000 0.876775
0.128078 0.624000 0.876775
0.500000 0.624000 0.876775
0.871922 0.624000 0.876775
1.000000 0.624000 0.876775
0.000000 0.916016 0.876775
0.128078 0.916016 0.876775
0.500000 0.916016 0.876775
0.871922 0.916016 0.876775
1.000000 0.916016 0.876775
0.000000 1.000000 0.876775
0.128078 1.000000 0.876775
0.500000 1.000000 0.876775
0.871922 1.000000 0.876775
1.000000 1.000000 0.876775
