lut-visualizer/public/data/sample_luts/cross_process.cube
LUT_3D_SIZE 9
DOMAIN_MIN 0.0 0.0 0.0
DOMAIN_MAX 1.0 1.0 1.0
0.000000 0.028625 0.000000
0.006482 0.028625 0.000000
0.128078 0.028625 0.000000
0.301166 0.028625 0.000000
0.500000 0.028625 0.000000
0.698834 0.028625 0.000000
0.871922 0.028625 0.000000
0.993518 0.028625 0.000000
1.000000 0.028625 0.000000
0.000000 0.139893 0.000000
0.006482 0.139893 0.000000
0.128078 0.139893 0.000000
0.301166 0.139893 0.000000
0.500000 0.139893 0.000000
0.698834 0.139893 0.000000
0.871922 0.139893 0.000000
0.993518 0.139893 0.000000
1.000000 0.139893 0.000000
0.000000 0.286609 0.000000
0.006482 0.286609 0.000000
0.128078 0.286609 0.000000
0.301166 0.286609 0.000000
0.500000 0.286609 0.000000
0.698834 0.286609 0.000000
0.871922 0.286609 0.000000
0.993518 0.286609 0.000000
1.000000 0.286609 0.000000
0.000000 0.453178 0.000000
0.006482 0.453178 0.000000
0.128078 0.453178 0.000000
0.301166 0.453178 0.000000
0.500000 0.453178 0.000000
0.698834 0.453178 0.000000
0.871922 0.453178 0.000000
0.993518 0.453178 0.000000
1.000000 0.453178 0.000000
0.000000 0.624000 0.000000
0.006482 0.624000 0.000000
0.128078 0.624000 0.000000
0.301166 0.624000 0.000000
0.500000 0.624000 0.000000
0.698834 0.624000 0.000000
0.871922 0.624000 0.000000
0.993518 0.624000 0.000000
1.000000 0.624000 0.000000
0.000000 0.783479 0.000000
0.006482 0.783479 0.000000
0.128078 0.783479 0.000000
0.301166 0.783479 0.000000
0.500000 0.783479 0.000000
0.698834 0.783479 0.000000
0.871922 0.783479 0.000000
0.993518 0.783479 0.000000
1.000000 0.783479 0.000000
0.000000 0.916016 0.000000
0.006482 0.916016 0.000000
0.128078 0.916016 0.000000
0.301166 0.916016 0.000000
0.500000 0.916016 0.000000
0.698834 0.916016 0.000000
0.871922 0.916016 0.000000
0.993518 0.916016 0.000000
1.000000 0.916016 0.000000
0.000000 1.000000 0.000000
0.006482 1.000000 0.000000
0.128078 1.000000 0.000000
0.301166 1.000000 0.000000
0.500000 1.000000 0.000000
0.698834 1.000000 0.000000
0.871922 1.000000 0.000000
0.993518 1.000000 0.000000
1.000000 1.000000 0.000000
0.000000 1.000000 0.000000
0.006482 1.000000 0.000000
0.128078 1.000000 0.000000
0.301166 1.000000 0.000000
0.500000 1.000000 0.000000
0.698834 1.000000 0.000000
0.871922 1.000000 0.000000
0.993518 1.000000 0.000000
1.000000 1.000000 0.000000
0.000000 0.028625 0.047119
0.006482 0.028625 0.047119
0.128078 0.028625 0.047119
0.301166 0.028625 0.047119
0.500000 0.028625 0.047119
0.698834 0.028625 0.047119
0.871922 0.028625 0.047119
0.993518 0.028625 0.047119
1.000000 0.028625 0.047119
0.000000 0.139893 0.047119
0.006482 0.139893 0.047119
0.128078 0.139893 0.047119
0.301166 0.139893 0.047119
0.500000 0.139893 0.047119
0.698834 0.139893 0.047119
0.871922 0.139893 0.047119
0.993518 0.139893 0.047119
1.000000 0.139893 0.047119
0.000000 0.286609 0.047119
0.006482 0.286609 0.047119
0.128078 0.286609 0.047119
0.301166 0.286609 0.047119
0.500000 0.286609 0.047119
0.698834 0.286609 0.047119
0.871922 0.286609 0.047119
0.993518 0.286609 0.047119
1.000000 0.286609 0.047119
0.000000 0.453178 0.047119
0.006482 0.453178 0.047119
0.128078 0.453178 0.047119
0.301166 0.453178 0.047119
0.500000 0.453178 0.047119
0.698834 0.453178 0.047119
0.871922 0.453178 0.047119
0.993518 0.453178 0.047119
1.000000 0.453178 0.047119
0.000000 0.624000 0.047119
0.006482 0.624000 0.047119
0.128078 0.624000 0.047119
0.301166 0.624000 0.047119
0.500000 0.624000 0.047119
0.698834 0.624000 0.047119
0.871922 0.624000 0.047119
0.993518 0.624000 0.047119
1.000000 0.624000 0.047119
0.000000 0.783479 0.047119
0.006482 0.783479 0.047119
0.128078 0.783479 0.047119
0.301166 0.783479 0.047119
0.500000 0.783479 0.047119
0.698834 0.783479 0.047119
0.871922 0.783479 0.047119
0.993518 0.783479 0.047119
1.000000 0.783479 0.047119
0.000000 0.916016 0.047119
0.006482 0.916016 0.047119
0.128078 0.916016 0.047119
0.301166 0.916016 0.047119
0.500000 0.916016 0.047119
0.698834 0.916016 0.047119
0.871922 0.916016 0.047119
0.993518 0.916016 0.047119
1.000000 0.916016 0.047119
0.000000 1.000000 0.047119
0.006482 1.000000 0.047119
0.128078 1.000000 0.047119
0.301166 1.000000 0.047119
0.500000 1.000000 0.047119
0.698834 1.000000 0.047119
0.871922 1.000000 0.047119
0.993518 1.000000 0.047119
1.000000 1.000000 0.047119
0.000000 1.000000 0.047119
0.006482 1.000000 0.047119
0.128078 1.000000 0.047119
0.301166 1.000000 0.047119
0.500000 1.000000 0.047119
0.698834 1.000000 0.047119
0.871922 1.000000 0.047119
0.993518 1.000000 0.047119
1.000000 1.000000 0.047119
0.000000 0.028625 0.146847
0.006482 0.028625 0.146847
0.128078 0.028625 0.146847
0.301166 0.028625 0.146847
0.500000 0.028625 0.146847
0.698834 0.028625 0.146847
0.871922 0.028625 0.146847
0.993518 0.028625 0.146847
1.000000 0.028625 0.146847
0.000000 0.139893 0.146847
0.006482 0.139893 0.146847
0.128078 0.139893 0.146847
0.301166 0.139893 0.146847
0.500000 0.139893 0.146847
0.698834 0.139893 0.146847
0.871922 0.139893 0.146847
0.993518 0.139893 0.146847
1.000000 0.139893 0.146847
0.000000 0.286609 0.146847
0.006482 0.286609 0.146847
0.128078 0.286609 0.146847
0.301166 0.286609 0.146847
0.500000 0.286609 0.146847
0.698834 0.286609 0.146847
0.871922 0.286609 0.146847
0.993518 0.286609 0.146847
1.000000 0.286609 0.146847
0.000000 0.453178 0.146847
0.006482 0.453178 0.146847
0.128078 0.453178 0.146847
0.301166 0.453178 0.146847
0.500000 0.453178 0.146847
0.698834 0.453178 0.146847
0.871922 0.453178 0.146847
0.993518 0.453178 0.146847
1.000000 0.453178 0.146847
0.000000 0.624000 0.146847
0.006482 0.624000 0.146847
0.128078 0.624000 0.146847
0.301166 0.624000 0.146847
0.500000 0.624000 0.146847
0.698834 0.624000 0.146847
0.871922 0.624000 0.146847
0.993518 0.624000 0.146847
1.000000 0.624000 0.146847
0.000000 0.783479 0.146847
0.006482 0.783479 0.146847
0.128078 0.783479 0.146847
0.301166 0.783479 0.146847
0.500000 0.783479 0.146847
0.698834 0.783479 0.146847
0.871922 0.783479 0.146847
0.993518 0.783479 0.146847
1.000000 0.783479 0.146847
0.000000 0.916016 0.146847
0.006482 0.916016 0.146847
0.128078 0.916016 0.146847
0.301166 0.916016 0.146847
0.500000 0.916016 0.146847
0.698834 0.916016 0.146847
0.871922 0.916016 0.146847
0.993518 0.916016 0.146847
1.000000 0.916016 0.146847
0.000000 1.000000 0.146847
0.006482 1.000000 0.146847
0.128078 1.000000 0.146847
0.301166 1.000000 0.146847
0.500000 1.000000 0.146847
0.698834 1.000000 0.146847
0.871922 1.000000 0.146847
0.993518 1.000000 0.146847
1.000000 1.000000 0.146847
0.000000 1.000000 0.146847
0.006482 1.000000 0.146847
0.128078 1.000000 0.146847
0.301166 1.000000 0.146847
0.500000 1.000000 0.146847
0.698834 1.000000 0.146847
0.871922 1.000000 0.146847
0.993518 1.000000 0.146847
1.000000 1.000000 0.146847
0.000000 0.028625 0.261382
0.006482 0.028625 0.261382
0.128078 0.028625 0.261382
0.301166 0.028625 0.261382
0.500000 0.028625 0.261382
0.698834 0.028625 0.261382
0.871922 0.028625 0.261382
0.993518 0.028625 0.261382
1.000000 0.028625 0.261382
0.000000 0.139893 0.261382
0.006482 0.139893 0.261382
0.128078 0.139893 0.261382
0.301166 0.139893 0.261382
0.500000 0.139893 0.261382
0.698834 0.139893 0.261382
0.871922 0.139893 0.261382
0.993518 0.139893 0.261382
1.000000 0.139893 0.261382
0.000000 0.286609 0.261382
0.006482 0.286609 0.261382
0.128078 0.286609 0.261382
0.301166 0.286609 0.261382
0.500000 0.286609 0.261382
0.698834 0.286609 0.261382
0.871922 0.286609 0.261382
0.993518 0.286609 0.261382
1.000000 0.286609 0.261382
0.000000 0.453178 0.261382
0.006482 0.453178 0.261382
0.128078 0.453178 0.261382
0.301166 0.453178 0.261382
0.500000 0.453178 0.261382
0.698834 0.453178 0.261382
0.871922 0.453178 0.261382
0.993518 0.453178 0.261382
1.000000 0.453178 0.261382
0.000000 0.624000 0.261382
0.006482 0.624000 0.261382
0.128078 0.624000 0.261382
0.301166 0.624000 0.261382
0.500000 0.624000 0.261382
0.698834 0.624000 0.261382
0.871922 0.624000 0.261382
0.993518 0.624000 0.261382
1.000000 0.624000 0.261382
0.000000 0.783479 0.261382
0.006482 0.783479 0.261382
0.128078 0.783479 0.261382
0.301166 0.783479 0.261382
0.500000 0.783479 0.261382
0.698834 0.783479 0.261382
0.871922 0.783479 0.261382
0.993518 0.783479 0.261382
1.000000 0.783479 0.261382
0.000000 0.916016 0.261382
0.006482 0.916016 0.261382
0.128078 0.916016 0.261382
0.301166 0.916016 0.261382
0.500000 0.916016 0.261382
0.698834 0.916016 0.261382
0.871922 0.916016 0.261382
0.993518 0.916016 0.261382
1.000000 0.916016 0.261382
0.000000 1.000000 0.261382
0.006482 1.000000 0.261382
0.128078 1.000000 0.261382
0.301166 1.000000 0.261382
0.500000 1.000000 0.261382
0.698834 1.000000 0.261382
0.871922 1.000000 0.261382
0.993518 1.000000 0.261382
1.000000 1.000000 0.261382
0.000000 1.000000 0.261382
0.006482 1.000000 0.261382
0.128078 1.000000 0.261382
0.301166 1.000000 0.261382
0.500000 1.000000 0.261382
0.698834 1.000000 0.261382
0.871922 1.000000 0.261382
0.993518 1.000000 0.261382
1.000000 1.000000 0.261382
0.000000 0.028625 0.385600
0.006482 0.028625 0.385600
0.128078 0.028625 0.385600
0.301166 0.028625 0.385600
0.500000 0.028625 0.385600
0.698834 0.028625 0.385600
0.871922 0.028625 0.385600
0.993518 0.028625 0.385600
1.000000 0.028625 0.385600
0.000000 0.139893 0.385600
0.006482 0.139893 0.385600
0.128078 0.139893 0.385600
0.301166 0.139893 0.385600
0.500000 0.139893 0.385600
0.698834 0.139893 0.385600
0.871922 0.139893 0.385600
0.993518 0.139893 0.385600
1.000000 0.139893 0.385600
0.000000 0.286609 0.385600
0.006482 0.286609 0.385600
0.128078 0.286609 0.385600
0.301166 0.286609 0.385600
0.500000 0.286609 0.385600
0.698834 0.286609 0.385600
0.871922 0.286609 0.385600
0.993518 0.286609 0.385600
1.000000 0.286609 0.385600
0.000000 0.453178 0.385600
0.006482 0.453178 0.385600
0.128078 0.453178 0.385600
0.301166 0.453178 0.385600
0.500000 0.453178 0.385600
0.698834 0.453178 0.385600
0.871922 0.453178 0.385600
0.993518 0.453178 0.385600
1.000000 0.453178 0.385600
0.000000 0.624000 0.385600
0.006482 0.624000 0.385600
0.128078 0.624000 0.385600
0.301166 0.624000 0.385600
0.500000 0.624000 0.385600
0.698834 0.624000 0.385600
0.871922 0.624000 0.385600
0.993518 0.624000 0.385600
1.000000 0.624000 0.385600
0.000000 0.783479 0.385600
0.006482 0.783479 0.385600
0.128078 0.783479 0.385600
0.301166 0.783479 0.385600
0.500000 0.783479 0.385600
0.698834 0.783479 0.385600
0.871922 0.783479 0.385600
0.993518 0.783479 0.385600
1.000000 0.783479 0.385600
0.000000 0.916016 0.385600
0.006482 0.916016 0.385600
0.128078 0.916016 0.385600
0.301166 0.916016 0.385600
0.500000 0.916016 0.385600
0.698834 0.916016 0.385600
0.871922 0.916016 0.385600
0.993518 0.916016 0.385600
1.000000 0.916016 0.385600
0.000000 1.000000 0.385600
0.006482 1.000000 0.385600
0.128078 1.000000 0.385600
0.301166 1.000000 0.385600
0.500000 1.000000 0.385600
0.698834 1.000000 0.385600
0.871922 1.000000 0.385600
0.993518 1.000000 0.385600
1.000000 1.000000 0.385600
0.000000 1.000000 0.385600
0.006482 1.000000 0.385600
0.128078 1.000000 0.385600
0.301166 1.000000 0.385600
0.500000 1.000000 0.385600
0.698834 1.000000 0.385600
0.871922 1.000000 0.385600
0.993518 1.000000 0.385600
1.000000 1.000000 0.385600
0.000000 0.028625 0.514374
0.006482 0.028625 0.514374
0.128078 0.028625 0.514374
0.301166 0.028625 0.514374
0.500000 0.028625 0.514374
0.698834 0.028625 0.514374
0.871922 0.028625 0.514374
0.993518 0.028625 0.514374
1.000000 0.028625 0.514374
0.000000 0.139893 0.514374
0.006482 0.139893 0.514374
0.128078 0.139893 0.514374
0.301166 0.139893 0.514374
0.500000 0.139893 0.514374
0.698834 0.139893 0.514374
0.871922 0.139893 0.514374
0.993518 0.139893 0.514374
1.000000 0.139893 0.514374
0.000000 0.286609 0.514374
0.006482 0.286609 0.514374
0.128078 0.286609 0.514374
0.301166 0.286609 0.514374
0.500000 0.286609 0.514374
0.698834 0.286609 0.514374
0.871922 0.286609 0.514374
0.993518 0.286609 0.514374
1.000000 0.286609 0.514374
0.000000 0.453178 0.514374
0.006482 0.453178 0.514374
0.128078 0.453178 0.514374
0.301166 0.453178 0.514374
0.500000 0.453178 0.514374
0.698834 0.453178 0.514374
0.871922 0.453178 0.514374
0.993518 0.453178 0.514374
1.000000 0.453178 0.514374
0.000000 0.624000 0.514374
0.006482 0.624000 0.514374
0.128078 0.624000 0.514374
0.301166 0.624000 0.514374
0.500000 0.624000 0.514374
0.698834 0.624000 0.514374
0.871922 0.624000 0.514374
0.993518 0.624000 0.514374
1.000000 0.624000 0.514374
0.000000 0.783479 0.514374
0.006482 0.783479 0.514374
0.128078 0.783479 0.514374
0.301166 0.783479 0.514374
0.500000 0.783479 0.514374
0.698834 0.783479 0.514374
0.871922 0.783479 0.514374
0.993518 0.783479 0.514374
1.000000 0.783479 0.514374
0.000000 0.916016 0.514374
0.006482 0.916016 0.514374
0.128078 0.916016 0.514374
0.301166 0.916016 0.514374
0.500000 0.916016 0.514374
0.698834 0.916016 0.514374
0.871922 0.916016 0.514374
0.993518 0.916016 0.514374
1.000000 0.916016 0.514374
0.000000 1.000000 0.514374
0.006482 1.000000 0.514374
0.128078 1.000000 0.514374
0.301166 1.000000 0.514374
0.500000 1.000000 0.514374
0.698834 1.000000 0.514374
0.871922 1.000000 0.514374
0.993518 1.000000 0.514374
1.000000 1.000000 0.514374
0.000000 1.000000 0.514374
0.006482 1.000000 0.514374
0.128078 1.000000 0.514374
0.301166 1.000000 0.514374
0.500000 1.000000 0.514374
0.698834 1.000000 0.514374
0.871922 1.000000 0.514374
0.993518 1.000000 0.514374
1.000000 1.000000 0.514374
0.000000 0.028625 0.642578
0.006482 0.028625 0.642578
0.128078 0.028625 0.642578
0.301166 0.028625 0.642578
0.500000 0.028625 0.642578
0.698834 0.028625 0.642578
0.871922 0.028625 0.642578
0.993518 0.028625 0.642578
1.000000 0.028625 0.642578
0.000000 0.139893 0.642578
0.006482 0.139893 0.642578
0.128078 0.139893 0.642578
0.301166 0.139893 0.642578
0.500000 0.139893 0.642578
0.698834 0.139893 0.642578
0.871922 0.139893 0.642578
0.993518 0.139893 0.642578
1.000000 0.139893 0.642578
0.000000 0.286609 0.642578
0.006482 0.286609 0.642578
0.128078 0.286609 0.642578
0.301166 0.286609 0.642578
0.500000 0.286609 0.642578
0.698834 0.286609 0.642578
0.871922 0.286609 0.642578
0.993518 0.286609 0.642578
1.000000 0.286609 0.642578
0.000000 0.453178 0.642578
0.006482 0.453178 0.642578
0.128078 0.453178 0.642578
0.301166 0.453178 0.642578
0.500000 0.453178 0.642578
0.698834 0.453178 0.642578
0.871922 0.453178 0.642578
0.993518 0.453178 0.642578
1.000000 0.453178 0.642578
0.000000 0.624000 0.642578
0.006482 0.624000 0.642578
0.128078 0.624000 0.642578
0.301166 0.624000 0.642578
0.500000 0.624000 0.642578
0.698834 0.624000 0.642578
0.871922 0.624000 0.642578
0.993518 0.624000 0.642578
1.000000 0.624000 0.642578
0.000000 0.783479 0.642578
0.006482 0.783479 0.642578
0.128078 0.783479 0.642578
0.301166 0.783479 0.642578
0.500000 0.783479 0.642578
0.698834 0.783479 0.642578
0.871922 0.783479 0.642578
0.993518 0.783479 0.642578
1.000000 0.783479 0.642578
0.000000 0.916016 0.642578
0.006482 0.916016 0.642578
0.128078 0.916016 0.642578
0.301166 0.916016 0.642578
0.500000 0.916016 0.642578
0.698834 0.916016 0.642578
0.871922 0.916016 0.642578
0.993518 0.916016 0.642578
1.000000 0.916016 0.642578
0.000000 1.000000 0.642578
0.006482 1.000000 0.642578
0.128078 1.000000 0.642578
0.301166 1.000000 0.642578
0.500000 1.000000 0.642578
0.698834 1.000000 0.642578
0.871922 1.000000 0.642578
0.993518 1.000000 0.642578
1.000000 1.000000 0.642578
0.000000 1.000000 0.642578
0.006482 1.000000 0.642578
0.128078 1.000000 0.642578
0.301166 1.000000 0.642578
0.500000 1.000000 0.642578
0.698834 1.000000 0.642578
0.871922 1.000000 0.642578
0.993518 1.000000 0.642578
1.000000 1.000000 0.642578
0.000000 0.028625 0.765087
0.006482 0.028625 0.765087
0.128078 0.028625 0.765087
0.301166 0.028625 0.765087
0.500000 0.028625 0.765087
0.698834 0.028625 0.765087
0.871922 0.028625 0.765087
0.993518 0.028625 0.765087
1.000000 0.028625 0.765087
0.000000 0.139893 0.765087
0.006482 0.139893 0.765087
0.128078 0.139893 0.765087
0.301166 0.139893 0.765087
0.500000 0.139893 0.765087
0.698834 0.139893 0.765087
0.871922 0.139893 0.765087
0.993518 0.139893 0.765087
1.000000 0.139893 0.765087
0.000000 0.286609 0.765087
0.006482 0.286609 0.765087
0.128078 0.286609 0.765087
0.301166 0.286609 0.765087
0.500000 0.286609 0.765087
0.698834 0.286609 0.765087
0.871922 0.286609 0.765087
0.993518 0.286609 0.765087
1.000000 0.286609 0.765087
0.000000 0.453178 0.765087
0.006482 0.453178 0.765087
0.128078 0.453178 0.765087
0.301166 0.453178 0.765087
0.500000 0.453178 0.765087
0.698834 0.453178 0.765087
0.871922 0.453178 0.765087
0.993518 0.453178 0.765087
1.000000 0.453178 0.765087
0.000000 0.624000 0.765087
0.006482 0.624000 0.765087
0.128078 0.624000 0.765087
0.301166 0.624000 0.765087
0.500000 0.624000 0.765087
0.698834 0.624000 0.765087
0.871922 0.624000 0.765087
0.993518 0.624000 0.765087
1.000000 0.624000 0.765087
0.000000 0.783479 0.765087
0.006482 0.783479 0.765087
0.128078 0.783479 0.765087
0.301166 0.783479 0.765087
0.500000 0.783479 0.765087
0.698834 0.783479 0.765087
0.871922 0.783479 0.765087
0.993518 0.783479 0.765087
1.000000 0.783479 0.765087
0.000000 0.916016 0.765087
0.006482 0.916016 0.765087
0.128078 0.916016 0.765087
0.301166 0.916016 0.765087
0.500000 0.916016 0.765087
0.698834 0.916016 0.765087
0.871922 0.916016 0.765087
0.993518 0.916016 0.765087
1.000000 0.916016 0.765087
0.000000 1.000000 0.765087
0.006482 1.000000 0.765087
0.128078 1.000000 0.765087
0.301166 1.000000 0.765087
0.500000 1.000000 0.765087
0.698834 1.000000 0.765087
0.871922 1.000000 0.765087
0.993518 1.000000 0.765087
1.000000 1.000000 0.765087
0.000000 1.000000 0.765087
0.006482 1.000000 0.765087
0.128078 1.000000 0.765087
0.301166 1.000000 0.765087
0.500000 1.000000 0.765087
0.698834 1.000000 0.765087
0.871922 1.000000 0.765087
0.993518 1.000000 0.765087
1.000000 1.000000 0.765087
0.000000 0.028625 0.876775
0.006482 0.028625 0.876775
0.128078 0.028625 0.876775
0.301166 0.028625 0.876775
0.500000 0.028625 0.876775
0.698834 0.028625 0.876775
0.871922 0.028625 0.876775
0.993518 0.028625 0.876775
1.000000 0.028625 0.876775
0.000000 0.139893 0.876775
0.006482 0.139893 0.876775
0.128078 0.139893 0.876775
0.301166 0.139893 0.876775
0.500000 0.139893 0.876775
0.698834 0.139893 0.876775
0.871922 0.139893 0.876775
0.993518 0.139893 0.876775
1.000000 0.139893 0.876775
0.000000 0.286609 0.876775
0.006482 0.286609 0.876775
0.128078 0.286609 0.876775
0.301166 0.286609 0.876775
0.500000 0.286609 0.876775
0.698834 0.286609 0.876775
0.871922 0.286609 0.876775
0.993518 0.286609 0.876775
1.000000 0.286609 0.876775
0.000000 0.453178 0.876775
0.006482 0.453178 0.876775
0.128078 0.453178 0.876775
0.301166 0.453178 0.876775
0.500000 0.453178 0.876775
0.698834 0.453178 0.876775
0.871922 0.453178 0.876775
0.993518 0.453178 0.876775
1.000000 0.453178 0.876775
0.000000 0.624000 0.876775
0.006482 0.624000 0.876775
0.128078 0.624000 0.876775
0.301166 0.624000 0.876775
0.500000 0.624000 0.876775
0.698834 0.624000 0.876775
0.871922 0.624000 0.876775
0.993518 0.624000 0.876775
1.000000 0.624000 0.876775
0.000000 0.783479 0.876775
0.006482 0.783479 0.876775
0.128078 0.783479 0.876775
0.301166 0.783479 0.876775
0.500000 0.783479 0.876775
0.698834 0.783479 0.876775
0.871922 0.783479 0.876775
0.993518 0.783479 0.876775
1.000000 0.783479 0.876775
0.000000 0.916016 0.876775
0.006482 0.916016 0.876775
0.128078 0.916016 0.876775
0.301166 0.916016 0.876775
0.500000 0.916016 0.876775
0.698834 0.916016 0.876775
0.871922 0.916016 0.876775
0.993518 0.916016 0.876775
1.000000 0.916016 0.876775
0.000000 1.000000 0.876775
0.006482 1.000000 0.876775
0.128078 1.000000 0.876775
0.301166 1.000000 0.876775
0.500000 1.000000 0.876775
0.698834 1.000000 0.876775
0.871922 1.000000 0.876775
0.993518 1.000000 0.876775
1.000000 1.000000 0.876775
0.000000 1.000000 0.876775
0.006482 1.000000 0.876775
0.128078 1.000000 0.876775
0.301166 1.000000 0.876775
0.500000 1.000000 0.876775
0.698834 1.000000 0.876775
0.871922 1.000000 0.876775
0.993518 1.000000 0.876775
1.000000 1.000000 0.876775
