lut-visualizer/public/data/sample_luts/cross_process.cube
LUT_3D_SIZE 17
DOMAIN_MIN 0.0 0.0 0.0
DOMAIN_MAX 1.0 1.0 1.0
0.000000 0.028625 0.000000
0.000000 0.028625 0.000000
0.006482 0.028625 0.000000
0.059235 0.028625 0.000000
0.128078 0.028625 0.000000
0.209795 0.028625 0.000000
0.301166 0.028625 0.000000
0.398974 0.028625 0.000000
0.500000 0.028625 0.000000
0.601026 0.028625 0.000000
0.698834 0.028625 0.000000
0.790205 0.028625 0.000000
0.871922 0.028625 0.000000
0.940765 0.028625 0.000000
0.993518 0.028625 0.000000
1.000000 0.028625 0.000000
1.000000 0.028625 0.000000
0.000000 0.078853 0.000000
0.000000 0.078853 0.000000
0.006482 0.078853 0.000000
0.059235 0.078853 0.000000
0.128078 0.078853 0.000000
0.209795 0.078853 0.000000
0.301166 0.078853 0.000000
0.398974 0.078853 0.000000
0.500000 0.078853 0.000000
0.601026 0.078853 0.000000
0.698834 0.078853 0.000000
0.790205 0.078853 0.000000
0.871922 0.078853 0.000000
0.940765 0.078853 0.000000
0.993518 0.078853 0.000000
1.000000 0.078853 0.000000
1.000000 0.078853 0.000000
0.000000 0.139893 0.000000
0.000000 0.139893 0.000000
0.006482 0.139893 0.000000
0.059235 0.139893 0.000000
0.128078 0.139893 0.000000
0.209795 0.139893 0.000000
0.301166 0.139893 0.000000
0.398974 0.139893 0.000000
0.500000 0.139893 0.000000
0.601026 0.139893 0.000000
0.698834 0.139893 0.000000
0.790205 0.139893 0.000000
0.871922 0.139893 0.000000
0.940765 0.139893 0.000000
0.993518 0.139893 0.000000
1.000000 0.139893 0.000000
1.000000 0.139893 0.000000
0.000000 0.209795 0.000000
0.000000 0.209795 0.000000
0.006482 0.209795 0.000000
0.059235 0.209795 0.000000
0.128078 0.209795 0.000000
0.209795 0.209795 0.000000
0.301166 0.209795 0.000000
0.398974 0.209795 0.000000
0.500000 0.209795 0.000000
0.601026 0.209795 0.000000
0.698834 0.209795 0.000000
0.790205 0.209795 0.000000
0.871922 0.209795 0.000000
0.940765 0.209795 0.000000
0.993518 0.209795 0.000000
1.000000 0.209795 0.000000
1.000000 0.209795 0.000000
0.000000 0.286609 0.000000
0.000000 0.286609 0.000000
0.006482 0.286609 0.000000
0.059235 0.286609 0.000000
0.128078 0.286609 0.000000
0.209795 0.286609 0.000000
0.301166 0.286609 0.000000
0.398974 0.286609 0.000000
0.500000 0.286609 0.000000
0.601026 0.286609 0.000000
0.698834 0.286609 0.000000
0.790205 0.286609 0.000000
0.871922 0.286609 0.000000
0.940765 0.286609 0.000000
0.993518 0.286609 0.000000
1.000000 0.286609 0.000000
1.000000 0.286609 0.000000
0.000000 0.368387 0.000000
0.000000 0.368387 0.000000
0.006482 0.368387 0.000000
0.059235 0.368387 0.000000
0.128078 0.368387 0.000000
0.209795 0.368387 0.000000
0.301166 0.368387 0.000000
0.398974 0.368387 0.000000
0.500000 0.368387 0.000000
0.601026 0.368387 0.000000
0.698834 0.368387 0.000000
0.790205 0.368387 0.000000
0.871922 0.368387 0.000000
0.940765 0.368387 0.000000
0.993518 0.368387 0.000000
1.000000 0.368387 0.000000
1.000000 0.368387 0.000000
0.000000 0.453178 0.000000
0.000000 0.453178 0.000000
0.006482 0.453178 0.000000
0.059235 0.453178 0.000000
0.128078 0.453178 0.000000
0.209795 0.453178 0.000000
0.301166 0.453178 0.000000
0.398974 0.453178 0.000000
0.500000 0.453178 0.000000
0.601026 0.453178 0.000000
0.698834 0.453178 0.000000
0.790205 0.453178 0.000000
0.871922 0.453178 0.000000
0.940765 0.453178 0.000000
0.993518 0.453178 0.000000
1.000000 0.453178 0.000000
1.000000 0.453178 0.000000
0.000000 0.539032 0.000000
0.000000 0.539032 0.000000
0.006482 0.539032 0.000000
0.059235 0.539032 0.000000
0.128078 0.539032 0.000000
0.209795 0.539032 0.000000
0.301166 0.539032 0.000000
0.398974 0.539032 0.000000
0.500000 0.539032 0.000000
0.601026 0.539032 0.000000
0.698834 0.539032 0.000000
0.790205 0.539032 0.000000
0.871922 0.539032 0.000000
0.940765 0.539032 0.000000
0.993518 0.539032 0.000000
1.000000 0.539032 0.000000
1.000000 0.539032 0.000000
0.000000 0.624000 0.000000
0.000000 0.624000 0.000000
0.006482 0.624000 0.000000
0.059235 0.624000 0.000000
0.128078 0.624000 0.000000
0.209795 0.624000 0.000000
0.301166 0.624000 0.000000
0.398974 0.624000 0.000000
0.500000 0.624000 0.000000
0.601026 0.624000 0.000000
0.698834 0.624000 0.000000
0.790205 0.624000 0.000000
0.871922 0.624000 0.000000
0.940765 0.624000 0.000000
0.993518 0.624000 0.000000
1.000000 0.624000 0.000000
1.000000 0.624000 0.000000
0.000000 0.706132 0.000000
0.000000 0.706132 0.000000
0.006482 0.706132 0.000000
0.059235 0.706132 0.000000
0.128078 0.706132 0.000000
0.209795 0.706132 0.000000
0.301166 0.706132 0.000000
0.398974 0.706132 0.000000
0.500000 0.706132 0.000000
0.601026 0.706132 0.000000
0.698834 0.706132 0.000000
0.790205 0.706132 0.000000
0.871922 0.706132 0.000000
0.940765 0.706132 0.000000
0.993518 0.706132 0.000000
1.000000 0.706132 0.000000
1.000000 0.706132 0.000000
0.000000 0.783479 0.000000
0.000000 0.783479 0.000000
0.006482 0.783479 0.000000
0.059235 0.783479 0.000000
0.128078 0.783479 0.000000
0.209795 0.783479 0.000000
0.301166 0.783479 0.000000
0.398974 0.783479 0.000000
0.500000 0.783479 0.000000
0.601026 0.783479 0.000000
0.698834 0.783479 0.000000
0.790205 0.783479 0.000000
0.871922 0.783479 0.000000
0.940765 0.783479 0.000000
0.993518 0.783479 0.000000
1.000000 0.783479 0.000000
1.000000 0.783479 0.000000
0.000000 0.854090 0.000000
0.000000 0.854090 0.000000
0.006482 0.854090 0.000000
0.059235 0.854090 0.000000
0.128078 0.854090 0.000000
0.209795 0.854090 0.000000
0.301166 0.854090 0.000000
0.398974 0.854090 0.000000
0.500000 0.854090 0.000000
0.601026 0.854090 0.000000
0.698834 0.854090 0.000000
0.790205 0.854090 0.000000
0.871922 0.854090 0.000000
0.940765 0.854090 0.000000
0.993518 0.854090 0.000000
1.000000 0.854090 0.000000
1.000000 0.854090 0.000000
0.000000 0.916016 0.000000
0.000000 0.916016 0.000000
0.006482 0.916016 0.000000
0.059235 0.916016 0.000000
0.128078 0.916016 0.000000
0.209795 0.916016 0.000000
0.301166 0.916016 0.000000
0.398974 0.916016 0.000000
0.500000 0.916016 0.000000
0.601026 0.916016 0.000000
0.698834 0.916016 0.000000
0.790205 0.916016 0.000000
0.871922 0.916016 0.000000
0.940765 0.916016 0.000000
0.993518 0.916016 0.000000
1.000000 0.916016 0.000000
1.000000 0.916016 0.000000
0.000000 0.967307 0.000000
0.000000 0.967307 0.000000
0.006482 0.967307 0.000000
0.059235 0.967307 0.000000
0.128078 0.967307 0.000000
0.209795 0.967307 0.000000
0.301166 0.967307 0.000000
0.398974 0.967307 0.000000
0.500000 0.967307 0.000000
0.601026 0.967307 0.000000
0.698834 0.967307 0.000000
0.790205 0.967307 0.000000
0.871922 0.967307 0.000000
0.940765 0.967307 0.000000
0.993518 0.967307 0.000000
1.000000 0.967307 0.000000
1.000000 0.967307 0.000000
0.000000 1.000000 0.000000
0.000000 1.000000 0.000000
0.006482 1.000000 0.000000
0.059235 1.000000 0.000000
0.128078 1.000000 0.000000
0.209795 1.000000 0.000000
0.301166 1.000000 0.000000
0.398974 1.000000 0.000000
0.500000 1.000000 0.000000
0.601026 1.000000 0.000000
0.698834 1.000000 0.000000
0.790205 1.000000 0.000000
0.871922 1.000000 0.000000
0.940765 1.000000 0.000000
0.993518 1.000000 0.000000
1.000000 1.000000 0.000000
1.000000 1.000000 0.000000
0.000000 1.000000 0.000000
0.000000 1.000000 0.000000
0.006482 1.000000 0.000000
0.059235 1.000000 0.000000
0.128078 1.000000 0.000000
0.209795 1.000000 0.000000
0.301166 1.000000 0.000000
0.398974 1.000000 0.000000
0.500000 1.000000 0.000000
0.601026 1.000000 0.000000
0.698834 1.000000 0.000000
0.790205 1.000000 0.000000
0.871922 1.000000 0.000000
0.940765 1.000000 0.000000
0.993518 1.000000 0.000000
1.000000 1.000000 0.000000
1.000000 1.000000 0.000000
0.000000 1.000000 0.000000
0.000000 1.000000 0.000000
0.006482 1.000000 0.000000
0.059235 1.000000 0.000000
0.128078 1.000000 0.000000
0.209795 1.000000 0.000000
0.301166 1.000000 0.000000
0.398974 1.000000 0.000000
0.500000 1.000000 0.000000
0.601026 1.000000 0.000000
0.698834 1.000000 0.000000
0.790205 1.000000 0.000000
0.871922 1.000000 0.000000
0.940765 1.000000 0.000000
0.993518 1.000000 0.000000
1.000000 1.000000 0.000000
1.000000 1.000000 0.000000
0.000000 0.028625 0.004410
0.000000 0.028625 0.004410
0.006482 0.028625 0.004410
0.059235 0.028625 0.004410
0.128078 0.028625 0.004410
0.209795 0.028625 0.004410
0.301166 0.028625 0.004410
0.398974 0.028625 0.004410
0.500000 0.028625 0.004410
0.601026 0.028625 0.004410
0.698834 0.028625 0.004410
0.790205 0.028625 0.004410
0.871922 0.028625 0.004410
0.940765 0.028625 0.004410
0.993518 0.028625 0.004410
1.000000 0.028625 0.004410
1.000000 0.028625 0.004410
0.000000 0.078853 0.004410
0.000000 0.078853 0.004410
0.006482 0.078853 0.004410
0.059235 0.078853 0.004410
0.128078 0.078853 0.004410
0.209795 0.078853 0.004410
0.301166 0.078853 0.004410
0.398974 0.078853 0.004410
0.500000 0.078853 0.004410
0.601026 0.078853 0.004410
0.698834 0.078853 0.004410
0.790205 0.078853 0.004410
0.871922 0.078853 0.004410
0.940765 0.078853 0.004410
0.993518 0.078853 0.004410
1.000000 0.078853 0.004410
1.000000 0.078853 0.004410
0.000000 0.139893 0.004410
0.000000 0.139893 0.004410
0.006482 0.139893 0.004410
0.059235 0.139893 0.004410
0.128078 0.139893 0.004410
0.209795 0.139893 0.004410
0.301166 0.139893 0.004410
0.398974 0.139893 0.004410
0.500000 0.139893 0.004410
0.601026 0.139893 0.004410
0.698834 0.139893 0.004410
0.790205 0.139893 0.004410
0.871922 0.139893 0.004410
0.940765 0.139893 0.004410
0.993518 0.139893 0.004410
1.000000 0.139893 0.004410
1.000000 0.139893 0.004410
0.000000 0.209795 0.004410
0.000000 0.209795 0.004410
0.006482 0.209795 0.004410
0.059235 0.209795 0.004410
0.128078 0.209795 0.004410
0.209795 0.209795 0.004410
0.301166 0.209795 0.004410
0.398974 0.209795 0.004410
0.500000 0.209795 0.004410
0.601026 0.209795 0.004410
0.698834 0.209795 0.004410
0.790205 0.209795 0.004410
0.871922 0.209795 0.004410
0.940765 0.209795 0.004410
0.993518 0.209795 0.004410
1.000000 0.209795 0.004410
1.000000 0.209795 0.004410
0.000000 0.286609 0.004410
0.000000 0.286609 0.004410
0.006482 0.286609 0.004410
0.059235 0.286609 0.004410
0.128078 0.286609 0.004410
0.209795 0.286609 0.004410
0.301166 0.286609 0.004410
0.398974 0.286609 0.004410
0.500000 0.286609 0.004410
0.601026 0.286609 0.004410
0.698834 0.286609 0.004410
0.790205 0.286609 0.004410
0.871922 0.286609 0.004410
0.940765 0.286609 0.004410
0.993518 0.286609 0.004410
1.000000 0.286609 0.004410
1.000000 0.286609 0.004410
0.000000 0.368387 0.004410
0.000000 0.368387 0.004410
0.006482 0.368387 0.004410
0.059235 0.368387 0.004410
0.128078 0.368387 0.004410
0.209795 0.368387 0.004410
0.301166 0.368387 0.004410
0.398974 0.368387 0.004410
0.500000 0.368387 0.004410
0.601026 0.368387 0.004410
0.698834 0.368387 0.004410
0.790205 0.368387 0.004410
0.871922 0.368387 0.004410
0.940765 0.368387 0.004410
0.993518 0.368387 0.004410
1.000000 0.368387 0.004410
1.000000 0.368387 0.004410
0.000000 0.453178 0.004410
0.000000 0.453178 0.004410
0.006482 0.453178 0.004410
0.059235 0.453178 0.004410
0.128078 0.453178 0.004410
0.209795 0.453178 0.004410
0.301166 0.453178 0.004410
0.398974 0.453178 0.004410
0.500000 0.453178 0.004410
0.601026 0.453178 0.004410
0.698834 0.453178 0.004410
0.790205 0.453178 0.004410
0.871922 0.453178 0.004410
0.940765 0.453178 0.004410
0.993518 0.453178 0.004410
1.000000 0.453178 0.004410
1.000000 0.453178 0.004410
0.000000 0.539032 0.004410
0.000000 0.539032 0.004410
0.006482 0.539032 0.004410
0.059235 0.539032 0.004410
0.128078 0.539032 0.004410
0.209795 0.539032 0.004410
0.301166 0.539032 0.004410
0.398974 0.539032 0.004410
0.500000 0.539032 0.004410
0.601026 0.539032 0.004410
0.698834 0.539032 0.004410
0.790205 0.539032 0.004410
0.871922 0.539032 0.004410
0.940765 0.539032 0.004410
0.993518 0.539032 0.004410
1.000000 0.539032 0.004410
1.000000 0.539032 0.004410
0.000000 0.624000 0.004410
0.000000 0.624000 0.004410
0.006482 0.624000 0.004410
0.059235 0.624000 0.004410
0.128078 0.624000 0.004410
0.209795 0.624000 0.004410
0.301166 0.624000 0.004410
0.398974 0.624000 0.004410
0.500000 0.624000 0.004410
0.601026 0.624000 0.004410
0.698834 0.624000 0.004410
0.790205 0.624000 0.004410
0.871922 0.624000 0.004410
0.940765 0.624000 0.004410
0.993518 0.624000 0.004410
1.000000 0.624000 0.004410
1.000000 0.624000 0.004410
0.000000 0.706132 0.004410
0.000000 0.706132 0.004410
0.006482 0.706132 0.004410
0.059235 0.706132 0.004410
0.128078 0.706132 0.004410
0.209795 0.706132 0.004410
0.301166 0.706132 0.004410
0.398974 0.706132 0.004410
0.500000 0.706132 0.004410
0.601026 0.706132 0.004410
0.698834 0.706132 0.004410
0.790205 0.706132 0.004410
0.871922 0.706132 0.004410
0.940765 0.706132 0.004410
0.993518 0.706132 0.004410
1.000000 0.706132 0.004410
1.000000 0.706132 0.004410
0.000000 0.783479 0.004410
0.000000 0.783479 0.004410
0.006482 0.783479 0.004410
0.059235 0.783479 0.004410
0.128078 0.783479 0.004410
0.209795 0.783479 0.004410
0.301166 0.783479 0.004410
0.398974 0.783479 0.004410
0.500000 0.783479 0.004410
0.601026 0.783479 0.004410
0.698834 0.783479 0.004410
0.790205 0.783479 0.004410
0.871922 0.783479 0.004410
0.940765 0.783479 0.004410
0.993518 0.783479 0.004410
1.000000 0.783479 0.004410
1.000000 0.783479 0.004410
0.000000 0.854090 0.004410
0.000000 0.854090 0.004410
0.006482 0.854090 0.004410
0.059235 0.854090 0.004410
0.128078 0.854090 0.004410
0.209795 0.854090 0.004410
0.301166 0.854090 0.004410
0.398974 0.854090 0.004410
0.500000 0.854090 0.004410
0.601026 0.854090 0.004410
0.698834 0.854090 0.004410
0.790205 0.854090 0.004410
0.871922 0.854090 0.004410
0.940765 0.854090 0.004410
0.993518 0.854090 0.004410
1.000000 0.854090 0.004410
1.000000 0.854090 0.004410
0.000000 0.916016 0.004410
0.000000 0.916016 0.004410
0.006482 0.916016 0.004410
0.059235 0.916016 0.004410
0.128078 0.916016 0.004410
0.209795 0.916016 0.004410
0.301166 0.916016 0.004410
0.398974 0.916016 0.004410
0.500000 0.916016 0.004410
0.601026 0.916016 0.004410
0.698834 0.916016 0.004410
0.790205 0.916016 0.004410
0.871922 0.916016 0.004410
0.940765 0.916016 0.004410
0.993518 0.916016 0.004410
1.000000 0.916016 0.004410
1.000000 0.916016 0.004410
0.000000 0.967307 0.004410
0.000000 0.967307 0.004410
0.006482 0.967307 0.004410
0.059235 0.967307 0.004410
0.128078 0.967307 0.004410
0.209795 0.967307 0.004410
0.301166 0.967307 0.004410
0.398974 0.967307 0.004410
0.500000 0.967307 0.004410
0.601026 0.967307 0.004410
0.698834 0.967307 0.004410
0.790205 0.967307 0.004410
0.871922 0.967307 0.004410
0.940765 0.967307 0.004410
0.993518 0.967307 0.004410
1.000000 0.967307 0.004410
1.000000 0.967307 0.004410
0.000000 1.000000 0.004410
0.000000 1.000000 0.004410
0.006482 1.000000 0.004410
0.059235 1.000000 0.004410
0.128078 1.000000 0.004410
0.209795 1.000000 0.004410
0.301166 1.000000 0.004410
0.398974 1.000000 0.004410
0.500000 1.000000 0.004410
0.601026 1.000000 0.004410
0.698834 1.000000 0.004410
0.790205 1.000000 0.004410
0.871922 1.000000 0.004410
0.940765 1.000000 0.004410
0.993518 1.000000 0.004410
1.000000 1.000000 0.004410
1.000000 1.000000 0.004410
0.000000 1.000000 0.004410
0.000000 1.000000 0.004410
0.006482 1.000000 0.004410
0.059235 1.000000 0.004410
0.128078 1.000000 0.004410
0.209795 1.000000 0.004410
0.301166 1.000000 0.004410
0.398974 1.000000 0.004410
0.500000 1.000000 0.004410
0.601026 1.000000 0.004410
0.698834 1.000000 0.004410
0.790205 1.000000 0.004410
0.871922 1.000000 0.004410
0.940765 1.000000 0.004410
0.993518 1.000000 0.004410
1.000000 1.000000 0.004410
1.000000 1.000000 0.004410
0.000000 1.000000 0.004410
0.000000 1.000000 0.004410
0.006482 1.000000 0.004410
0.059235 1.000000 0.004410
0.128078 1.000000 0.004410
0.209795 1.000000 0.004410
0.301166 1.000000 0.004410
0.398974 1.000000 0.004410
0.500000 1.000000 0.004410
0.601026 1.000000 0.004410
0.698834 1.000000 0.004410
0.790205 1.000000 0.004410
0.871922 1.000000 0.004410
0.940765 1.000000 0.004410
0.993518 1.000000 0.004410
1.000000 1.000000 0.004410
1.000000 1.000000 0.004410
0.000000 0.028625 0.047119
0.000000 0.028625 0.047119
0.006482 0.028625 0.047119
0.059235 0.028625 0.047119
0.128078 0.028625 0.047119
0.209795 0.028625 0.047119
0.301166 0.028625 0.047119
0.398974 0.028625 0.047119
0.500000 0.028625 0.047119
0.601026 0.028625 0.047119
0.698834 0.028625 0.047119
0.790205 0.028625 0.047119
0.871922 0.028625 0.047119
0.940765 0.028625 0.047119
0.993518 0.028625 0.047119
1.000000 0.028625 0.047119
1.000000 0.028625 0.047119
0.000000 0.078853 0.047119
0.000000 0.078853 0.047119
0.006482 0.078853 0.047119
0.059235 0.078853 0.047119
0.128078 0.078853 0.047119
0.209795 0.078853 0.047119
0.301166 0.078853 0.047119
0.398974 0.078853 0.047119
0.500000 0.078853 0.047119
0.601026 0.078853 0.047119
0.698834 0.078853 0.047119
0.790205 0.078853 0.047119
0.871922 0.078853 0.047119
0.940765 0.078853 0.047119
0.993518 0.078853 0.047119
1.000000 0.078853 0.047119
1.000000 0.078853 0.047119
0.000000 0.139893 0.047119
0.000000 0.139893 0.047119
0.006482 0.139893 0.047119
0.059235 0.139893 0.047119
0.128078 0.139893 0.047119
0.209795 0.139893 0.047119
0.301166 0.139893 0.047119
0.398974 0.139893 0.047119
0.500000 0.139893 0.047119
0.601026 0.139893 0.047119
0.698834 0.139893 0.047119
0.790205 0.139893 0.047119
0.871922 0.139893 0.047119
0.940765 0.139893 0.047119
0.993518 0.139893 0.047119
1.000000 0.139893 0.047119
1.000000 0.139893 0.047119
0.000000 0.209795 0.047119
0.000000 0.209795 0.047119
0.006482 0.209795 0.047119
0.059235 0.209795 0.047119
0.128078 0.209795 0.047119
0.209795 0.209795 0.047119
0.301166 0.209795 0.047119
0.398974 0.209795 0.047119
0.500000 0.209795 0.047119
0.601026 0.209795 0.047119
0.698834 0.209795 0.047119
0.790205 0.209795 0.047119
0.871922 0.209795 0.047119
0.940765 0.209795 0.047119
0.993518 0.209795 0.047119
1.000000 0.209795 0.047119
1.000000 0.209795 0.047119
0.000000 0.286609 0.047119
0.000000 0.286609 0.047119
0.006482 0.286609 0.047119
0.059235 0.286609 0.047119
0.128078 0.286609 0.047119
0.209795 0.286609 0.047119
0.301166 0.286609 0.047119
0.398974 0.286609 0.047119
0.500000 0.286609 0.047119
0.601026 0.286609 0.047119
0.698834 0.286609 0.047119
0.790205 0.286609 0.047119
0.871922 0.286609 0.047119
0.940765 0.286609 0.047119
0.993518 0.286609 0.047119
1.000000 0.286609 0.047119
1.000000 0.286609 0.047119
0.000000 0.368387 0.047119
0.000000 0.368387 0.047119
0.006482 0.368387 0.047119
0.059235 0.368387 0.047119
0.128078 0.368387 0.047119
0.209795 0.368387 0.047119
0.301166 0.368387 0.047119
0.398974 0.368387 0.047119
0.500000 0.368387 0.047119
0.601026 0.368387 0.047119
0.698834 0.368387 0.047119
0.790205 0.368387 0.047119
0.871922 0.368387 0.047119
0.940765 0.368387 0.047119
0.993518 0.368387 0.047119
1.000000 0.368387 0.047119
1.000000 0.368387 0.047119
0.000000 0.453178 0.047119
0.000000 0.453178 0.047119
0.006482 0.453178 0.047119
0.059235 0.453178 0.047119
0.128078 0.453178 0.047119
0.209795 0.453178 0.047119
0.301166 0.453178 0.047119
0.398974 0.453178 0.047119
0.500000 0.453178 0.047119
0.601026 0.453178 0.047119
0.698834 0.453178 0.047119
0.790205 0.453178 0.047119
0.871922 0.453178 0.047119
0.940765 0.453178 0.047119
0.993518 0.453178 0.047119
1.000000 0.453178 0.047119
1.000000 0.453178 0.047119
0.000000 0.539032 0.047119
0.000000 0.539032 0.047119
0.006482 0.539032 0.047119
0.059235 0.539032 0.047119
0.128078 0.539032 0.047119
0.209795 0.539032 0.047119
0.301166 0.539032 0.047119
0.398974 0.539032 0.047119
0.500000 0.539032 0.047119
0.601026 0.539032 0.047119
0.698834 0.539032 0.047119
0.790205 0.539032 0.047119
0.871922 0.539032 0.047119
0.940765 0.539032 0.047119
0.993518 0.539032 0.047119
1.000000 0.539032 0.047119
1.000000 0.539032 0.047119
0.000000 0.624000 0.047119
0.000000 0.624000 0.047119
0.006482 0.624000 0.047119
0.059235 0.624000 0.047119
0.128078 0.624000 0.047119
0.209795 0.624000 0.047119
0.301166 0.624000 0.047119
0.398974 0.624000 0.047119
0.500000 0.624000 0.047119
0.601026 0.624000 0.047119
0.698834 0.624000 0.047119
0.790205 0.624000 0.047119
0.871922 0.624000 0.047119
0.940765 0.624000 0.047119
0.993518 0.624000 0.047119
1.000000 0.624000 0.047119
1.000000 0.624000 0.047119
0.000000 0.706132 0.047119
0.000000 0.706132 0.047119
0.006482 0.706132 0.047119
0.059235 0.706132 0.047119
0.128078 0.706132 0.047119
0.209795 0.706132 0.047119
0.301166 0.706132 0.047119
0.398974 0.706132 0.047119
0.500000 0.706132 0.047119
0.601026 0.706132 0.047119
0.698834 0.706132 0.047119
0.790205 0.706132 0.047119
0.871922 0.706132 0.047119
0.940765 0.706132 0.047119
0.993518 0.706132 0.047119
1.000000 0.706132 0.047119
1.000000 0.706132 0.047119
0.000000 0.783479 0.047119
0.000000 0.783479 0.047119
0.006482 0.783479 0.047119
0.059235 0.783479 0.047119
0.128078 0.783479 0.047119
0.209795 0.783479 0.047119
0.301166 0.783479 0.047119
0.398974 0.783479 0.047119
0.500000 0.783479 0.047119
0.601026 0.783479 0.047119
0.698834 0.783479 0.047119
0.790205 0.783479 0.047119
0.871922 0.783479 0.047119
0.940765 0.783479 0.047119
0.993518 0.783479 0.047119
1.000000 0.783479 0.047119
1.000000 0.783479 0.047119
0.000000 0.854090 0.047119
0.000000 0.854090 0.047119
0.006482 0.854090 0.047119
0.059235 0.854090 0.047119
0.128078 0.854090 0.047119
0.209795 0.854090 0.047119
0.301166 0.854090 0.047119
0.398974 0.854090 0.047119
0.500000 0.854090 0.047119
0.601026 0.854090 0.047119
0.698834 0.854090 0.047119
0.790205 0.854090 0.047119
0.871922 0.854090 0.047119
0.940765 0.854090 0.047119
0.993518 0.854090 0.047119
1.000000 0.854090 0.047119
1.000000 0.854090 0.047119
0.000000 0.916016 0.047119
0.000000 0.916016 0.047119
0.006482 0.916016 0.047119
0.059235 0.916016 0.047119
0.128078 0.916016 0.047119
0.209795 0.916016 0.047119
0.301166 0.916016 0.047119
0.398974 0.916016 0.047119
0.500000 0.916016 0.047119
0.601026 0.916016 0.047119
0.698834 0.916016 0.047119
0.790205 0.916016 0.047119
0.871922 0.916016 0.047119
0.940765 0.916016 0.047119
0.993518 0.916016 0.047119
1.000000 0.916016 0.047119
1.000000 0.916016 0.047119
0.000000 0.967307 0.047119
0.000000 0.967307 0.047119
0.006482 0.967307 0.047119
0.059235 0.967307 0.047119
0.128078 0.967307 0.047119
0.209795 0.967307 0.047119
0.301166 0.967307 0.047119
0.398974 0.967307 0.047119
0.500000 0.967307 0.047119
0.601026 0.967307 0.047119
0.698834 0.967307 0.047119
0.790205 0.967307 0.047119
0.871922 0.967307 0.047119
0.940765 0.967307 0.047119
0.993518 0.967307 0.047119
1.000000 0.967307 0.047119
1.000000 0.967307 0.047119
0.000000 1.000000 0.047119
0.000000 1.000000 0.047119
0.006482 1.000000 0.047119
0.059235 1.000000 0.047119
0.128078 1.000000 0.047119
0.209795 1.000000 0.047119
0.301166 1.000000 0.047119
0.398974 1.000000 0.047119
0.500000 1.000000 0.047119
0.601026 1.000000 0.047119
0.698834 1.000000 0.047119
0.790205 1.000000 0.047119
0.871922 1.000000 0.047119
0.940765 1.000000 0.047119
0.993518 1.000000 0.047119
1.000000 1.000000 0.047119
1.000000 1.000000 0.047119
0.000000 1.000000 0.047119
0.000000 1.000000 0.047119
0.006482 1.000000 0.047119
0.059235 1.000000 0.047119
0.128078 1.000000 0.047119
0.209795 1.000000 0.047119
0.301166 1.000000 0.047119
0.398974 1.000000 0.047119
0.500000 1.000000 0.047119
0.601026 1.000000 0.047119
0.698834 1.000000 0.047119
0.790205 1.000000 0.047119
0.871922 1.000000 0.047119
0.940765 1.000000 0.047119
0.993518 1.000000 0.047119
1.000000 1.000000 0.047119
1.000000 1.000000 0.047119
0.000000 1.000000 0.047119
0.000000 1.000000 0.047119
0.006482 1.000000 0.047119
0.059235 1.000000 0.047119
0.128078 1.000000 0.047119
0.209795 1.000000 0.047119
0.301166 1.000000 0.047119
0.398974 1.000000 0.047119
0.500000 1.000000 0.047119
0.601026 1.000000 0.047119
0.698834 1.000000 0.047119
0.790205 1.000000 0.047119
0.871922 1.000000 0.047119
0.940765 1.000000 0.047119
0.993518 1.000000 0.047119
1.000000 1.000000 0.047119
1.000000 1.000000 0.047119
0.000000 0.028625 0.094812
0.000000 0.028625 0.094812
0.006482 0.028625 0.094812
0.059235 0.028625 0.094812
0.128078 0.028625 0.094812
0.209795 0.028625 0.094812
0.301166 0.028625 0.094812
0.398974 0.028625 0.094812
0.500000 0.028625 0.094812
0.601026 0.028625 0.094812
0.698834 0.028625 0.094812
0.790205 0.028625 0.094812
0.871922 0.028625 0.094812
0.940765 0.028625 0.094812
0.993518 0.028625 0.094812
1.000000 0.028625 0.094812
1.000000 0.028625 0.094812
0.000000 0.078853 0.094812
0.000000 0.078853 0.094812
