lut-visualizer/public/data/sample_luts/desaturate_80.cube
LUT_3D_SIZE 9
DOMAIN_MIN 0.0 0.0 0.0
DOMAIN_MAX 1.0 1.0 1.0
0.000000 0.000000 0.000000
0.046260 0.021260 0.021260
0.092520 0.042520 0.042520
0.138780 0.063780 0.063780
0.185040 0.085040 0.085040
0.231300 0.106300 0.106300
0.277560 0.127560 0.127560
0.323820 0.148820 0.148820
0.370080 0.170080 0.170080
0.071520 0.096520 0.071520
0.117780 0.117780 0.092780
0.164040 0.139040 0.114040
0.210300 0.160300 0.135300
0.256560 0.181560 0.156560
0.302820 0.202820 0.177820
0.349080 0.224080 0.199080
0.395340 0.245340 0.220340
0.441600 0.266600 0.241600
0.143040 0.193040 0.143040
0.189300 0.214300 0.164300
0.235560 0.235560 0.185560
0.281820 0.256820 0.206820
0.328080 0.278080 0.228080
0.374340 0.299340 0.249340
0.420600 0.320600 0.270600
0.466860 0.341860 0.291860
0.513120 0.363120 0.313120
0.214560 0.289560 0.214560
0.260820 0.310820 0.235820
0.307080 0.332080 0.257080
0.353340 0.353340 0.278340
0.399600 0.374600 0.299600
0.445860 0.395860 0.320860
0.492120 0.417120 0.342120
0.538380 0.438380 0.363380
0.584640 0.459640 0.384640
0.286080 0.386080 0.286080
0.332340 0.407340 0.307340
0.378600 0.428600 0.328600
0.424860 0.449860 0.349860
0.471120 0.471120 0.371120
0.517380 0.492380 0.392380
0.563640 0.513640 0.413640
0.609900 0.534900 0.434900
0.656160 0.556160 0.456160
0.357600 0.482600 0.357600
0.403860 0.503860 0.378860
0.450120 0.525120 0.400120
0.496380 0.546380 0.421380
0.542640 0.567640 0.442640
0.588900 0.588900 0.463900
0.635160 0.610160 0.485160
0.681420 0.631420 0.506420
0.727680 0.652680 0.527680
0.429120 0.579120 0.429120
0.475380 0.600380 0.450380
0.521640 0.621640 0.471640
0.567900 0.642900 0.492900
0.614160 0.664160 0.514160
0.660420 0.685420 0.535420
0.706680 0.706680 0.556680
0.752940 0.727940 0.577940
0.799200 0.749200 0.599200
0.500640 0.675640 0.500640
0.546900 0.696900 0.521900
0.593160 0.718160 0.543160
0.639420 0.739420 0.564420
0.685680 0.760680 0.585680
0.731940 0.781940 0.606940
0.778200 0.803200 0.628200
0.824460 0.824460 0.649460
0.870720 0.845720 0.670720
0.572160 0.772160 0.572160
0.618420 0.793420 0.593420
0.664680 0.814680 0.614680
0.710940 0.835940 0.635940
0.757200 0.857200 0.657200
0.803460 0.878460 0.678460
0.849720 0.899720 0.699720
0.895980 0.920980 0.720980
0.942240 0.942240 0.742240
0.007220 0.007220 0.032220
0.053480 0.028480 0.053480
0.099740 0.049740 0.074740
0.146000 0.071000 0.096000
0.192260 0.092260 0.117260
0.238520 0.113520 0.138520
0.284780 0.134780 0.159780
0.331040 0.156040 0.181040
0.377300 0.177300 0.202300
0.078740 0.103740 0.103740
0.125000 0.125000 0.125000
0.171260 0.146260 0.146260
0.217520 0.167520 0.167520
0.263780 0.188780 0.188780
0.310040 0.210040 0.210040
0.356300 0.231300 0.231300
0.402560 0.252560 0.252560
0.448820 0.273820 0.273820
0.150260 0.200260 0.175260
0.196520 0.221520 0.196520
0.242780 0.242780 0.217780
0.289040 0.264040 0.239040
0.335300 0.285300 0.260300
0.381560 0.306560 0.281560
0.427820 0.327820 0.302820
0.474080 0.349080 0.324080
0.520340 0.370340 0.345340
0.221780 0.296780 0.246780
0.268040 0.318040 0.268040
0.314300 0.339300 0.289300
0.360560 0.360560 0.310560
0.406820 0.381820 0.331820
0.453080 0.403080 0.353080
0.499340 0.424340 0.374340
0.545600 0.445600 0.395600
0.591860 0.466860 0.416860
0.293300 0.393300 0.318300
0.339560 0.414560 0.339560
0.385820 0.435820 0.360820
0.432080 0.457080 0.382080
0.478340 0.478340 0.403340
0.524600 0.499600 0.424600
0.570860 0.520860 0.445860
0.617120 0.542120 0.467120
0.663380 0.563380 0.488380
0.364820 0.489820 0.389820
0.411080 0.511080 0.411080
0.457340 0.532340 0.432340
0.503600 0.553600 0.453600
0.549860 0.574860 0.474860
0.596120 0.596120 0.496120
0.642380 0.617380 0.517380
0.688640 0.638640 0.538640
0.734900 0.659900 0.559900
0.436340 0.586340 0.461340
0.482600 0.607600 0.482600
0.528860 0.628860 0.503860
0.575120 0.650120 0.525120
0.621380 0.671380 0.546380
0.667640 0.692640 0.567640
0.713900 0.713900 0.588900
0.760160 0.735160 0.610160
0.806420 0.756420 0.631420
0.507860 0.682860 0.532860
0.554120 0.704120 0.554120
0.600380 0.725380 0.575380
0.646640 0.746640 0.596640
0.692900 0.767900 0.617900
0.739160 0.789160 0.639160
0.785420 0.810420 0.660420
0.831680 0.831680 0.681680
0.877940 0.852940 0.702940
0.579380 0.779380 0.604380
0.625640 0.800640 0.625640
0.671900 0.821900 0.646900
0.718160 0.843160 0.668160
0.764420 0.864420 0.689420
0.810680 0.885680 0.710680
0.856940 0.906940 0.731940
0.903200 0.928200 0.753200
0.949460 0.949460 0.774460
0.014440 0.014440 0.064440
0.060700 0.035700 0.085700
0.106960 0.056960 0.106960
0.153220 0.078220 0.128220
0.199480 0.099480 0.149480
0.245740 0.120740 0.170740
0.292000 0.142000 0.192000
0.338260 0.163260 0.213260
0.384520 0.184520 0.234520
0.085960 0.110960 0.135960
0.132220 0.132220 0.157220
0.178480 0.153480 0.178480
0.224740 0.174740 0.199740
0.271000 0.196000 0.221000
0.317260 0.217260 0.242260
0.363520 0.238520 0.263520
0.409780 0.259780 0.284780
0.456040 0.281040 0.306040
0.157480 0.207480 0.207480
0.203740 0.228740 0.228740
0.250000 0.250000 0.250000
0.296260 0.271260 0.271260
0.342520 0.292520 0.292520
0.388780 0.313780 0.313780
0.435040 0.335040 0.335040
0.481300 0.356300 0.356300
0.527560 0.377560 0.377560
0.229000 0.304000 0.279000
0.275260 0.325260 0.300260
0.321520 0.346520 0.321520
0.367780 0.367780 0.342780
0.414040 0.389040 0.364040
0.460300 0.410300 0.385300
0.506560 0.431560 0.406560
0.552820 0.452820 0.427820
0.599080 0.474080 0.449080
0.300520 0.400520 0.350520
0.346780 0.421780 0.371780
0.393040 0.443040 0.393040
0.439300 0.464300 0.414300
0.485560 0.485560 0.435560
0.531820 0.506820 0.456820
0.578080 0.528080 0.478080
0.624340 0.549340 0.499340
0.670600 0.570600 0.520600
0.372040 0.497040 0.422040
0.418300 0.518300 0.443300
0.464560 0.539560 0.464560
0.510820 0.560820 0.485820
0.557080 0.582080 0.507080
0.603340 0.603340 0.528340
0.649600 0.624600 0.549600
0.695860 0.645860 0.570860
0.742120 0.667120 0.592120
0.443560 0.593560 0.493560
0.489820 0.614820 0.514820
0.536080 0.636080 0.536080
0.582340 0.657340 0.557340
0.628600 0.678600 0.578600
0.674860 0.699860 0.599860
0.721120 0.721120 0.621120
0.767380 0.742380 0.642380
0.813640 0.763640 0.663640
0.515080 0.690080 0.565080
0.561340 0.711340 0.586340
0.607600 0.732600 0.607600
0.653860 0.753860 0.628860
0.700120 0.775120 0.650120
0.746380 0.796380 0.671380
0.792640 0.817640 0.692640
0.838900 0.838900 0.713900
0.885160 0.860160 0.735160
0.586600 0.786600 0.636600
0.632860 0.807860 0.657860
0.679120 0.829120 0.679120
0.725380 0.850380 0.700380
0.771640 0.871640 0.721640
0.817900 0.892900 0.742900
0.864160 0.914160 0.764160
0.910420 0.935420 0.785420
0.956680 0.956680 0.806680
0.021660 0.021660 0.096660
0.067920 0.042920 0.117920
0.114180 0.064180 0.139180
0.160440 0.085440 0.160440
0.206700 0.106700 0.181700
0.252960 0.127960 0.202960
0.299220 0.149220 0.224220
0.345480 0.170480 0.245480
0.391740 0.191740 0.266740
0.093180 0.118180 0.168180
0.139440 0.139440 0.189440
0.185700 0.160700 0.210700
0.231960 0.181960 0.231960
0.278220 0.203220 0.253220
0.324480 0.224480 0.274480
0.370740 0.245740 0.295740
0.417000 0.267000 0.317000
0.463260 0.288260 0.338260
0.164700 0.214700 0.239700
0.210960 0.235960 0.260960
0.257220 0.257220 0.282220
0.303480 0.278480 0.303480
0.349740 0.299740 0.324740
0.396000 0.321000 0.346000
0.442260 0.342260 0.367260
0.488520 0.363520 0.388520
0.534780 0.384780 0.409780
0.236220 0.311220 0.311220
0.282480 0.332480 0.332480
0.328740 0.353740 0.353740
0.375000 0.375000 0.375000
0.421260 0.396260 0.396260
0.467520 0.417520 0.417520
0.513780 0.438780 0.438780
0.560040 0.460040 0.460040
0.606300 0.481300 0.481300
0.307740 0.407740 0.382740
0.354000 0.429000 0.404000
0.400260 0.450260 0.425260
0.446520 0.471520 0.446520
0.492780 0.492780 0.467780
0.539040 0.514040 0.489040
0.585300 0.535300 0.510300
0.631560 0.556560 0.531560
0.677820 0.577820 0.552820
0.379260 0.504260 0.454260
0.425520 0.525520 0.475520
0.471780 0.546780 0.496780
0.518040 0.568040 0.518040
0.564300 0.589300 0.539300
0.610560 0.610560 0.560560
0.656820 0.631820 0.581820
0.703080 0.653080 0.603080
0.749340 0.674340 0.624340
0.450780 0.600780 0.525780
0.497040 0.622040 0.547040
0.543300 0.643300 0.568300
0.589560 0.664560 0.589560
0.635820 0.685820 0.610820
0.682080 0.707080 0.632080
0.728340 0.728340 0.653340
0.774600 0.749600 0.674600
0.820860 0.770860 0.695860
0.522300 0.697300 0.597300
0.568560 0.718560 0.618560
0.614820 0.739820 0.639820
0.661080 0.761080 0.661080
0.707340 0.782340 0.682340
0.753600 0.803600 0.703600
0.799860 0.824860 0.724860
0.846120 0.846120 0.746120
0.892380 0.867380 0.767380
0.593820 0.793820 0.668820
0.640080 0.815080 0.690080
0.686340 0.836340 0.711340
0.732600 0.857600 0.732600
0.778860 0.878860 0.753860
0.825120 0.900120 0.775120
0.871380 0.921380 0.796380
0.917640 0.942640 0.817640
0.963900 0.963900 0.838900
0.028880 0.028880 0.128880
0.075140 0.050140 0.150140
0.121400 0.071400 0.171400
0.167660 0.092660 0.192660
0.213920 0.113920 0.213920
0.260180 0.135180 0.235180
0.306440 0.156440 0.256440
0.352700 0.177700 0.277700
0.398960 0.198960 0.298960
0.100400 0.125400 0.200400
0.146660 0.146660 0.221660
0.192920 0.167920 0.242920
0.239180 0.189180 0.264180
0.285440 0.210440 0.285440
0.331700 0.231700 0.306700
0.377960 0.252960 0.327960
0.424220 0.274220 0.349220
0.470480 0.295480 0.370480
0.171920 0.221920 0.271920
0.218180 0.243180 0.293180
0.264440 0.264440 0.314440
0.310700 0.285700 0.335700
0.356960 0.306960 0.356960
0.403220 0.328220 0.378220
0.449480 0.349480 0.399480
0.495740 0.370740 0.420740
0.542000 0.392000 0.442000
0.243440 0.318440 0.343440
0.289700 0.339700 0.364700
0.335960 0.360960 0.385960
0.382220 0.382220 0.407220
0.428480 0.403480 0.428480
0.474740 0.424740 0.449740
0.521000 0.446000 0.471000
0.567260 0.467260 0.492260
0.613520 0.488520 0.513520
0.314960 0.414960 0.414960
0.361220 0.436220 0.436220
0.407480 0.457480 0.457480
0.453740 0.478740 0.478740
0.500000 0.500000 0.500000
0.546260 0.521260 0.521260
0.592520 0.542520 0.542520
0.638780 0.563780 0.563780
0.685040 0.585040 0.585040
0.386480 0.511480 0.486480
0.432740 0.532740 0.507740
0.479000 0.554000 0.529000
0.525260 0.575260 0.550260
0.571520 0.596520 0.571520
0.617780 0.617780 0.592780
0.664040 0.639040 0.614040
0.710300 0.660300 0.635300
0.756560 0.681560 0.656560
0.458000 0.608000 0.558000
0.504260 0.629260 0.579260
0.550520 0.650520 0.600520
0.596780 0.671780 0.621780
0.643040 0.693040 0.643040
0.689300 0.714300 0.664300
0.735560 0.735560 0.685560
0.781820 0.756820 0.706820
0.828080 0.778080 0.728080
0.529520 0.704520 0.629520
0.575780 0.725780 0.650780
0.622040 0.747040 0.672040
0.668300 0.768300 0.693300
0.714560 0.789560 0.714560
0.760820 0.810820 0.735820
0.807080 0.832080 0.757080
0.853340 0.853340 0.778340
0.899600 0.874600 0.799600
0.601040 0.801040 0.701040
0.647300 0.822300 0.722300
0.693560 0.843560 0.743560
0.739820 0.864820 0.764820
0.786080 0.886080 0.786080
0.832340 0.907340 0.807340
0.878600 0.928600 0.828600
0.924860 0.949860 0.849860
0.971120 0.971120 0.871120
0.036100 0.036100 0.161100
0.082360 0.057360 0.182360
0.128620 0.078620 0.203620
0.174880 0.099880 0.224880
0.221140 0.121140 0.246140
0.267400 0.142400 0.267400
0.313660 0.163660 0.288660
0.359920 0.184920 0.309920
0.406180 0.206180 0.331180
0.107620 0.132620 0.232620
0.153880 0.153880 0.253880
0.200140 0.175140 0.275140
0.246400 0.196400 0.296400
0.292660 0.217660 0.317660
0.338920 0.238920 0.338920
0.385180 0.260180 0.360180
0.431440 0.281440 0.381440
0.477700 0.302700 0.402700
0.179140 0.229140 0.304140
0.225400 0.250400 0.325400
0.271660 0.271660 0.346660
0.317920 0.292920 0.367920
0.364180 0.314180 0.389180
0.410440 0.335440 0.410440
0.456700 0.356700 0.431700
0.502960 0.377960 0.452960
0.549220 0.399220 0.474220
0.250660 0.325660 0.375660
0.296920 0.346920 0.396920
0.343180 0.368180 0.418180
0.389440 0.389440 0.439440
0.435700 0.410700 0.460700
0.481960 0.431960 0.481960
0.528220 0.453220 0.503220
0.574480 0.474480 0.524480
0.620740 0.495740 0.545740
0.322180 0.422180 0.447180
0.368440 0.443440 0.468440
0.414700 0.464700 0.489700
0.460960 0.485960 0.510960
0.507220 0.507220 0.532220
0.553480 0.528480 0.553480
0.599740 0.549740 0.574740
0.646000 0.571000 0.596000
0.692260 0.592260 0.617260
0.393700 0.518700 0.518700
0.439960 0.539960 0.539960
0.486220 0.561220 0.561220
0.532480 0.582480 0.582480
0.578740 0.603740 0.603740
0.625000 0.625000 0.625000
0.671260 0.646260 0.646260
0.717520 0.667520 0.667520
0.763780 0.688780 0.688780
0.465220 0.615220 0.590220
0.511480 0.636480 0.611480
0.557740 0.657740 0.632740
0.604000 0.679000 0.654000
0.650260 0.700260 0.675260
0.696520 0.721520 0.696520
0.742780 0.742780 0.717780
0.789040 0.764040 0.739040
0.835300 0.785300 0.760300
0.536740 0.711740 0.661740
0.583000 0.733000 0.683000
0.629260 0.754260 0.704260
0.675520 0.775520 0.725520
0.721780 0.796780 0.746780
0.768040 0.818040 0.768040
0.814300 0.839300 0.789300
0.860560 0.860560 0.810560
0.906820 0.881820 0.831820
0.608260 0.808260 0.733260
0.654520 0.829520 0.754520
0.700780 0.850780 0.775780
0.747040 0.872040 0.797040
0.793300 0.893300 0.818300
0.839560 0.914560 0.839560
0.885820 0.935820 0.860820
0.932080 0.957080 0.882080
0.978340 0.978340 0.903340
0.043320 0.043320 0.193320
0.089580 0.064580 0.214580
0.135840 0.085840 0.235840
0.182100 0.107100 0.257100
0.228360 0.128360 0.278360
0.274620 0.149620 0.299620
0.320880 0.170880 0.320880
0.367140 0.192140 0.342140
0.413400 0.213400 0.363400
0.114840 0.139840 0.264840
0.161100 0.161100 0.286100
0.207360 0.182360 0.307360
0.253620 0.203620 0.328620
0.299880 0.224880 0.349880
0.346140 0.246140 0.371140
0.392400 0.267400 0.392400
0.438660 0.288660 0.413660
0.484920 0.309920 0.434920
0.186360 0.236360 0.336360
0.232620 0.257620 0.357620
0.278880 0.278880 0.378880
0.325140 0.300140 0.400140
0.371400 0.321400 0.421400
0.417660 0.342660 0.442660
0.463920 0.363920 0.463920
0.510180 0.385180 0.485180
0.556440 0.406440 0.506440
0.257880 0.332880 0.407880
0.304140 0.354140 0.429140
0.350400 0.375400 0.450400
0.396660 0.396660 0.471660
0.442920 0.417920 0.492920
0.489180 0.439180 0.514180
0.535440 0.460440 0.535440
0.581700 0.481700 0.556700
0.627960 0.502960 0.577960
0.329400 0.429400 0.479400
0.375660 0.450660 0.500660
0.421920 0.471920 0.521920
0.468180 0.493180 0.543180
0.514440 0.514440 0.564440
0.560700 0.535700 0.585700
0.606960 0.556960 0.606960
0.653220 0.578220 0.628220
0.699480 0.599480 0.649480
0.400920 0.525920 0.550920
0.447180 0.547180 0.572180
0.493440 0.568440 0.593440
0.539700 0.589700 0.614700
0.585960 0.610960 0.635960
0.632220 0.632220 0.657220
0.678480 0.653480 0.678480
0.724740 0.674740 0.699740
0.771000 0.696000 0.721000
0.472440 0.622440 0.622440
0.518700 0.643700 0.643700
0.564960 0.664960 0.664960
0.611220 0.686220 0.686220
0.657480 0.707480 0.707480
0.703740 0.728740 0.728740
0.750000 0.750000 0.750000
0.796260 0.771260 0.771260
0.842520 0.792520 0.792520
0.543960 0.718960 0.693960
0.590220 0.740220 0.715220
0.636480 0.761480 0.736480
0.682740 0.782740 0.757740
0.729000 0.804000 0.779000
0.775260 0.825260 0.800260
0.821520 0.846520 0.821520
0.867780 0.867780 0.842780
0.914040 0.889040 0.864040
0.615480 0.815480 0.765480
0.661740 0.836740 0.786740
0.708000 0.858000 0.808000
0.754260 0.879260 0.829260
0.800520 0.900520 0.850520
0.846780 0.921780 0.871780
0.893040 0.943040 0.893040
0.939300 0.964300 0.914300
0.985560 0.985560 0.935560
0.050540 0.050540 0.225540
0.096800 0.071800 0.246800
0.143060 0.093060 0.268060
0.189320 0.114320 0.289320
0.235580 0.135580 0.310580
0.281840 0.156840 0.331840
0.328100 0.178100 0.353100
0.374360 0.199360 0.374360
0.420620 0.220620 0.395620
0.122060 0.147060 0.297060
0.168320 0.168320 0.318320
0.214580 0.189580 0.339580
0.260840 0.210840 0.360840
0.307100 0.232100 0.382100
0.353360 0.253360 0.403360
0.399620 0.274620 0.424620
0.445880 0.295880 0.445880
0.492140 0.317140 0.467140
0.193580 0.243580 0.368580
0.239840 0.264840 0.389840
0.286100 0.286100 0.411100
0.332360 0.307360 0.432360
0.378620 0.328620 0.453620
0.424880 0.349880 0.474880
0.471140 0.371140 0.496140
0.517400 0.392400 0.517400
0.563660 0.413660 0.538660
0.265100 0.340100 0.440100
0.311360 0.361360 0.461360
0.357620 0.382620 0.482620
0.403880 0.403880 0.503880
0.450140 0.425140 0.525140
0.496400 0.446400 0.546400
0.542660 0.467660 0.567660
0.588920 0.488920 0.588920
0.635180 0.510180 0.610180
0.336620 0.436620 0.511620
0.382880 0.457880 0.532880
0.429140 0.479140 0.554140
0.475400 0.500400 0.575400
0.521660 0.521660 0.596660
0.567920 0.542920 0.617920
0.614180 0.564180 0.639180
0.660440 0.585440 0.660440
0.706700 0.606700 0.681700
0.408140 0.533140 0.583140
0.454400 0.554400 0.604400
0.500660 0.575660 0.625660
0.546920 0.596920 0.646920
0.593180 0.618180 0.668180
0.639440 0.639440 0.689440
0.685700 0.660700 0.710700
0.731960 0.681960 0.731960
0.778220 0.703220 0.753220
0.479660 0.629660 0.654660
0.525920 0.650920 0.675920
0.572180 0.672180 0.697180
0.618440 0.693440 0.718440
0.664700 0.714700 0.739700
0.710960 0.735960 0.760960
0.757220 0.757220 0.782220
0.803480 0.778480 0.803480
0.849740 0.799740 0.824740
0.551180 0.726180 0.726180
0.597440 0.747440 0.747440
0.643700 0.768700 0.768700
0.689960 0.789960 0.789960
0.736220 0.811220 0.811220
0.782480 0.832480 0.832480
0.828740 0.853740 0.853740
0.875000 0.875000 0.875000
0.921260 0.896260 0.896260
0.622700 0.822700 0.797700
0.668960 0.843960 0.818960
0.715220 0.865220 0.840220
0.761480 0.886480 0.861480
0.807740 0.907740 0.882740
0.854000 0.929000 0.904000
0.900260 0.950260 0.925260
0.946520 0.971520 0.946520
0.992780 0.992780 0.967780
0.057760 0.057760 0.257760
0.104020 0.079020 0.279020
0.150280 0.100280 0.300280
0.196540 0.121540 0.321540
0.242800 0.142800 0.342800
0.289060 0.164060 0.364060
0.335320 0.185320 0.385320
0.381580 0.206580 0.406580
0.427840 0.227840 0.427840
0.129280 0.154280 0.329280
0.175540 0.175540 0.350540
0.221800 0.196800 0.371800
0.268060 0.218060 0.393060
0.314320 0.239320 0.414320
0.360580 0.260580 0.435580
0.406840 0.281840 0.456840
0.453100 0.303100 0.478100
0.499360 0.324360 0.499360
0.200800 0.250800 0.400800
0.247060 0.272060 0.422060
0.293320 0.293320 0.443320
0.339580 0.314580 0.464580
0.385840 0.335840 0.485840
0.432100 0.357100 0.507100
0.478360 0.378360 0.528360
0.524620 0.399620 0.549620
0.570880 0.420880 0.570880
0.272320 0.347320 0.472320
0.318580 0.368580 0.493580
0.364840 0.389840 0.514840
0.411100 0.411100 0.536100
0.457360 0.432360 0.557360
0.503620 0.453620 0.578620
0.549880 0.474880 0.599880
0.596140 0.496140 0.621140
0.642400 0.517400 0.642400
0.343840 0.443840 0.543840
0.390100 0.465100 0.565100
0.436360 0.486360 0.586360
0.482620 0.507620 0.607620
0.528880 0.528880 0.628880
0.575140 0.550140 0.650140
0.621400 0.571400 0.671400
0.667660 0.592660 0.692660
0.713920 0.613920 0.713920
0.415360 0.540360 0.615360
0.461620 0.561620 0.636620
0.507880 0.582880 0.657880
0.554140 0.604140 0.679140
0.600400 0.625400 0.700400
0.646660 0.646660 0.721660
0.692920 0.667920 0.742920
0.739180 0.689180 0.764180
0.785440 0.710440 0.785440
0.486880 0.636880 0.686880
0.533140 0.658140 0.708140
0.579400 0.679400 0.729400
0.625660 0.700660 0.750660
0.671920 0.721920 0.771920
0.718180 0.743180 0.793180
0.764440 0.764440 0.814440
0.810700 0.785700 0.835700
0.856960 0.806960 0.856960
0.558400 0.733400 0.758400
0.604660 0.754660 0.779660
0.650920 0.775920 0.800920
0.697180 0.797180 0.822180
0.743440 0.818440 0.843440
0.789700 0.839700 0.864700
0.835960 0.860960 0.885960
0.882220 0.882220 0.907220
0.928480 0.903480 0.928480
0.629920 0.829920 0.829920
0.676180 0.851180 0.851180
0.722440 0.872440 0.872440
0.768700 0.893700 0.893700
0.814960 0.914960 0.914960
0.861220 0.936220 0.936220
0.907480 0.957480 0.957480
0.953740 0.978740 0.978740
1.000000 1.000000 1.000000
