lut-visualizer/public/data/sample_luts/desaturate_80.cube
LUT_3D_SIZE 17
DOMAIN_MIN 0.0 0.0 0.0
DOMAIN_MAX 1.0 1.0 1.0
0.000000 0.000000 0.000000
0.023130 0.010630 0.010630
0.046260 0.021260 0.021260
0.069390 0.031890 0.031890
0.092520 0.042520 0.042520
0.115650 0.053150 0.053150
0.138780 0.063780 0.063780
0.161910 0.074410 0.074410
0.185040 0.085040 0.085040
0.208170 0.095670 0.095670
0.231300 0.106300 0.106300
0.254430 0.116930 0.116930
0.277560 0.127560 0.127560
0.300690 0.138190 0.138190
0.323820 0.148820 0.148820
0.346950 0.159450 0.159450
0.370080 0.170080 0.170080
0.035760 0.048260 0.035760
0.058890 0.058890 0.046390
0.082020 0.069520 0.057020
0.105150 0.080150 0.067650
0.128280 0.090780 0.078280
0.151410 0.101410 0.088910
0.174540 0.112040 0.099540
0.197670 0.122670 0.110170
0.220800 0.133300 0.120800
0.243930 0.143930 0.131430
0.267060 0.154560 0.142060
0.290190 0.165190 0.152690
0.313320 0.175820 0.163320
0.336450 0.186450 0.173950
0.359580 0.197080 0.184580
0.382710 0.207710 0.195210
0.405840 0.218340 0.205840
0.071520 0.096520 0.071520
0.094650 0.107150 0.082150
0.117780 0.117780 0.092780
0.140910 0.128410 0.103410
0.164040 0.139040 0.114040
0.187170 0.149670 0.124670
0.210300 0.160300 0.135300
0.233430 0.170930 0.145930
0.256560 0.181560 0.156560
0.279690 0.192190 0.167190
0.302820 0.202820 0.177820
0.325950 0.213450 0.188450
0.349080 0.224080 0.199080
0.372210 0.234710 0.209710
0.395340 0.245340 0.220340
0.418470 0.255970 0.230970
0.441600 0.266600 0.241600
0.107280 0.144780 0.107280
0.130410 0.155410 0.117910
0.153540 0.166040 0.128540
0.176670 0.176670 0.139170
0.199800 0.187300 0.149800
0.222930 0.197930 0.160430
0.246060 0.208560 0.171060
0.269190 0.219190 0.181690
0.292320 0.229820 0.192320
0.315450 0.240450 0.202950
0.338580 0.251080 0.213580
0.361710 0.261710 0.224210
0.384840 0.272340 0.234840
0.407970 0.282970 0.245470
0.431100 0.293600 0.256100
0.454230 0.304230 0.266730
0.477360 0.314860 0.277360
0.143040 0.193040 0.143040
0.166170 0.203670 0.153670
0.189300 0.214300 0.164300
0.212430 0.224930 0.174930
0.235560 0.235560 0.185560
0.258690 0.246190 0.196190
0.281820 0.256820 0.206820
0.304950 0.267450 0.217450
0.328080 0.278080 0.228080
0.351210 0.288710 0.238710
0.374340 0.299340 0.249340
0.397470 0.309970 0.259970
0.420600 0.320600 0.270600
0.443730 0.331230 0.281230
0.466860 0.341860 0.291860
0.489990 0.352490 0.302490
0.513120 0.363120 0.313120
0.178800 0.241300 0.178800
0.201930 0.251930 0.189430
0.225060 0.262560 0.200060
0.248190 0.273190 0.210690
0.271320 0.283820 0.221320
0.294450 0.294450 0.231950
0.317580 0.305080 0.242580
0.340710 0.315710 0.253210
0.363840 0.326340 0.263840
0.386970 0.336970 0.274470
0.410100 0.347600 0.285100
0.433230 0.358230 0.295730
0.456360 0.368860 0.306360
0.479490 0.379490 0.316990
0.502620 0.390120 0.327620
0.525750 0.400750 0.338250
0.548880 0.411380 0.348880
0.214560 0.289560 0.214560
0.237690 0.300190 0.225190
0.260820 0.310820 0.235820
0.283950 0.321450 0.246450
0.307080 0.332080 0.257080
0.330210 0.342710 0.267710
0.353340 0.353340 0.278340
0.376470 0.363970 0.288970
0.399600 0.374600 0.299600
0.422730 0.385230 0.310230
0.445860 0.395860 0.320860
0.468990 0.406490 0.331490
0.492120 0.417120 0.342120
0.515250 0.427750 0.352750
0.538380 0.438380 0.363380
0.561510 0.449010 0.374010
0.584640 0.459640 0.384640
0.250320 0.337820 0.250320
0.273450 0.348450 0.260950
0.296580 0.359080 0.271580
0.319710 0.369710 0.282210
0.342840 0.380340 0.292840
0.365970 0.390970 0.303470
0.389100 0.401600 0.314100
0.412230 0.412230 0.324730
0.435360 0.422860 0.335360
0.458490 0.433490 0.345990
0.481620 0.444120 0.356620
0.504750 0.454750 0.367250
0.527880 0.465380 0.377880
0.551010 0.476010 0.388510
0.574140 0.486640 0.399140
0.597270 0.497270 0.409770
0.620400 0.507900 0.420400
0.286080 0.386080 0.286080
0.309210 0.396710 0.296710
0.332340 0.407340 0.307340
0.355470 0.417970 0.317970
0.378600 0.428600 0.328600
0.401730 0.439230 0.339230
0.424860 0.449860 0.349860
0.447990 0.460490 0.360490
0.471120 0.471120 0.371120
0.494250 0.481750 0.381750
0.517380 0.492380 0.392380
0.540510 0.503010 0.403010
0.563640 0.513640 0.413640
0.586770 0.524270 0.424270
0.609900 0.534900 0.434900
0.633030 0.545530 0.445530
0.656160 0.556160 0.456160
0.321840 0.434340 0.321840
0.344970 0.444970 0.332470
0.368100 0.455600 0.343100
0.391230 0.466230 0.353730
0.414360 0.476860 0.364360
0.437490 0.487490 0.374990
0.460620 0.498120 0.385620
0.483750 0.508750 0.396250
0.506880 0.519380 0.406880
0.530010 0.530010 0.417510
0.553140 0.540640 0.428140
0.576270 0.551270 0.438770
0.599400 0.561900 0.449400
0.622530 0.572530 0.460030
0.645660 0.583160 0.470660
0.668790 0.593790 0.481290
0.691920 0.604420 0.491920
0.357600 0.482600 0.357600
0.380730 0.493230 0.368230
0.403860 0.503860 0.378860
0.426990 0.514490 0.389490
0.450120 0.525120 0.400120
0.473250 0.535750 0.410750
0.496380 0.546380 0.421380
0.519510 0.557010 0.432010
0.542640 0.567640 0.442640
0.565770 0.578270 0.453270
0.588900 0.588900 0.463900
0.612030 0.599530 0.474530
0.635160 0.610160 0.485160
0.658290 0.620790 0.495790
0.681420 0.631420 0.506420
0.704550 0.642050 0.517050
0.727680 0.652680 0.527680
0.393360 0.530860 0.393360
0.416490 0.541490 0.403990
0.439620 0.552120 0.414620
0.462750 0.562750 0.425250
0.485880 0.573380 0.435880
0.509010 0.584010 0.446510
0.532140 0.594640 0.457140
0.555270 0.605270 0.467770
0.578400 0.615900 0.478400
0.601530 0.626530 0.489030
0.624660 0.637160 0.499660
0.647790 0.647790 0.510290
0.670920 0.658420 0.520920
0.694050 0.669050 0.531550
0.717180 0.679680 0.542180
0.740310 0.690310 0.552810
0.763440 0.700940 0.563440
0.429120 0.579120 0.429120
0.452250 0.589750 0.439750
0.475380 0.600380 0.450380
0.498510 0.611010 0.461010
0.521640 0.621640 0.471640
0.544770 0.632270 0.482270
0.567900 0.642900 0.492900
0.591030 0.653530 0.503530
0.614160 0.664160 0.514160
0.637290 0.674790 0.524790
0.660420 0.685420 0.535420
0.683550 0.696050 0.546050
0.706680 0.706680 0.556680
0.729810 0.717310 0.567310
0.752940 0.727940 0.577940
0.776070 0.738570 0.588570
0.799200 0.749200 0.599200
0.464880 0.627380 0.464880
0.488010 0.638010 0.475510
0.511140 0.648640 0.486140
0.534270 0.659270 0.496770
0.557400 0.669900 0.507400
0.580530 0.680530 0.518030
0.603660 0.691160 0.528660
0.626790 0.701790 0.539290
0.649920 0.712420 0.549920
0.673050 0.723050 0.560550
0.696180 0.733680 0.571180
0.719310 0.744310 0.581810
0.742440 0.754940 0.592440
0.765570 0.765570 0.603070
0.788700 0.776200 0.613700
0.811830 0.786830 0.624330
0.834960 0.797460 0.634960
0.500640 0.675640 0.500640
0.523770 0.686270 0.511270
0.546900 0.696900 0.521900
0.570030 0.707530 0.532530
0.593160 0.718160 0.543160
0.616290 0.728790 0.553790
0.639420 0.739420 0.564420
0.662550 0.750050 0.575050
0.685680 0.760680 0.585680
0.708810 0.771310 0.596310
0.731940 0.781940 0.606940
0.755070 0.792570 0.617570
0.778200 0.803200 0.628200
0.801330 0.813830 0.638830
0.824460 0.824460 0.649460
0.847590 0.835090 0.660090
0.870720 0.845720 0.670720
0.536400 0.723900 0.536400
0.559530 0.734530 0.547030
0.582660 0.745160 0.557660
0.605790 0.755790 0.568290
0.628920 0.766420 0.578920
0.652050 0.777050 0.589550
0.675180 0.787680 0.600180
0.698310 0.798310 0.610810
0.721440 0.808940 0.621440
0.744570 0.819570 0.632070
0.767700 0.830200 0.642700
0.790830 0.840830 0.653330
0.813960 0.851460 0.663960
0.837090 0.862090 0.674590
0.860220 0.872720 0.685220
0.883350 0.883350 0.695850
0.906480 0.893980 0.706480
0.572160 0.772160 0.572160
0.595290 0.782790 0.582790
0.618420 0.793420 0.593420
0.641550 0.804050 0.604050
0.664680 0.814680 0.614680
0.687810 0.825310 0.625310
0.710940 0.835940 0.635940
0.734070 0.846570 0.646570
0.757200 0.857200 0.657200
0.780330 0.867830 0.667830
0.803460 0.878460 0.678460
0.826590 0.889090 0.689090
0.849720 0.899720 0.699720
0.872850 0.910350 0.710350
0.895980 0.920980 0.720980
0.919110 0.931610 0.731610
0.942240 0.942240 0.742240
0.003610 0.003610 0.016110
0.026740 0.014240 0.026740
0.049870 0.024870 0.037370
0.073000 0.035500 0.048000
0.096130 0.046130 0.058630
0.119260 0.056760 0.069260
0.142390 0.067390 0.079890
0.165520 0.078020 0.090520
0.188650 0.088650 0.101150
0.211780 0.099280 0.111780
0.234910 0.109910 0.122410
0.258040 0.120540 0.133040
0.281170 0.131170 0.143670
0.304300 0.141800 0.154300
0.327430 0.152430 0.164930
0.350560 0.163060 0.175560
0.373690 0.173690 0.186190
0.039370 0.051870 0.051870
0.062500 0.062500 0.062500
0.085630 0.073130 0.073130
0.108760 0.083760 0.083760
0.131890 0.094390 0.094390
0.155020 0.105020 0.105020
0.178150 0.115650 0.115650
0.201280 0.126280 0.126280
0.224410 0.136910 0.136910
0.247540 0.147540 0.147540
0.270670 0.158170 0.158170
0.293800 0.168800 0.168800
0.316930 0.179430 0.179430
0.340060 0.190060 0.190060
0.363190 0.200690 0.200690
0.386320 0.211320 0.211320
0.409450 0.221950 0.221950
0.075130 0.100130 0.087630
0.098260 0.110760 0.098260
0.121390 0.121390 0.108890
0.144520 0.132020 0.119520
0.167650 0.142650 0.130150
0.190780 0.153280 0.140780
0.213910 0.163910 0.151410
0.237040 0.174540 0.162040
0.260170 0.185170 0.172670
0.283300 0.195800 0.183300
0.306430 0.206430 0.193930
0.329560 0.217060 0.204560
0.352690 0.227690 0.215190
0.375820 0.238320 0.225820
0.398950 0.248950 0.236450
0.422080 0.259580 0.247080
0.445210 0.270210 0.257710
0.110890 0.148390 0.123390
0.134020 0.159020 0.134020
0.157150 0.169650 0.144650
0.180280 0.180280 0.155280
0.203410 0.190910 0.165910
0.226540 0.201540 0.176540
0.249670 0.212170 0.187170
0.272800 0.222800 0.197800
0.295930 0.233430 0.208430
0.319060 0.244060 0.219060
0.342190 0.254690 0.229690
0.365320 0.265320 0.240320
0.388450 0.275950 0.250950
0.411580 0.286580 0.261580
0.434710 0.297210 0.272210
0.457840 0.307840 0.282840
0.480970 0.318470 0.293470
0.146650 0.196650 0.159150
0.169780 0.207280 0.169780
0.192910 0.217910 0.180410
0.216040 0.228540 0.191040
0.239170 0.239170 0.201670
0.262300 0.249800 0.212300
0.285430 0.260430 0.222930
0.308560 0.271060 0.233560
0.331690 0.281690 0.244190
0.354820 0.292320 0.254820
0.377950 0.302950 0.265450
0.401080 0.313580 0.276080
0.424210 0.324210 0.286710
0.447340 0.334840 0.297340
0.470470 0.345470 0.307970
0.493600 0.356100 0.318600
0.516730 0.366730 0.329230
0.182410 0.244910 0.194910
0.205540 0.255540 0.205540
0.228670 0.266170 0.216170
0.251800 0.276800 0.226800
0.274930 0.287430 0.237430
0.298060 0.298060 0.248060
0.321190 0.308690 0.258690
0.344320 0.319320 0.269320
0.367450 0.329950 0.279950
0.390580 0.340580 0.290580
0.413710 0.351210 0.301210
0.436840 0.361840 0.311840
0.459970 0.372470 0.322470
0.483100 0.383100 0.333100
0.506230 0.393730 0.343730
0.529360 0.404360 0.354360
0.552490 0.414990 0.364990
0.218170 0.293170 0.230670
0.241300 0.303800 0.241300
0.264430 0.314430 0.251930
0.287560 0.325060 0.262560
0.310690 0.335690 0.273190
0.333820 0.346320 0.283820
0.356950 0.356950 0.294450
0.380080 0.367580 0.305080
0.403210 0.378210 0.315710
0.426340 0.388840 0.326340
0.449470 0.399470 0.336970
0.472600 0.410100 0.347600
0.495730 0.420730 0.358230
0.518860 0.431360 0.368860
0.541990 0.441990 0.379490
0.565120 0.452620 0.390120
0.588250 0.463250 0.400750
0.253930 0.341430 0.266430
0.277060 0.352060 0.277060
0.300190 0.362690 0.287690
0.323320 0.373320 0.298320
0.346450 0.383950 0.308950
0.369580 0.394580 0.319580
0.392710 0.405210 0.330210
0.415840 0.415840 0.340840
0.438970 0.426470 0.351470
0.462100 0.437100 0.362100
0.485230 0.447730 0.372730
0.508360 0.458360 0.383360
0.531490 0.468990 0.393990
0.554620 0.479620 0.404620
0.577750 0.490250 0.415250
0.600880 0.500880 0.425880
0.624010 0.511510 0.436510
0.289690 0.389690 0.302190
0.312820 0.400320 0.312820
0.335950 0.410950 0.323450
0.359080 0.421580 0.334080
0.382210 0.432210 0.344710
0.405340 0.442840 0.355340
0.428470 0.453470 0.365970
0.451600 0.464100 0.376600
0.474730 0.474730 0.387230
0.497860 0.485360 0.397860
0.520990 0.495990 0.408490
0.544120 0.506620 0.419120
0.567250 0.517250 0.429750
0.590380 0.527880 0.440380
0.613510 0.538510 0.451010
0.636640 0.549140 0.461640
0.659770 0.559770 0.472270
0.325450 0.437950 0.337950
0.348580 0.448580 0.348580
0.371710 0.459210 0.359210
0.394840 0.469840 0.369840
0.417970 0.480470 0.380470
0.441100 0.491100 0.391100
0.464230 0.501730 0.401730
0.487360 0.512360 0.412360
0.510490 0.522990 0.422990
0.533620 0.533620 0.433620
0.556750 0.544250 0.444250
0.579880 0.554880 0.454880
0.603010 0.565510 0.465510
0.626140 0.576140 0.476140
0.649270 0.586770 0.486770
0.672400 0.597400 0.497400
0.695530 0.608030 0.508030
0.361210 0.486210 0.373710
0.384340 0.496840 0.384340
0.407470 0.507470 0.394970
0.430600 0.518100 0.405600
0.453730 0.528730 0.416230
0.476860 0.539360 0.426860
0.499990 0.549990 0.437490
0.523120 0.560620 0.448120
0.546250 0.571250 0.458750
0.569380 0.581880 0.469380
0.592510 0.592510 0.480010
0.615640 0.603140 0.490640
0.638770 0.613770 0.501270
0.661900 0.624400 0.511900
0.685030 0.635030 0.522530
0.708160 0.645660 0.533160
0.731290 0.656290 0.543790
0.396970 0.534470 0.409470
0.420100 0.545100 0.420100
0.443230 0.555730 0.430730
0.466360 0.566360 0.441360
0.489490 0.576990 0.451990
0.512620 0.587620 0.462620
0.535750 0.598250 0.473250
0.558880 0.608880 0.483880
0.582010 0.619510 0.494510
0.605140 0.630140 0.505140
0.628270 0.640770 0.515770
0.651400 0.651400 0.526400
0.674530 0.662030 0.537030
0.697660 0.672660 0.547660
0.720790 0.683290 0.558290
0.743920 0.693920 0.568920
0.767050 0.704550 0.579550
0.432730 0.582730 0.445230
0.455860 0.593360 0.455860
0.478990 0.603990 0.466490
0.502120 0.614620 0.477120
0.525250 0.625250 0.487750
0.548380 0.635880 0.498380
0.571510 0.646510 0.509010
0.594640 0.657140 0.519640
0.617770 0.667770 0.530270
0.640900 0.678400 0.540900
0.664030 0.689030 0.551530
0.687160 0.699660 0.562160
0.710290 0.710290 0.572790
0.733420 0.720920 0.583420
0.756550 0.731550 0.594050
0.779680 0.742180 0.604680
0.802810 0.752810 0.615310
0.468490 0.630990 0.480990
0.491620 0.641620 0.491620
0.514750 0.652250 0.502250
0.537880 0.662880 0.512880
0.561010 0.673510 0.523510
0.584140 0.684140 0.534140
0.607270 0.694770 0.544770
0.630400 0.705400 0.555400
0.653530 0.716030 0.566030
0.676660 0.726660 0.576660
0.699790 0.737290 0.587290
0.722920 0.747920 0.597920
0.746050 0.758550 0.608550
0.769180 0.769180 0.619180
0.792310 0.779810 0.629810
0.815440 0.790440 0.640440
0.838570 0.801070 0.651070
0.504250 0.679250 0.516750
0.527380 0.689880 0.527380
0.550510 0.700510 0.538010
0.573640 0.711140 0.548640
0.596770 0.721770 0.559270
0.619900 0.732400 0.569900
0.643030 0.743030 0.580530
0.666160 0.753660 0.591160
0.689290 0.764290 0.601790
0.712420 0.774920 0.612420
0.735550 0.785550 0.623050
0.758680 0.796180 0.633680
0.781810 0.806810 0.644310
0.804940 0.817440 0.654940
0.828070 0.828070 0.665570
0.851200 0.838700 0.676200
0.874330 0.849330 0.686830
0.540010 0.727510 0.552510
0.563140 0.738140 0.563140
0.586270 0.748770 0.573770
0.609400 0.759400 0.584400
0.632530 0.770030 0.595030
0.655660 0.780660 0.605660
0.678790 0.791290 0.616290
0.701920 0.801920 0.626920
0.725050 0.812550 0.637550
0.748180 0.823180 0.648180
0.771310 0.833810 0.658810
0.794440 0.844440 0.669440
0.817570 0.855070 0.680070
0.840700 0.865700 0.690700
0.863830 0.876330 0.701330
0.886960 0.886960 0.711960
0.910090 0.897590 0.722590
0.575770 0.775770 0.588270
0.598900 0.786400 0.598900
0.622030 0.797030 0.609530
0.645160 0.807660 0.620160
0.668290 0.818290 0.630790
0.691420 0.828920 0.641420
0.714550 0.839550 0.652050
0.737680 0.850180 0.662680
0.760810 0.860810 0.673310
0.783940 0.871440 0.683940
0.807070 0.882070 0.694570
0.830200 0.892700 0.705200
0.853330 0.903330 0.715830
0.876460 0.913960 0.726460
0.899590 0.924590 0.737090
0.922720 0.935220 0.747720
0.945850 0.945850 0.758350
0.007220 0.007220 0.032220
0.030350 0.017850 0.042850
0.053480 0.028480 0.053480
0.076610 0.039110 0.064110
0.099740 0.049740 0.074740
0.122870 0.060370 0.085370
0.146000 0.071000 0.096000
0.169130 0.081630 0.106630
0.192260 0.092260 0.117260
0.215390 0.102890 0.127890
0.238520 0.113520 0.138520
0.261650 0.124150 0.149150
0.284780 0.134780 0.159780
0.307910 0.145410 0.170410
0.331040 0.156040 0.181040
0.354170 0.166670 0.191670
0.377300 0.177300 0.202300
0.042980 0.055480 0.067980
0.066110 0.066110 0.078610
0.089240 0.076740 0.089240
0.112370 0.087370 0.099870
0.135500 0.098000 0.110500
0.158630 0.108630 0.121130
0.181760 0.119260 0.131760
0.204890 0.129890 0.142390
0.228020 0.140520 0.153020
0.251150 0.151150 0.163650
0.274280 0.161780 0.174280
0.297410 0.172410 0.184910
0.320540 0.183040 0.195540
0.343670 0.193670 0.206170
0.366800 0.204300 0.216800
0.389930 0.214930 0.227430
0.413060 0.225560 0.238060
0.078740 0.103740 0.103740
0.101870 0.114370 0.114370
0.125000 0.125000 0.125000
0.148130 0.135630 0.135630
0.171260 0.146260 0.146260
0.194390 0.156890 0.156890
0.217520 0.167520 0.167520
0.240650 0.178150 0.178150
0.263780 0.188780 0.188780
0.286910 0.199410 0.199410
0.310040 0.210040 0.210040
0.333170 0.220670 0.220670
0.356300 0.231300 0.231300
0.379430 0.241930 0.241930
0.402560 0.252560 0.252560
0.425690 0.263190 0.263190
0.448820 0.273820 0.273820
0.114500 0.152000 0.139500
0.137630 0.162630 0.150130
0.160760 0.173260 0.160760
0.183890 0.183890 0.171390
0.207020 0.194520 0.182020
0.230150 0.205150 0.192650
0.253280 0.215780 0.203280
0.276410 0.226410 0.213910
0.299540 0.237040 0.224540
0.322670 0.247670 0.235170
0.345800 0.258300 0.245800
0.368930 0.268930 0.256430
0.392060 0.279560 0.267060
0.415190 0.290190 0.277690
0.438320 0.300820 0.288320
0.461450 0.311450 0.298950
0.484580 0.322080 0.309580
0.150260 0.200260 0.175260
0.173390 0.210890 0.185890
0.196520 0.221520 0.196520
0.219650 0.232150 0.207150
0.242780 0.242780 0.217780
0.265910 0.253410 0.228410
0.289040 0.264040 0.239040
0.312170 0.274670 0.249670
0.335300 0.285300 0.260300
0.358430 0.295930 0.270930
0.381560 0.306560 0.281560
0.404690 0.317190 0.292190
0.427820 0.327820 0.302820
0.450950 0.338450 0.313450
0.474080 0.349080 0.324080
0.497210 0.359710 0.334710
0.520340 0.370340 0.345340
0.186020 0.248520 0.211020
0.209150 0.259150 0.221650
0.232280 0.269780 0.232280
0.255410 0.280410 0.242910
0.278540 0.291040 0.253540
0.301670 0.301670 0.264170
0.324800 0.312300 0.274800
0.347930 0.322930 0.285430
0.371060 0.333560 0.296060
0.394190 0.344190 0.306690
0.417320 0.354820 0.317320
0.440450 0.365450 0.327950
0.463580 0.376080 0.338580
0.486710 0.386710 0.349210
0.509840 0.397340 0.359840
0.532970 0.407970 0.370470
0.556100 0.418600 0.381100
0.221780 0.296780 0.246780
0.244910 0.307410 0.257410
0.268040 0.318040 0.268040
0.291170 0.328670 0.278670
0.314300 0.339300 0.289300
0.337430 0.349930 0.299930
0.360560 0.360560 0.310560
0.383690 0.371190 0.321190
0.406820 0.381820 0.331820
0.429950 0.392450 0.342450
0.453080 0.403080 0.353080
0.476210 0.413710 0.363710
0.499340 0.424340 0.374340
0.522470 0.434970 0.384970
0.545600 0.445600 0.395600
0.568730 0.456230 0.406230
0.591860 0.466860 0.416860
0.257540 0.345040 0.282540
0.280670 0.355670 0.293170
0.303800 0.366300 0.303800
0.326930 0.376930 0.314430
0.350060 0.387560 0.325060
0.373190 0.398190 0.335690
0.396320 0.408820 0.346320
0.419450 0.419450 0.356950
0.442580 0.430080 0.367580
0.465710 0.440710 0.378210
0.488840 0.451340 0.388840
0.511970 0.461970 0.399470
0.535100 0.472600 0.410100
0.558230 0.483230 0.420730
0.581360 0.493860 0.431360
0.604490 0.504490 0.441990
0.627620 0.515120 0.452620
0.293300 0.393300 0.318300
0.316430 0.403930 0.328930
0.339560 0.414560 0.339560
0.362690 0.425190 0.350190
0.385820 0.435820 0.360820
0.408950 0.446450 0.371450
0.432080 0.457080 0.382080
0.455210 0.467710 0.392710
0.478340 0.478340 0.403340
0.501470 0.488970 0.413970
0.524600 0.499600 0.424600
0.547730 0.510230 0.435230
0.570860 0.520860 0.445860
0.593990 0.531490 0.456490
0.617120 0.542120 0.467120
0.640250 0.552750 0.477750
0.663380 0.563380 0.488380
0.329060 0.441560 0.354060
0.352190 0.452190 0.364690
0.375320 0.462820 0.375320
0.398450 0.473450 0.385950
0.421580 0.484080 0.396580
0.444710 0.494710 0.407210
0.467840 0.505340 0.417840
0.490970 0.515970 0.428470
0.514100 0.526600 0.439100
0.537230 0.537230 0.449730
0.560360 0.547860 0.460360
0.583490 0.558490 0.470990
0.606620 0.569120 0.481620
0.629750 0.579750 0.492250
0.652880 0.590380 0.502880
0.676010 0.601010 0.513510
0.699140 0.611640 0.524140
0.364820 0.489820 0.389820
0.387950 0.500450 0.400450
0.411080 0.511080 0.411080
0.434210 0.521710 0.421710
0.457340 0.532340 0.432340
0.480470 0.542970 0.442970
0.503600 0.553600 0.453600
0.526730 0.564230 0.464230
0.549860 0.574860 0.474860
0.572990 0.585490 0.485490
0.596120 0.596120 0.496120
0.619250 0.606750 0.506750
0.642380 0.617380 0.517380
0.665510 0.628010 0.528010
0.688640 0.638640 0.538640
0.711770 0.649270 0.549270
0.734900 0.659900 0.559900
0.400580 0.538080 0.425580
0.423710 0.548710 0.436210
0.446840 0.559340 0.446840
0.469970 0.569970 0.457470
0.493100 0.580600 0.468100
0.516230 0.591230 0.478730
0.539360 0.601860 0.489360
0.562490 0.612490 0.499990
0.585620 0.623120 0.510620
0.608750 0.633750 0.521250
0.631880 0.644380 0.531880
0.655010 0.655010 0.542510
0.678140 0.665640 0.553140
0.701270 0.676270 0.563770
0.724400 0.686900 0.574400
0.747530 0.697530 0.585030
0.770660 0.708160 0.595660
0.436340 0.586340 0.461340
0.459470 0.596970 0.471970
0.482600 0.607600 0.482600
0.505730 0.618230 0.493230
0.528860 0.628860 0.503860
0.551990 0.639490 0.514490
0.575120 0.650120 0.525120
0.598250 0.660750 0.535750
0.621380 0.671380 0.546380
0.644510 0.682010 0.557010
0.667640 0.692640 0.567640
0.690770 0.703270 0.578270
0.713900 0.713900 0.588900
0.737030 0.724530 0.599530
0.760160 0.735160 0.610160
0.783290 0.745790 0.620790
0.806420 0.756420 0.631420
0.472100 0.634600 0.497100
0.495230 0.645230 0.507730
0.518360 0.655860 0.518360
0.541490 0.666490 0.528990
0.564620 0.677120 0.539620
0.587750 0.687750 0.550250
0.610880 0.698380 0.560880
0.634010 0.709010 0.571510
0.657140 0.719640 0.582140
0.680270 0.730270 0.592770
0.703400 0.740900 0.603400
0.726530 0.751530 0.614030
0.749660 0.762160 0.624660
0.772790 0.772790 0.635290
0.795920 0.783420 0.645920
0.819050 0.794050 0.656550
0.842180 0.804680 0.667180
0.507860 0.682860 0.532860
0.530990 0.693490 0.543490
0.554120 0.704120 0.554120
0.577250 0.714750 0.564750
0.600380 0.725380 0.575380
0.623510 0.736010 0.586010
0.646640 0.746640 0.596640
0.669770 0.757270 0.607270
0.692900 0.767900 0.617900
0.716030 0.778530 0.628530
0.739160 0.789160 0.639160
0.762290 0.799790 0.649790
0.785420 0.810420 0.660420
0.808550 0.821050 0.671050
0.831680 0.831680 0.681680
0.854810 0.842310 0.692310
0.877940 0.852940 0.702940
0.543620 0.731120 0.568620
0.566750 0.741750 0.579250
0.589880 0.752380 0.589880
0.613010 0.763010 0.600510
0.636140 0.773640 0.611140
0.659270 0.784270 0.621770
0.682400 0.794900 0.632400
0.705530 0.805530 0.643030
0.728660 0.816160 0.653660
0.751790 0.826790 0.664290
0.774920 0.837420 0.674920
0.798050 0.848050 0.685550
0.821180 0.858680 0.696180
0.844310 0.869310 0.706810
0.867440 0.879940 0.717440
0.890570 0.890570 0.728070
0.913700 0.901200 0.738700
0.579380 0.779380 0.604380
0.602510 0.790010 0.615010
0.625640 0.800640 0.625640
0.648770 0.811270 0.636270
0.671900 0.821900 0.646900
0.695030 0.832530 0.657530
0.718160 0.843160 0.668160
0.741290 0.853790 0.678790
0.764420 0.864420 0.689420
0.787550 0.875050 0.700050
0.810680 0.885680 0.710680
0.833810 0.896310 0.721310
0.856940 0.906940 0.731940
0.880070 0.917570 0.742570
0.903200 0.928200 0.753200
0.926330 0.938830 0.763830
0.949460 0.949460 0.774460
0.010830 0.010830 0.048330
0.033960 0.021460 0.058960
0.057090 0.032090 0.069590
0.080220 0.042720 0.080220
0.103350 0.053350 0.090850
0.126480 0.063980 0.101480
0.149610 0.074610 0.112110
0.172740 0.085240 0.122740
0.195870 0.095870 0.133370
0.219000 0.106500 0.144000
0.242130 0.117130 0.154630
0.265260 0.127760 0.165260
0.288390 0.138390 0.175890
0.311520 0.149020 0.186520
0.334650 0.159650 0.197150
0.357780 0.170280 0.207780
0.380910 0.180910 0.218410
0.046590 0.059090 0.084090
0.069720 0.069720 0.094720
