lut-visualizer/public/data/sample_luts/desaturate_80.cube
LUT_3D_SIZE 5
DOMAIN_MIN 0.0 0.0 0.0
DOMAIN_MAX 1.0 1.0 1.0
0.000000 0.000000 0.000000
0.092520 0.042520 0.042520
0.185040 0.085040 0.085040
0.277560 0.127560 0.127560
0.370080 0.170080 0.170080
0.143040 0.193040 0.143040
0.235560 0.235560 0.185560
0.328080 0.278080 0.228080
0.420600 0.320600 0.270600
0.513120 0.363120 0.313120
0.286080 0.386080 0.286080
0.378600 0.428600 0.328600
0.471120 0.471120 0.371120
0.563640 0.513640 0.413640
0.656160 0.556160 0.456160
0.429120 0.579120 0.429120
0.521640 0.621640 0.471640
0.614160 0.664160 0.514160
0.706680 0.706680 0.556680
0.799200 0.749200 0.599200
0.572160 0.772160 0.572160
0.664680 0.814680 0.614680
0.757200 0.857200 0.657200
0.849720 0.899720 0.699720
0.942240 0.942240 0.742240
0.014440 0.014440 0.064440
0.106960 0.056960 0.106960
0.199480 0.099480 0.149480
0.292000 0.142000 0.192000
0.384520 0.184520 0.234520
0.157480 0.207480 0.207480
0.250000 0.250000 0.250000
0.342520 0.292520 0.292520
0.435040 0.335040 0.335040
0.527560 0.377560 0.377560
0.300520 0.400520 0.350520
0.393040 0.443040 0.393040
0.485560 0.485560 0.435560
0.578080 0.528080 0.478080
0.670600 0.570600 0.520600
0.443560 0.593560 0.493560
0.536080 0.636080 0.536080
0.628600 0.678600 0.578600
0.721120 0.721120 0.621120
0.813640 0.763640 0.663640
0.586600 0.786600 0.636600
0.679120 0.829120 0.679120
0.771640 0.871640 0.721640
0.864160 0.914160 0.764160
0.956680 0.956680 0.806680
0.028880 0.028880 0.128880
0.121400 0.071400 0.171400
0.213920 0.113920 0.213920
0.306440 0.156440 0.256440
0.398960 0.198960 0.298960
0.171920 0.221920 0.271920
0.264440 0.264440 0.314440
0.356960 0.306960 0.356960
0.449480 0.349480 0.399480
0.542000 0.392000 0.442000
0.314960 0.414960 0.414960
0.407480 0.457480 0.457480
0.500000 0.500000 0.500000
0.592520 0.542520 0.542520
0.685040 0.585040 0.585040
0.458000 0.608000 0.558000
0.550520 0.650520 0.600520
0.643040 0.693040 0.643040
0.735560 0.735560 0.685560
0.828080 0.778080 0.728080
0.601040 0.801040 0.701040
0.693560 0.843560 0.743560
0.786080 0.886080 0.786080
0.878600 0.928600 0.828600
0.971120 0.971120 0.871120
0.043320 0.043320 0.193320
0.135840 0.085840 0.235840
0.228360 0.128360 0.278360
0.320880 0.170880 0.320880
0.413400 0.213400 0.363400
0.186360 0.236360 0.336360
0.278880 0.278880 0.378880
0.371400 0.321400 0.421400
0.463920 0.363920 0.463920
0.556440 0.406440 0.506440
0.329400 0.429400 0.479400
0.421920 0.471920 0.521920
0.514440 0.514440 0.564440
0.606960 0.556960 0.606960
0.699480 0.599480 0.649480
0.472440 0.622440 0.622440
0.564960 0.664960 0.664960
0.657480 0.707480 0.707480
0.750000 0.750000 0.750000
0.842520 0.792520 0.792520
0.615480 0.815480 0.765480
0.708000 0.858000 0.808000
0.800520 0.900520 0.850520
0.893040 0.943040 0.893040
0.985560 0.985560 0.935560
0.057760 0.057760 0.257760
0.150280 0.100280 0.300280
0.242800 0.142800 0.342800
0.335320 0.185320 0.385320
0.427840 0.227840 0.427840
0.200800 0.250800 0.400800
0.293320 0.293320 0.443320
0.385840 0.335840 0.485840
0.478360 0.378360 0.528360
0.570880 0.420880 0.570880
0.343840 0.443840 0.543840
0.436360 0.486360 0.586360
0.528880 0.528880 0.628880
0.621400 0.571400 0.671400
0.713920 0.613920 0.713920
0.486880 0.636880 0.686880
0.579400 0.679400 0.729400
0.671920 0.721920 0.771920
0.764440 0.764440 0.814440
0.856960 0.806960 0.856960
0.629920 0.829920 0.829920
0.722440 0.872440 0.872440
0.814960 0.914960 0.914960
0.907480 0.957480 0.957480
1.000000 1.000000 1.000000
