lut-visualizer/public/data/sample_luts/green_push.cube
LUT_3D_SIZE 9
DOMAIN_MIN 0.0 0.0 0.0
DOMAIN_MAX 1.0 1.0 1.0
0.000000 0.000000 0.000000
0.112500 0.000000 0.000000
0.225000 0.000000 0.000000
0.337500 0.000000 0.000000
0.450000 0.000000 0.000000
0.562500 0.000000 0.000000
0.675000 0.000000 0.000000
0.787500 0.000000 0.000000
0.900000 0.000000 0.000000
0.000000 0.135000 0.000000
0.112500 0.135000 0.000000
0.225000 0.135000 0.000000
0.337500 0.135000 0.000000
0.450000 0.135000 0.000000
0.562500 0.135000 0.000000
0.675000 0.135000 0.000000
0.787500 0.135000 0.000000
0.900000 0.135000 0.000000
0.000000 0.270000 0.000000
0.112500 0.270000 0.000000
0.225000 0.270000 0.000000
0.337500 0.270000 0.000000
0.450000 0.270000 0.000000
0.562500 0.270000 0.000000
0.675000 0.270000 0.000000
0.787500 0.270000 0.000000
0.900000 0.270000 0.000000
0.000000 0.405000 0.000000
0.112500 0.405000 0.000000
0.225000 0.405000 0.000000
0.337500 0.405000 0.000000
0.450000 0.405000 0.000000
0.562500 0.405000 0.000000
0.675000 0.405000 0.000000
0.787500 0.405000 0.000000
0.900000 0.405000 0.000000
0.000000 0.540000 0.000000
0.112500 0.540000 0.000000
0.225000 0.540000 0.000000
0.337500 0.540000 0.000000
0.450000 0.540000 0.000000
0.562500 0.540000 0.000000
0.675000 0.540000 0.000000
0.787500 0.540000 0.000000
0.900000 0.540000 0.000000
0.000000 0.675000 0.000000
0.112500 0.675000 0.000000
0.225000 0.675000 0.000000
0.337500 0.675000 0.000000
0.450000 0.675000 0.000000
0.562500 0.675000 0.000000
0.675000 0.675000 0.000000
0.787500 0.675000 0.000000
0.900000 0.675000 0.000000
0.000000 0.810000 0.000000
0.112500 0.810000 0.000000
0.225000 0.810000 0.000000
0.337500 0.810000 0.000000
0.450000 0.810000 0.000000
0.562500 0.810000 0.000000
0.675000 0.810000 0.000000
0.787500 0.810000 0.000000
0.900000 0.810000 0.000000
0.000000 0.945000 0.000000
0.112500 0.945000 0.000000
0.225000 0.945000 0.000000
0.337500 0.945000 0.000000
0.450000 0.945000 0.000000
0.562500 0.945000 0.000000
0.675000 0.945000 0.000000
0.787500 0.945000 0.000000
0.900000 0.945000 0.000000
0.000000 1.000000 0.000000
0.112500 1.000000 0.000000
0.225000 1.000000 0.000000
0.337500 1.000000 0.000000
0.450000 1.000000 0.000000
0.562500 1.000000 0.000000
0.675000 1.000000 0.000000
0.787500 1.000000 0.000000
0.900000 1.000000 0.000000
0.000000 0.000000 0.110000
0.112500 0.000000 0.110000
0.225000 0.000000 0.110000
0.337500 0.000000 0.110000
0.450000 0.000000 0.110000
0.562500 0.000000 0.110000
0.675000 0.000000 0.110000
0.787500 0.000000 0.110000
0.900000 0.000000 0.110000
0.000000 0.135000 0.110000
0.112500 0.135000 0.110000
0.225000 0.135000 0.110000
0.337500 0.135000 0.110000
0.450000 0.135000 0.110000
0.562500 0.135000 0.110000
0.675000 0.135000 0.110000
0.787500 0.135000 0.110000
0.900000 0.135000 0.110000
0.000000 0.270000 0.110000
0.112500 0.270000 0.110000
0.225000 0.270000 0.110000
0.337500 0.270000 0.110000
0.450000 0.270000 0.110000
0.562500 0.270000 0.110000
0.675000 0.270000 0.110000
0.787500 0.270000 0.110000
0.900000 0.270000 0.110000
0.000000 0.405000 0.110000
0.112500 0.405000 0.110000
0.225000 0.405000 0.110000
0.337500 0.405000 0.110000
0.450000 0.405000 0.110000
0.562500 0.405000 0.110000
0.675000 0.405000 0.110000
0.787500 0.405000 0.110000
0.900000 0.405000 0.110000
0.000000 0.540000 0.110000
0.112500 0.540000 0.110000
0.225000 0.540000 0.110000
0.337500 0.540000 0.110000
0.450000 0.540000 0.110000
0.562500 0.540000 0.110000
0.675000 0.540000 0.110000
0.787500 0.540000 0.110000
0.900000 0.540000 0.110000
0.000000 0.675000 0.110000
0.112500 0.675000 0.110000
0.225000 0.675000 0.110000
0.337500 0.675000 0.110000
0.450000 0.675000 0.110000
0.562500 0.675000 0.110000
0.675000 0.675000 0.110000
0.787500 0.675000 0.110000
0.900000 0.675000 0.110000
0.000000 0.810000 0.110000
0.112500 0.810000 0.110000
0.225000 0.810000 0.110000
0.337500 0.810000 0.110000
0.450000 0.810000 0.110000
0.562500 0.810000 0.110000
0.675000 0.810000 0.110000
0.787500 0.810000 0.110000
0.900000 0.810000 0.110000
0.000000 0.945000 0.110000
0.112500 0.945000 0.110000
0.225000 0.945000 0.110000
0.337500 0.945000 0.110000
0.450000 0.945000 0.110000
0.562500 0.945000 0.110000
0.675000 0.945000 0.110000
0.787500 0.945000 0.110000
0.900000 0.945000 0.110000
0.000000 1.000000 0.110000
0.112500 1.000000 0.110000
0.225000 1.000000 0.110000
0.337500 1.000000 0.110000
0.450000 1.000000 0.110000
0.562500 1.000000 0.110000
0.675000 1.000000 0.110000
0.787500 1.000000 0.110000
0.900000 1.000000 0.110000
0.000000 0.000000 0.220000
0.112500 0.000000 0.220000
0.225000 0.000000 0.220000
0.337500 0.000000 0.220000
0.450000 0.000000 0.220000
0.562500 0.000000 0.220000
0.675000 0.000000 0.220000
0.787500 0.000000 0.220000
0.900000 0.000000 0.220000
0.000000 0.135000 0.220000
0.112500 0.135000 0.220000
0.225000 0.135000 0.220000
0.337500 0.135000 0.220000
0.450000 0.135000 0.220000
0.562500 0.135000 0.220000
0.675000 0.135000 0.220000
0.787500 0.135000 0.220000
0.900000 0.135000 0.220000
0.000000 0.270000 0.220000
0.112500 0.270000 0.220000
0.225000 0.270000 0.220000
0.337500 0.270000 0.220000
0.450000 0.270000 0.220000
0.562500 0.270000 0.220000
0.675000 0.270000 0.220000
0.787500 0.270000 0.220000
0.900000 0.270000 0.220000
0.000000 0.405000 0.220000
0.112500 0.405000 0.220000
0.225000 0.405000 0.220000
0.337500 0.405000 0.220000
0.450000 0.405000 0.220000
0.562500 0.405000 0.220000
0.675000 0.405000 0.220000
0.787500 0.405000 0.220000
0.900000 0.405000 0.220000
0.000000 0.540000 0.220000
0.112500 0.540000 0.220000
0.225000 0.540000 0.220000
0.337500 0.540000 0.220000
0.450000 0.540000 0.220000
0.562500 0.540000 0.220000
0.675000 0.540000 0.220000
0.787500 0.540000 0.220000
0.900000 0.540000 0.220000
0.000000 0.675000 0.220000
0.112500 0.675000 0.220000
0.225000 0.675000 0.220000
0.337500 0.675000 0.220000
0.450000 0.675000 0.220000
0.562500 0.675000 0.220000
0.675000 0.675000 0.220000
0.787500 0.675000 0.220000
0.900000 0.675000 0.220000
0.000000 0.810000 0.220000
0.112500 0.810000 0.220000
0.225000 0.810000 0.220000
0.337500 0.810000 0.220000
0.450000 0.810000 0.220000
0.562500 0.810000 0.220000
0.675000 0.810000 0.220000
0.787500 0.810000 0.220000
0.900000 0.810000 0.220000
0.000000 0.945000 0.220000
0.112500 0.945000 0.220000
0.225000 0.945000 0.220000
0.337500 0.945000 0.220000
0.450000 0.945000 0.220000
0.562500 0.945000 0.220000
0.675000 0.945000 0.220000
0.787500 0.945000 0.220000
0.900000 0.945000 0.220000
0.000000 1.000000 0.220000
0.112500 1.000000 0.220000
0.225000 1.000000 0.220000
0.337500 1.000000 0.220000
0.450000 1.000000 0.220000
0.562500 1.000000 0.220000
0.675000 1.000000 0.220000
0.787500 1.000000 0.220000
0.900000 1.000000 0.220000
0.000000 0.000000 0.330000
0.112500 0.000000 0.330000
0.225000 0.000000 0.330000
0.337500 0.000000 0.330000
0.450000 0.000000 0.330000
0.562500 0.000000 0.330000
0.675000 0.000000 0.330000
0.787500 0.000000 0.330000
0.900000 0.000000 0.330000
0.000000 0.135000 0.330000
0.112500 0.135000 0.330000
0.225000 0.135000 0.330000
0.337500 0.135000 0.330000
0.450000 0.135000 0.330000
0.562500 0.135000 0.330000
0.675000 0.135000 0.330000
0.787500 0.135000 0.330000
0.900000 0.135000 0.330000
0.000000 0.270000 0.330000
0.112500 0.270000 0.330000
0.225000 0.270000 0.330000
0.337500 0.270000 0.330000
0.450000 0.270000 0.330000
0.562500 0.270000 0.330000
0.675000 0.270000 0.330000
0.787500 0.270000 0.330000
0.900000 0.270000 0.330000
0.000000 0.405000 0.330000
0.112500 0.405000 0.330000
0.225000 0.405000 0.330000
0.337500 0.405000 0.330000
0.450000 0.405000 0.330000
0.562500 0.405000 0.330000
0.675000 0.405000 0.330000
0.787500 0.405000 0.330000
0.900000 0.405000 0.330000
0.000000 0.540000 0.330000
0.112500 0.540000 0.330000
0.225000 0.540000 0.330000
0.337500 0.540000 0.330000
0.450000 0.540000 0.330000
0.562500 0.540000 0.330000
0.675000 0.540000 0.330000
0.787500 0.540000 0.330000
0.900000 0.540000 0.330000
0.000000 0.675000 0.330000
0.112500 0.675000 0.330000
0.225000 0.675000 0.330000
0.337500 0.675000 0.330000
0.450000 0.675000 0.330000
0.562500 0.675000 0.330000
0.675000 0.675000 0.330000
0.787500 0.675000 0.330000
0.900000 0.675000 0.330000
0.000000 0.810000 0.330000
0.112500 0.810000 0.330000
0.225000 0.810000 0.330000
0.337500 0.810000 0.330000
0.450000 0.810000 0.330000
0.562500 0.810000 0.330000
0.675000 0.810000 0.330000
0.787500 0.810000 0.330000
0.900000 0.810000 0.330000
0.000000 0.945000 0.330000
0.112500 0.945000 0.330000
0.225000 0.945000 0.330000
0.337500 0.945000 0.330000
0.450000 0.945000 0.330000
0.562500 0.945000 0.330000
0.675000 0.945000 0.330000
0.787500 0.945000 0.330000
0.900000 0.945000 0.330000
0.000000 1.000000 0.330000
0.112500 1.000000 0.330000
0.225000 1.000000 0.330000
0.337500 1.000000 0.330000
0.450000 1.000000 0.330000
0.562500 1.000000 0.330000
0.675000 1.000000 0.330000
0.787500 1.000000 0.330000
0.900000 1.000000 0.330000
0.000000 0.000000 0.440000
0.112500 0.000000 0.440000
0.225000 0.000000 0.440000
0.337500 0.000000 0.440000
0.450000 0.000000 0.440000
0.562500 0.000000 0.440000
0.675000 0.000000 0.440000
0.787500 0.000000 0.440000
0.900000 0.000000 0.440000
0.000000 0.135000 0.440000
0.112500 0.135000 0.440000
0.225000 0.135000 0.440000
0.337500 0.135000 0.440000
0.450000 0.135000 0.440000
0.562500 0.135000 0.440000
0.675000 0.135000 0.440000
0.787500 0.135000 0.440000
0.900000 0.135000 0.440000
0.000000 0.270000 0.440000
0.112500 0.270000 0.440000
0.225000 0.270000 0.440000
0.337500 0.270000 0.440000
0.450000 0.270000 0.440000
0.562500 0.270000 0.440000
0.675000 0.270000 0.440000
0.787500 0.270000 0.440000
0.900000 0.270000 0.440000
0.000000 0.405000 0.440000
0.112500 0.405000 0.440000
0.225000 0.405000 0.440000
0.337500 0.405000 0.440000
0.450000 0.405000 0.440000
0.562500 0.405000 0.440000
0.675000 0.405000 0.440000
0.787500 0.405000 0.440000
0.900000 0.405000 0.440000
0.000000 0.540000 0.440000
0.112500 0.540000 0.440000
0.225000 0.540000 0.440000
0.337500 0.540000 0.440000
0.450000 0.540000 0.440000
0.562500 0.540000 0.440000
0.675000 0.540000 0.440000
0.787500 0.540000 0.440000
0.900000 0.540000 0.440000
0.000000 0.675000 0.440000
0.112500 0.675000 0.440000
0.225000 0.675000 0.440000
0.337500 0.675000 0.440000
0.450000 0.675000 0.440000
0.562500 0.675000 0.440000
0.675000 0.675000 0.440000
0.787500 0.675000 0.440000
0.900000 0.675000 0.440000
0.000000 0.810000 0.440000
0.112500 0.810000 0.440000
0.225000 0.810000 0.440000
0.337500 0.810000 0.440000
0.450000 0.810000 0.440000
0.562500 0.810000 0.440000
0.675000 0.810000 0.440000
0.787500 0.810000 0.440000
0.900000 0.810000 0.440000
0.000000 0.945000 0.440000
0.112500 0.945000 0.440000
0.225000 0.945000 0.440000
0.337500 0.945000 0.440000
0.450000 0.945000 0.440000
0.562500 0.945000 0.440000
0.675000 0.945000 0.440000
0.787500 0.945000 0.440000
0.900000 0.945000 0.440000
0.000000 1.000000 0.440000
0.112500 1.000000 0.440000
0.225000 1.000000 0.440000
0.337500 1.000000 0.440000
0.450000 1.000000 0.440000
0.562500 1.000000 0.440000
0.675000 1.000000 0.440000
0.787500 1.000000 0.440000
0.900000 1.000000 0.440000
0.000000 0.000000 0.550000
0.112500 0.000000 0.550000
0.225000 0.000000 0.550000
0.337500 0.000000 0.550000
0.450000 0.000000 0.550000
0.562500 0.000000 0.550000
0.675000 0.000000 0.550000
0.787500 0.000000 0.550000
0.900000 0.000000 0.550000
0.000000 0.135000 0.550000
0.112500 0.135000 0.550000
0.225000 0.135000 0.550000
0.337500 0.135000 0.550000
0.450000 0.135000 0.550000
0.562500 0.135000 0.550000
0.675000 0.135000 0.550000
0.787500 0.135000 0.550000
0.900000 0.135000 0.550000
0.000000 0.270000 0.550000
0.112500 0.270000 0.550000
0.225000 0.270000 0.550000
0.337500 0.270000 0.550000
0.450000 0.270000 0.550000
0.562500 0.270000 0.550000
0.675000 0.270000 0.550000
0.787500 0.270000 0.550000
0.900000 0.270000 0.550000
0.000000 0.405000 0.550000
0.112500 0.405000 0.550000
0.225000 0.405000 0.550000
0.337500 0.405000 0.550000
0.450000 0.405000 0.550000
0.562500 0.405000 0.550000
0.675000 0.405000 0.550000
0.787500 0.405000 0.550000
0.900000 0.405000 0.550000
0.000000 0.540000 0.550000
0.112500 0.540000 0.550000
0.225000 0.540000 0.550000
0.337500 0.540000 0.550000
0.450000 0.540000 0.550000
0.562500 0.540000 0.550000
0.675000 0.540000 0.550000
0.787500 0.540000 0.550000
0.900000 0.540000 0.550000
0.000000 0.675000 0.550000
0.112500 0.675000 0.550000
0.225000 0.675000 0.550000
0.337500 0.675000 0.550000
0.450000 0.675000 0.550000
0.562500 0.675000 0.550000
0.675000 0.675000 0.550000
0.787500 0.675000 0.550000
0.900000 0.675000 0.550000
0.000000 0.810000 0.550000
0.112500 0.810000 0.550000
0.225000 0.810000 0.550000
0.337500 0.810000 0.550000
0.450000 0.810000 0.550000
0.562500 0.810000 0.550000
0.675000 0.810000 0.550000
0.787500 0.810000 0.550000
0.900000 0.810000 0.550000
0.000000 0.945000 0.550000
0.112500 0.945000 0.550000
0.225000 0.945000 0.550000
0.337500 0.945000 0.550000
0.450000 0.945000 0.550000
0.562500 0.945000 0.550000
0.675000 0.945000 0.550000
0.787500 0.945000 0.550000
0.900000 0.945000 0.550000
0.000000 1.000000 0.550000
0.112500 1.000000 0.550000
0.225000 1.000000 0.550000
0.337500 1.000000 0.550000
0.450000 1.000000 0.550000
0.562500 1.000000 0.550000
0.675000 1.000000 0.550000
0.787500 1.000000 0.550000
0.900000 1.000000 0.550000
0.000000 0.000000 0.660000
0.112500 0.000000 0.660000
0.225000 0.000000 0.660000
0.337500 0.000000 0.660000
0.450000 0.000000 0.660000
0.562500 0.000000 0.660000
0.675000 0.000000 0.660000
0.787500 0.000000 0.660000
0.900000 0.000000 0.660000
0.000000 0.135000 0.660000
0.112500 0.135000 0.660000
0.225000 0.135000 0.660000
0.337500 0.135000 0.660000
0.450000 0.135000 0.660000
0.562500 0.135000 0.660000
0.675000 0.135000 0.660000
0.787500 0.135000 0.660000
0.900000 0.135000 0.660000
0.000000 0.270000 0.660000
0.112500 0.270000 0.660000
0.225000 0.270000 0.660000
0.337500 0.270000 0.660000
0.450000 0.270000 0.660000
0.562500 0.270000 0.660000
0.675000 0.270000 0.660000
0.787500 0.270000 0.660000
0.900000 0.270000 0.660000
0.000000 0.405000 0.660000
0.112500 0.405000 0.660000
0.225000 0.405000 0.660000
0.337500 0.405000 0.660000
0.450000 0.405000 0.660000
0.562500 0.405000 0.660000
0.675000 0.405000 0.660000
0.787500 0.405000 0.660000
0.900000 0.405000 0.660000
0.000000 0.540000 0.660000
0.112500 0.540000 0.660000
0.225000 0.540000 0.660000
0.337500 0.540000 0.660000
0.450000 0.540000 0.660000
0.562500 0.540000 0.660000
0.675000 0.540000 0.660000
0.787500 0.540000 0.660000
0.900000 0.540000 0.660000
0.000000 0.675000 0.660000
0.112500 0.675000 0.660000
0.225000 0.675000 0.660000
0.337500 0.675000 0.660000
0.450000 0.675000 0.660000
0.562500 0.675000 0.660000
0.675000 0.675000 0.660000
0.787500 0.675000 0.660000
0.900000 0.675000 0.660000
0.000000 0.810000 0.660000
0.112500 0.810000 0.660000
0.225000 0.810000 0.660000
0.337500 0.810000 0.660000
0.450000 0.810000 0.660000
0.562500 0.810000 0.660000
0.675000 0.810000 0.660000
0.787500 0.810000 0.660000
0.900000 0.810000 0.660000
0.000000 0.945000 0.660000
0.112500 0.945000 0.660000
0.225000 0.945000 0.660000
0.337500 0.945000 0.660000
0.450000 0.945000 0.660000
0.562500 0.945000 0.660000
0.675000 0.945000 0.660000
0.787500 0.945000 0.660000
0.900000 0.945000 0.660000
0.000000 1.000000 0.660000
0.112500 1.000000 0.660000
0.225000 1.000000 0.660000
0.337500 1.000000 0.660000
0.450000 1.000000 0.660000
0.562500 1.000000 0.660000
0.675000 1.000000 0.660000
0.787500 1.000000 0.660000
0.900000 1.000000 0.660000
0.000000 0.000000 0.770000
0.112500 0.000000 0.770000
0.225000 0.000000 0.770000
0.337500 0.000000 0.770000
0.450000 0.000000 0.770000
0.562500 0.000000 0.770000
0.675000 0.000000 0.770000
0.787500 0.000000 0.770000
0.900000 0.000000 0.770000
0.000000 0.135000 0.770000
0.112500 0.135000 0.770000
0.225000 0.135000 0.770000
0.337500 0.135000 0.770000
0.450000 0.135000 0.770000
0.562500 0.135000 0.770000
0.675000 0.135000 0.770000
0.787500 0.135000 0.770000
0.900000 0.135000 0.770000
0.000000 0.270000 0.770000
0.112500 0.270000 0.770000
0.225000 0.270000 0.770000
0.337500 0.270000 0.770000
0.450000 0.270000 0.770000
0.562500 0.270000 0.770000
0.675000 0.270000 0.770000
0.787500 0.270000 0.770000
0.900000 0.270000 0.770000
0.000000 0.405000 0.770000
0.112500 0.405000 0.770000
0.225000 0.405000 0.770000
0.337500 0.405000 0.770000
0.450000 0.405000 0.770000
0.562500 0.405000 0.770000
0.675000 0.405000 0.770000
0.787500 0.405000 0.770000
0.900000 0.405000 0.770000
0.000000 0.540000 0.770000
0.112500 0.540000 0.770000
0.225000 0.540000 0.770000
0.337500 0.540000 0.770000
0.450000 0.540000 0.770000
0.562500 0.540000 0.770000
0.675000 0.540000 0.770000
0.787500 0.540000 0.770000
0.900000 0.540000 0.770000
0.000000 0.675000 0.770000
0.112500 0.675000 0.770000
0.225000 0.675000 0.770000
0.337500 0.675000 0.770000
0.450000 0.675000 0.770000
0.562500 0.675000 0.770000
0.675000 0.675000 0.770000
0.787500 0.675000 0.770000
0.900000 0.675000 0.770000
0.000000 0.810000 0.770000
0.112500 0.810000 0.770000
0.225000 0.810000 0.770000
0.337500 0.810000 0.770000
0.450000 0.810000 0.770000
0.562500 0.810000 0.770000
0.675000 0.810000 0.770000
0.787500 0.810000 0.770000
0.900000 0.810000 0.770000
0.000000 0.945000 0.770000
0.112500 0.945000 0.770000
0.225000 0.945000 0.770000
0.337500 0.945000 0.770000
0.450000 0.945000 0.770000
0.562500 0.945000 0.770000
0.675000 0.945000 0.770000
0.787500 0.945000 0.770000
0.900000 0.945000 0.770000
0.000000 1.000000 0.770000
0.112500 1.000000 0.770000
0.225000 1.000000 0.770000
0.337500 1.000000 0.770000
0.450000 1.000000 0.770000
0.562500 1.000000 0.770000
0.675000 1.000000 0.770000
0.787500 1.000000 0.770000
0.900000 1.000000 0.770000
0.000000 0.000000 0.880000
0.112500 0.000000 0.880000
0.225000 0.000000 0.880000
0.337500 0.000000 0.880000
0.450000 0.000000 0.880000
0.562500 0.000000 0.880000
0.675000 0.000000 0.880000
0.787500 0.000000 0.880000
0.900000 0.000000 0.880000
0.000000 0.135000 0.880000
0.112500 0.135000 0.880000
0.225000 0.135000 0.880000
0.337500 0.135000 0.880000
0.450000 0.135000 0.880000
0.562500 0.135000 0.880000
0.675000 0.135000 0.880000
0.787500 0.135000 0.880000
0.900000 0.135000 0.880000
0.000000 0.270000 0.880000
0.112500 0.270000 0.880000
0.225000 0.270000 0.880000
0.337500 0.270000 0.880000
0.450000 0.270000 0.880000
0.562500 0.270000 0.880000
0.675000 0.270000 0.880000
0.787500 0.270000 0.880000
0.900000 0.270000 0.880000
0.000000 0.405000 0.880000
0.112500 0.405000 0.880000
0.225000 0.405000 0.880000
0.337500 0.405000 0.880000
0.450000 0.405000 0.880000
0.562500 0.405000 0.880000
0.675000 0.405000 0.880000
0.787500 0.405000 0.880000
0.900000 0.405000 0.880000
0.000000 0.540000 0.880000
0.112500 0.540000 0.880000
0.225000 0.540000 0.880000
0.337500 0.540000 0.880000
0.450000 0.540000 0.880000
0.562500 0.540000 0.880000
0.675000 0.540000 0.880000
0.787500 0.540000 0.880000
0.900000 0.540000 0.880000
0.000000 0.675000 0.880000
0.112500 0.675000 0.880000
0.225000 0.675000 0.880000
0.337500 0.675000 0.880000
0.450000 0.675000 0.880000
0.562500 0.675000 0.880000
0.675000 0.675000 0.880000
0.787500 0.675000 0.880000
0.900000 0.675000 0.880000
0.000000 0.810000 0.880000
0.112500 0.810000 0.880000
0.225000 0.810000 0.880000
0.337500 0.810000 0.880000
0.450000 0.810000 0.880000
0.562500 0.810000 0.880000
0.675000 0.810000 0.880000
0.787500 0.810000 0.880000
0.900000 0.810000 0.880000
0.000000 0.945000 0.880000
0.112500 0.945000 0.880000
0.225000 0.945000 0.880000
0.337500 0.945000 0.880000
0.450000 0.945000 0.880000
0.562500 0.945000 0.880000
0.675000 0.945000 0.880000
0.787500 0.945000 0.880000
0.900000 0.945000 0.880000
0.000000 1.000000 0.880000
0.112500 1.000000 0.880000
0.225000 1.000000 0.880000
0.337500 1.000000 0.880000
0.450000 1.000000 0.880000
0.562500 1.000000 0.880000
0.675000 1.000000 0.880000
0.787500 1.000000 0.880000
0.900000 1.000000 0.880000
