lut-visualizer/public/data/sample_luts/green_push.cube
LUT_3D_SIZE 17
DOMAIN_MIN 0.0 0.0 0.0
DOMAIN_MAX 1.0 1.0 1.0
0.000000 0.000000 0.000000
0.056250 0.000000 0.000000
0.112500 0.000000 0.000000
0.168750 0.000000 0.000000
0.225000 0.000000 0.000000
0.281250 0.000000 0.000000
0.337500 0.000000 0.000000
0.393750 0.000000 0.000000
0.450000 0.000000 0.000000
0.506250 0.000000 0.000000
0.562500 0.000000 0.000000
0.618750 0.000000 0.000000
0.675000 0.000000 0.000000
0.731250 0.000000 0.000000
0.787500 0.000000 0.000000
0.843750 0.000000 0.000000
0.900000 0.000000 0.000000
0.000000 0.067500 0.000000
0.056250 0.067500 0.000000
0.112500 0.067500 0.000000
0.168750 0.067500 0.000000
0.225000 0.067500 0.000000
0.281250 0.067500 0.000000
0.337500 0.067500 0.000000
0.393750 0.067500 0.000000
0.450000 0.067500 0.000000
0.506250 0.067500 0.000000
0.562500 0.067500 0.000000
0.618750 0.067500 0.000000
0.675000 0.067500 0.000000
0.731250 0.067500 0.000000
0.787500 0.067500 0.000000
0.843750 0.067500 0.000000
0.900000 0.067500 0.000000
0.000000 0.135000 0.000000
0.056250 0.135000 0.000000
0.112500 0.135000 0.000000
0.168750 0.135000 0.000000
0.225000 0.135000 0.000000
0.281250 0.135000 0.000000
0.337500 0.135000 0.000000
0.393750 0.135000 0.000000
0.450000 0.135000 0.000000
0.506250 0.135000 0.000000
0.562500 0.135000 0.000000
0.618750 0.135000 0.000000
0.675000 0.135000 0.000000
0.731250 0.135000 0.000000
0.787500 0.135000 0.000000
0.843750 0.135000 0.000000
0.900000 0.135000 0.000000
0.000000 0.202500 0.000000
0.056250 0.202500 0.000000
0.112500 0.202500 0.000000
0.168750 0.202500 0.000000
0.225000 0.202500 0.000000
0.281250 0.202500 0.000000
0.337500 0.202500 0.000000
0.393750 0.202500 0.000000
0.450000 0.202500 0.000000
0.506250 0.202500 0.000000
0.562500 0.202500 0.000000
0.618750 0.202500 0.000000
0.675000 0.202500 0.000000
0.731250 0.202500 0.000000
0.787500 0.202500 0.000000
0.843750 0.202500 0.000000
0.900000 0.202500 0.000000
0.000000 0.270000 0.000000
0.056250 0.270000 0.000000
0.112500 0.270000 0.000000
0.168750 0.270000 0.000000
0.225000 0.270000 0.000000
0.281250 0.270000 0.000000
0.337500 0.270000 0.000000
0.393750 0.270000 0.000000
0.450000 0.270000 0.000000
0.506250 0.270000 0.000000
0.562500 0.270000 0.000000
0.618750 0.270000 0.000000
0.675000 0.270000 0.000000
0.731250 0.270000 0.000000
0.787500 0.270000 0.000000
0.843750 0.270000 0.000000
0.900000 0.270000 0.000000
0.000000 0.337500 0.000000
0.056250 0.337500 0.000000
0.112500 0.337500 0.000000
0.168750 0.337500 0.000000
0.225000 0.337500 0.000000
0.281250 0.337500 0.000000
0.337500 0.337500 0.000000
0.393750 0.337500 0.000000
0.450000 0.337500 0.000000
0.506250 0.337500 0.000000
0.562500 0.337500 0.000000
0.618750 0.337500 0.000000
0.675000 0.337500 0.000000
0.731250 0.337500 0.000000
0.787500 0.337500 0.000000
0.843750 0.337500 0.000000
0.900000 0.337500 0.000000
0.000000 0.405000 0.000000
0.056250 0.405000 0.000000
0.112500 0.405000 0.000000
0.168750 0.405000 0.000000
0.225000 0.405000 0.000000
0.281250 0.405000 0.000000
0.337500 0.405000 0.000000
0.393750 0.405000 0.000000
0.450000 0.405000 0.000000
0.506250 0.405000 0.000000
0.562500 0.405000 0.000000
0.618750 0.405000 0.000000
0.675000 0.405000 0.000000
0.731250 0.405000 0.000000
0.787500 0.405000 0.000000
0.843750 0.405000 0.000000
0.900000 0.405000 0.000000
0.000000 0.472500 0.000000
0.056250 0.472500 0.000000
0.112500 0.472500 0.000000
0.168750 0.472500 0.000000
0.225000 0.472500 0.000000
0.281250 0.472500 0.000000
0.337500 0.472500 0.000000
0.393750 0.472500 0.000000
0.450000 0.472500 0.000000
0.506250 0.472500 0.000000
0.562500 0.472500 0.000000
0.618750 0.472500 0.000000
0.675000 0.472500 0.000000
0.731250 0.472500 0.000000
0.787500 0.472500 0.000000
0.843750 0.472500 0.000000
0.900000 0.472500 0.000000
0.000000 0.540000 0.000000
0.056250 0.540000 0.000000
0.112500 0.540000 0.000000
0.168750 0.540000 0.000000
0.225000 0.540000 0.000000
0.281250 0.540000 0.000000
0.337500 0.540000 0.000000
0.393750 0.540000 0.000000
0.450000 0.540000 0.000000
0.506250 0.540000 0.000000
0.562500 0.540000 0.000000
0.618750 0.540000 0.000000
0.675000 0.540000 0.000000
0.731250 0.540000 0.000000
0.787500 0.540000 0.000000
0.843750 0.540000 0.000000
0.900000 0.540000 0.000000
0.000000 0.607500 0.000000
0.056250 0.607500 0.000000
0.112500 0.607500 0.000000
0.168750 0.607500 0.000000
0.225000 0.607500 0.000000
0.281250 0.607500 0.000000
0.337500 0.607500 0.000000
0.393750 0.607500 0.000000
0.450000 0.607500 0.000000
0.506250 0.607500 0.000000
0.562500 0.607500 0.000000
0.618750 0.607500 0.000000
0.675000 0.607500 0.000000
0.731250 0.607500 0.000000
0.787500 0.607500 0.000000
0.843750 0.607500 0.000000
0.900000 0.607500 0.000000
0.000000 0.675000 0.000000
0.056250 0.675000 0.000000
0.112500 0.675000 0.000000
0.168750 0.675000 0.000000
0.225000 0.675000 0.000000
0.281250 0.675000 0.000000
0.337500 0.675000 0.000000
0.393750 0.675000 0.000000
0.450000 0.675000 0.000000
0.506250 0.675000 0.000000
0.562500 0.675000 0.000000
0.618750 0.675000 0.000000
0.675000 0.675000 0.000000
0.731250 0.675000 0.000000
0.787500 0.675000 0.000000
0.843750 0.675000 0.000000
0.900000 0.675000 0.000000
0.000000 0.742500 0.000000
0.056250 0.742500 0.000000
0.112500 0.742500 0.000000
0.168750 0.742500 0.000000
0.225000 0.742500 0.000000
0.281250 0.742500 0.000000
0.337500 0.742500 0.000000
0.393750 0.742500 0.000000
0.450000 0.742500 0.000000
0.506250 0.742500 0.000000
0.562500 0.742500 0.000000
0.618750 0.742500 0.000000
0.675000 0.742500 0.000000
0.731250 0.742500 0.000000
0.787500 0.742500 0.000000
0.843750 0.742500 0.000000
0.900000 0.742500 0.000000
0.000000 0.810000 0.000000
0.056250 0.810000 0.000000
0.112500 0.810000 0.000000
0.168750 0.810000 0.000000
0.225000 0.810000 0.000000
0.281250 0.810000 0.000000
0.337500 0.810000 0.000000
0.393750 0.810000 0.000000
0.450000 0.810000 0.000000
0.506250 0.810000 0.000000
0.562500 0.810000 0.000000
0.618750 0.810000 0.000000
0.675000 0.810000 0.000000
0.731250 0.810000 0.000000
0.787500 0.810000 0.000000
0.843750 0.810000 0.000000
0.900000 0.810000 0.000000
0.000000 0.877500 0.000000
0.056250 0.877500 0.000000
0.112500 0.877500 0.000000
0.168750 0.877500 0.000000
0.225000 0.877500 0.000000
0.281250 0.877500 0.000000
0.337500 0.877500 0.000000
0.393750 0.877500 0.000000
0.450000 0.877500 0.000000
0.506250 0.877500 0.000000
0.562500 0.877500 0.000000
0.618750 0.877500 0.000000
0.675000 0.877500 0.000000
0.731250 0.877500 0.000000
0.787500 0.877500 0.000000
0.843750 0.877500 0.000000
0.900000 0.877500 0.000000
0.000000 0.945000 0.000000
0.056250 0.945000 0.000000
0.112500 0.945000 0.000000
0.168750 0.945000 0.000000
0.225000 0.945000 0.000000
0.281250 0.945000 0.000000
0.337500 0.945000 0.000000
0.393750 0.945000 0.000000
0.450000 0.945000 0.000000
0.506250 0.945000 0.000000
0.562500 0.945000 0.000000
0.618750 0.945000 0.000000
0.675000 0.945000 0.000000
0.731250 0.945000 0.000000
0.787500 0.945000 0.000000
0.843750 0.945000 0.000000
0.900000 0.945000 0.000000
0.000000 1.000000 0.000000
0.056250 1.000000 0.000000
0.112500 1.000000 0.000000
0.168750 1.000000 0.000000
0.225000 1.000000 0.000000
0.281250 1.000000 0.000000
0.337500 1.000000 0.000000
0.393750 1.000000 0.000000
0.450000 1.000000 0.000000
0.506250 1.000000 0.000000
0.562500 1.000000 0.000000
0.618750 1.000000 0.000000
0.675000 1.000000 0.000000
0.731250 1.000000 0.000000
0.787500 1.000000 0.000000
0.843750 1.000000 0.000000
0.900000 1.000000 0.000000
0.000000 1.000000 0.000000
0.056250 1.000000 0.000000
0.112500 1.000000 0.000000
0.168750 1.000000 0.000000
0.225000 1.000000 0.000000
0.281250 1.000000 0.000000
0.337500 1.000000 0.000000
0.393750 1.000000 0.000000
0.450000 1.000000 0.000000
0.506250 1.000000 0.000000
0.562500 1.000000 0.000000
0.618750 1.000000 0.000000
0.675000 1.000000 0.000000
0.731250 1.000000 0.000000
0.787500 1.000000 0.000000
0.843750 1.000000 0.000000
0.900000 1.000000 0.000000
0.000000 0.000000 0.055000
0.056250 0.000000 0.055000
0.112500 0.000000 0.055000
0.168750 0.000000 0.055000
0.225000 0.000000 0.055000
0.281250 0.000000 0.055000
0.337500 0.000000 0.055000
0.393750 0.000000 0.055000
0.450000 0.000000 0.055000
0.506250 0.000000 0.055000
0.562500 0.000000 0.055000
0.618750 0.000000 0.055000
0.675000 0.000000 0.055000
0.731250 0.000000 0.055000
0.787500 0.000000 0.055000
0.843750 0.000000 0.055000
0.900000 0.000000 0.055000
0.000000 0.067500 0.055000
0.056250 0.067500 0.055000
0.112500 0.067500 0.055000
0.168750 0.067500 0.055000
0.225000 0.067500 0.055000
0.281250 0.067500 0.055000
0.337500 0.067500 0.055000
0.393750 0.067500 0.055000
0.450000 0.067500 0.055000
0.506250 0.067500 0.055000
0.562500 0.067500 0.055000
0.618750 0.067500 0.055000
0.675000 0.067500 0.055000
0.731250 0.067500 0.055000
0.787500 0.067500 0.055000
0.843750 0.067500 0.055000
0.900000 0.067500 0.055000
0.000000 0.135000 0.055000
0.056250 0.135000 0.055000
0.112500 0.135000 0.055000
0.168750 0.135000 0.055000
0.225000 0.135000 0.055000
0.281250 0.135000 0.055000
0.337500 0.135000 0.055000
0.393750 0.135000 0.055000
0.450000 0.135000 0.055000
0.506250 0.135000 0.055000
0.562500 0.135000 0.055000
0.618750 0.135000 0.055000
0.675000 0.135000 0.055000
0.731250 0.135000 0.055000
0.787500 0.135000 0.055000
0.843750 0.135000 0.055000
0.900000 0.135000 0.055000
0.000000 0.202500 0.055000
0.056250 0.202500 0.055000
0.112500 0.202500 0.055000
0.168750 0.202500 0.055000
0.225000 0.202500 0.055000
0.281250 0.202500 0.055000
0.337500 0.202500 0.055000
0.393750 0.202500 0.055000
0.450000 0.202500 0.055000
0.506250 0.202500 0.055000
0.562500 0.202500 0.055000
0.618750 0.202500 0.055000
0.675000 0.202500 0.055000
0.731250 0.202500 0.055000
0.787500 0.202500 0.055000
0.843750 0.202500 0.055000
0.900000 0.202500 0.055000
0.000000 0.270000 0.055000
0.056250 0.270000 0.055000
0.112500 0.270000 0.055000
0.168750 0.270000 0.055000
0.225000 0.270000 0.055000
0.281250 0.270000 0.055000
0.337500 0.270000 0.055000
0.393750 0.270000 0.055000
0.450000 0.270000 0.055000
0.506250 0.270000 0.055000
0.562500 0.270000 0.055000
0.618750 0.270000 0.055000
0.675000 0.270000 0.055000
0.731250 0.270000 0.055000
0.787500 0.270000 0.055000
0.843750 0.270000 0.055000
0.900000 0.270000 0.055000
0.000000 0.337500 0.055000
0.056250 0.337500 0.055000
0.112500 0.337500 0.055000
0.168750 0.337500 0.055000
0.225000 0.337500 0.055000
0.281250 0.337500 0.055000
0.337500 0.337500 0.055000
0.393750 0.337500 0.055000
0.450000 0.337500 0.055000
0.506250 0.337500 0.055000
0.562500 0.337500 0.055000
0.618750 0.337500 0.055000
0.675000 0.337500 0.055000
0.731250 0.337500 0.055000
0.787500 0.337500 0.055000
0.843750 0.337500 0.055000
0.900000 0.337500 0.055000
0.000000 0.405000 0.055000
0.056250 0.405000 0.055000
0.112500 0.405000 0.055000
0.168750 0.405000 0.055000
0.225000 0.405000 0.055000
0.281250 0.405000 0.055000
0.337500 0.405000 0.055000
0.393750 0.405000 0.055000
0.450000 0.405000 0.055000
0.506250 0.405000 0.055000
0.562500 0.405000 0.055000
0.618750 0.405000 0.055000
0.675000 0.405000 0.055000
0.731250 0.405000 0.055000
0.787500 0.405000 0.055000
0.843750 0.405000 0.055000
0.900000 0.405000 0.055000
0.000000 0.472500 0.055000
0.056250 0.472500 0.055000
0.112500 0.472500 0.055000
0.168750 0.472500 0.055000
0.225000 0.472500 0.055000
0.281250 0.472500 0.055000
0.337500 0.472500 0.055000
0.393750 0.472500 0.055000
0.450000 0.472500 0.055000
0.506250 0.472500 0.055000
0.562500 0.472500 0.055000
0.618750 0.472500 0.055000
0.675000 0.472500 0.055000
0.731250 0.472500 0.055000
0.787500 0.472500 0.055000
0.843750 0.472500 0.055000
0.900000 0.472500 0.055000
0.000000 0.540000 0.055000
0.056250 0.540000 0.055000
0.112500 0.540000 0.055000
0.168750 0.540000 0.055000
0.225000 0.540000 0.055000
0.281250 0.540000 0.055000
0.337500 0.540000 0.055000
0.393750 0.540000 0.055000
0.450000 0.540000 0.055000
0.506250 0.540000 0.055000
0.562500 0.540000 0.055000
0.618750 0.540000 0.055000
0.675000 0.540000 0.055000
0.731250 0.540000 0.055000
0.787500 0.540000 0.055000
0.843750 0.540000 0.055000
0.900000 0.540000 0.055000
0.000000 0.607500 0.055000
0.056250 0.607500 0.055000
0.112500 0.607500 0.055000
0.168750 0.607500 0.055000
0.225000 0.607500 0.055000
0.281250 0.607500 0.055000
0.337500 0.607500 0.055000
0.393750 0.607500 0.055000
0.450000 0.607500 0.055000
0.506250 0.607500 0.055000
0.562500 0.607500 0.055000
0.618750 0.607500 0.055000
0.675000 0.607500 0.055000
0.731250 0.607500 0.055000
0.787500 0.607500 0.055000
0.843750 0.607500 0.055000
0.900000 0.607500 0.055000
0.000000 0.675000 0.055000
0.056250 0.675000 0.055000
0.112500 0.675000 0.055000
0.168750 0.675000 0.055000
0.225000 0.675000 0.055000
0.281250 0.675000 0.055000
0.337500 0.675000 0.055000
0.393750 0.675000 0.055000
0.450000 0.675000 0.055000
0.506250 0.675000 0.055000
0.562500 0.675000 0.055000
0.618750 0.675000 0.055000
0.675000 0.675000 0.055000
0.731250 0.675000 0.055000
0.787500 0.675000 0.055000
0.843750 0.675000 0.055000
0.900000 0.675000 0.055000
0.000000 0.742500 0.055000
0.056250 0.742500 0.055000
0.112500 0.742500 0.055000
0.168750 0.742500 0.055000
0.225000 0.742500 0.055000
0.281250 0.742500 0.055000
0.337500 0.742500 0.055000
0.393750 0.742500 0.055000
0.450000 0.742500 0.055000
0.506250 0.742500 0.055000
0.562500 0.742500 0.055000
0.618750 0.742500 0.055000
0.675000 0.742500 0.055000
0.731250 0.742500 0.055000
0.787500 0.742500 0.055000
0.843750 0.742500 0.055000
0.900000 0.742500 0.055000
0.000000 0.810000 0.055000
0.056250 0.810000 0.055000
0.112500 0.810000 0.055000
0.168750 0.810000 0.055000
0.225000 0.810000 0.055000
0.281250 0.810000 0.055000
0.337500 0.810000 0.055000
0.393750 0.810000 0.055000
0.450000 0.810000 0.055000
0.506250 0.810000 0.055000
0.562500 0.810000 0.055000
0.618750 0.810000 0.055000
0.675000 0.810000 0.055000
0.731250 0.810000 0.055000
0.787500 0.810000 0.055000
0.843750 0.810000 0.055000
0.900000 0.810000 0.055000
0.000000 0.877500 0.055000
0.056250 0.877500 0.055000
0.112500 0.877500 0.055000
0.168750 0.877500 0.055000
0.225000 0.877500 0.055000
0.281250 0.877500 0.055000
0.337500 0.877500 0.055000
0.393750 0.877500 0.055000
0.450000 0.877500 0.055000
0.506250 0.877500 0.055000
0.562500 0.877500 0.055000
0.618750 0.877500 0.055000
0.675000 0.877500 0.055000
0.731250 0.877500 0.055000
0.787500 0.877500 0.055000
0.843750 0.877500 0.055000
0.900000 0.877500 0.055000
0.000000 0.945000 0.055000
0.056250 0.945000 0.055000
0.112500 0.945000 0.055000
0.168750 0.945000 0.055000
0.225000 0.945000 0.055000
0.281250 0.945000 0.055000
0.337500 0.945000 0.055000
0.393750 0.945000 0.055000
0.450000 0.945000 0.055000
0.506250 0.945000 0.055000
0.562500 0.945000 0.055000
0.618750 0.945000 0.055000
0.675000 0.945000 0.055000
0.731250 0.945000 0.055000
0.787500 0.945000 0.055000
0.843750 0.945000 0.055000
0.900000 0.945000 0.055000
0.000000 1.000000 0.055000
0.056250 1.000000 0.055000
0.112500 1.000000 0.055000
0.168750 1.000000 0.055000
0.225000 1.000000 0.055000
0.281250 1.000000 0.055000
0.337500 1.000000 0.055000
0.393750 1.000000 0.055000
0.450000 1.000000 0.055000
0.506250 1.000000 0.055000
0.562500 1.000000 0.055000
0.618750 1.000000 0.055000
0.675000 1.000000 0.055000
0.731250 1.000000 0.055000
0.787500 1.000000 0.055000
0.843750 1.000000 0.055000
0.900000 1.000000 0.055000
0.000000 1.000000 0.055000
0.056250 1.000000 0.055000
0.112500 1.000000 0.055000
0.168750 1.000000 0.055000
0.225000 1.000000 0.055000
0.281250 1.000000 0.055000
0.337500 1.000000 0.055000
0.393750 1.000000 0.055000
0.450000 1.000000 0.055000
0.506250 1.000000 0.055000
0.562500 1.000000 0.055000
0.618750 1.000000 0.055000
0.675000 1.000000 0.055000
0.731250 1.000000 0.055000
0.787500 1.000000 0.055000
0.843750 1.000000 0.055000
0.900000 1.000000 0.055000
0.000000 0.000000 0.110000
0.056250 0.000000 0.110000
0.112500 0.000000 0.110000
0.168750 0.000000 0.110000
0.225000 0.000000 0.110000
0.281250 0.000000 0.110000
0.337500 0.000000 0.110000
0.393750 0.000000 0.110000
0.450000 0.000000 0.110000
0.506250 0.000000 0.110000
0.562500 0.000000 0.110000
0.618750 0.000000 0.110000
0.675000 0.000000 0.110000
0.731250 0.000000 0.110000
0.787500 0.000000 0.110000
0.843750 0.000000 0.110000
0.900000 0.000000 0.110000
0.000000 0.067500 0.110000
0.056250 0.067500 0.110000
0.112500 0.067500 0.110000
0.168750 0.067500 0.110000
0.225000 0.067500 0.110000
0.281250 0.067500 0.110000
0.337500 0.067500 0.110000
0.393750 0.067500 0.110000
0.450000 0.067500 0.110000
0.506250 0.067500 0.110000
0.562500 0.067500 0.110000
0.618750 0.067500 0.110000
0.675000 0.067500 0.110000
0.731250 0.067500 0.110000
0.787500 0.067500 0.110000
0.843750 0.067500 0.110000
0.900000 0.067500 0.110000
0.000000 0.135000 0.110000
0.056250 0.135000 0.110000
0.112500 0.135000 0.110000
0.168750 0.135000 0.110000
0.225000 0.135000 0.110000
0.281250 0.135000 0.110000
0.337500 0.135000 0.110000
0.393750 0.135000 0.110000
0.450000 0.135000 0.110000
0.506250 0.135000 0.110000
0.562500 0.135000 0.110000
0.618750 0.135000 0.110000
0.675000 0.135000 0.110000
0.731250 0.135000 0.110000
0.787500 0.135000 0.110000
0.843750 0.135000 0.110000
0.900000 0.135000 0.110000
0.000000 0.202500 0.110000
0.056250 0.202500 0.110000
0.112500 0.202500 0.110000
0.168750 0.202500 0.110000
0.225000 0.202500 0.110000
0.281250 0.202500 0.110000
0.337500 0.202500 0.110000
0.393750 0.202500 0.110000
0.450000 0.202500 0.110000
0.506250 0.202500 0.110000
0.562500 0.202500 0.110000
0.618750 0.202500 0.110000
0.675000 0.202500 0.110000
0.731250 0.202500 0.110000
0.787500 0.202500 0.110000
0.843750 0.202500 0.110000
0.900000 0.202500 0.110000
0.000000 0.270000 0.110000
0.056250 0.270000 0.110000
0.112500 0.270000 0.110000
0.168750 0.270000 0.110000
0.225000 0.270000 0.110000
0.281250 0.270000 0.110000
0.337500 0.270000 0.110000
0.393750 0.270000 0.110000
0.450000 0.270000 0.110000
0.506250 0.270000 0.110000
0.562500 0.270000 0.110000
0.618750 0.270000 0.110000
0.675000 0.270000 0.110000
0.731250 0.270000 0.110000
0.787500 0.270000 0.110000
0.843750 0.270000 0.110000
0.900000 0.270000 0.110000
0.000000 0.337500 0.110000
0.056250 0.337500 0.110000
0.112500 0.337500 0.110000
0.168750 0.337500 0.110000
0.225000 0.337500 0.110000
0.281250 0.337500 0.110000
0.337500 0.337500 0.110000
0.393750 0.337500 0.110000
0.450000 0.337500 0.110000
0.506250 0.337500 0.110000
0.562500 0.337500 0.110000
0.618750 0.337500 0.110000
0.675000 0.337500 0.110000
0.731250 0.337500 0.110000
0.787500 0.337500 0.110000
0.843750 0.337500 0.110000
0.900000 0.337500 0.110000
0.000000 0.405000 0.110000
0.056250 0.405000 0.110000
0.112500 0.405000 0.110000
0.168750 0.405000 0.110000
0.225000 0.405000 0.110000
0.281250 0.405000 0.110000
0.337500 0.405000 0.110000
0.393750 0.405000 0.110000
0.450000 0.405000 0.110000
0.506250 0.405000 0.110000
0.562500 0.405000 0.110000
0.618750 0.405000 0.110000
0.675000 0.405000 0.110000
0.731250 0.405000 0.110000
0.787500 0.405000 0.110000
0.843750 0.405000 0.110000
0.900000 0.405000 0.110000
0.000000 0.472500 0.110000
0.056250 0.472500 0.110000
0.112500 0.472500 0.110000
0.168750 0.472500 0.110000
0.225000 0.472500 0.110000
0.281250 0.472500 0.110000
0.337500 0.472500 0.110000
0.393750 0.472500 0.110000
0.450000 0.472500 0.110000
0.506250 0.472500 0.110000
0.562500 0.472500 0.110000
0.618750 0.472500 0.110000
0.675000 0.472500 0.110000
0.731250 0.472500 0.110000
0.787500 0.472500 0.110000
0.843750 0.472500 0.110000
0.900000 0.472500 0.110000
0.000000 0.540000 0.110000
0.056250 0.540000 0.110000
0.112500 0.540000 0.110000
0.168750 0.540000 0.110000
0.225000 0.540000 0.110000
0.281250 0.540000 0.110000
0.337500 0.540000 0.110000
0.393750 0.540000 0.110000
0.450000 0.540000 0.110000
0.506250 0.540000 0.110000
0.562500 0.540000 0.110000
0.618750 0.540000 0.110000
0.675000 0.540000 0.110000
0.731250 0.540000 0.110000
0.787500 0.540000 0.110000
0.843750 0.540000 0.110000
0.900000 0.540000 0.110000
0.000000 0.607500 0.110000
0.056250 0.607500 0.110000
0.112500 0.607500 0.110000
0.168750 0.607500 0.110000
0.225000 0.607500 0.110000
0.281250 0.607500 0.110000
0.337500 0.607500 0.110000
0.393750 0.607500 0.110000
0.450000 0.607500 0.110000
0.506250 0.607500 0.110000
0.562500 0.607500 0.110000
0.618750 0.607500 0.110000
0.675000 0.607500 0.110000
0.731250 0.607500 0.110000
0.787500 0.607500 0.110000
0.843750 0.607500 0.110000
0.900000 0.607500 0.110000
0.000000 0.675000 0.110000
0.056250 0.675000 0.110000
0.112500 0.675000 0.110000
0.168750 0.675000 0.110000
0.225000 0.675000 0.110000
0.281250 0.675000 0.110000
0.337500 0.675000 0.110000
0.393750 0.675000 0.110000
0.450000 0.675000 0.110000
0.506250 0.675000 0.110000
0.562500 0.675000 0.110000
0.618750 0.675000 0.110000
0.675000 0.675000 0.110000
0.731250 0.675000 0.110000
0.787500 0.675000 0.110000
0.843750 0.675000 0.110000
0.900000 0.675000 0.110000
0.000000 0.742500 0.110000
0.056250 0.742500 0.110000
0.112500 0.742500 0.110000
0.168750 0.742500 0.110000
0.225000 0.742500 0.110000
0.281250 0.742500 0.110000
0.337500 0.742500 0.110000
0.393750 0.742500 0.110000
0.450000 0.742500 0.110000
0.506250 0.742500 0.110000
0.562500 0.742500 0.110000
0.618750 0.742500 0.110000
0.675000 0.742500 0.110000
0.731250 0.742500 0.110000
0.787500 0.742500 0.110000
0.843750 0.742500 0.110000
0.900000 0.742500 0.110000
0.000000 0.810000 0.110000
0.056250 0.810000 0.110000
0.112500 0.810000 0.110000
0.168750 0.810000 0.110000
0.225000 0.810000 0.110000
0.281250 0.810000 0.110000
0.337500 0.810000 0.110000
0.393750 0.810000 0.110000
0.450000 0.810000 0.110000
0.506250 0.810000 0.110000
0.562500 0.810000 0.110000
0.618750 0.810000 0.110000
0.675000 0.810000 0.110000
0.731250 0.810000 0.110000
0.787500 0.810000 0.110000
0.843750 0.810000 0.110000
0.900000 0.810000 0.110000
0.000000 0.877500 0.110000
0.056250 0.877500 0.110000
0.112500 0.877500 0.110000
0.168750 0.877500 0.110000
0.225000 0.877500 0.110000
0.281250 0.877500 0.110000
0.337500 0.877500 0.110000
0.393750 0.877500 0.110000
0.450000 0.877500 0.110000
0.506250 0.877500 0.110000
0.562500 0.877500 0.110000
0.618750 0.877500 0.110000
0.675000 0.877500 0.110000
0.731250 0.877500 0.110000
0.787500 0.877500 0.110000
0.843750 0.877500 0.110000
0.900000 0.877500 0.110000
0.000000 0.945000 0.110000
0.056250 0.945000 0.110000
0.112500 0.945000 0.110000
0.168750 0.945000 0.110000
0.225000 0.945000 0.110000
0.281250 0.945000 0.110000
0.337500 0.945000 0.110000
0.393750 0.945000 0.110000
0.450000 0.945000 0.110000
0.506250 0.945000 0.110000
0.562500 0.945000 0.110000
0.618750 0.945000 0.110000
0.675000 0.945000 0.110000
0.731250 0.945000 0.110000
0.787500 0.945000 0.110000
0.843750 0.945000 0.110000
0.900000 0.945000 0.110000
0.000000 1.000000 0.110000
0.056250 1.000000 0.110000
0.112500 1.000000 0.110000
0.168750 1.000000 0.110000
0.225000 1.000000 0.110000
0.281250 1.000000 0.110000
0.337500 1.000000 0.110000
0.393750 1.000000 0.110000
0.450000 1.000000 0.110000
0.506250 1.000000 0.110000
0.562500 1.000000 0.110000
0.618750 1.000000 0.110000
0.675000 1.000000 0.110000
0.731250 1.000000 0.110000
0.787500 1.000000 0.110000
0.843750 1.000000 0.110000
0.900000 1.000000 0.110000
0.000000 1.000000 0.110000
0.056250 1.000000 0.110000
0.112500 1.000000 0.110000
0.168750 1.000000 0.110000
0.225000 1.000000 0.110000
0.281250 1.000000 0.110000
0.337500 1.000000 0.110000
0.393750 1.000000 0.110000
0.450000 1.000000 0.110000
0.506250 1.000000 0.110000
0.562500 1.000000 0.110000
0.618750 1.000000 0.110000
0.675000 1.000000 0.110000
0.731250 1.000000 0.110000
0.787500 1.000000 0.110000
0.843750 1.000000 0.110000
0.900000 1.000000 0.110000
0.000000 0.000000 0.165000
0.056250 0.000000 0.165000
0.112500 0.000000 0.165000
0.168750 0.000000 0.165000
0.225000 0.000000 0.165000
0.281250 0.000000 0.165000
0.337500 0.000000 0.165000
0.393750 0.000000 0.165000
0.450000 0.000000 0.165000
0.506250 0.000000 0.165000
0.562500 0.000000 0.165000
0.618750 0.000000 0.165000
0.675000 0.000000 0.165000
0.731250 0.000000 0.165000
0.787500 0.000000 0.165000
0.843750 0.000000 0.165000
0.900000 0.000000 0.165000
0.000000 0.067500 0.165000
0.056250 0.067500 0.165000
