lut-visualizer/public/data/sample_luts/lifted_blacks.cube
LUT_3D_SIZE 5
DOMAIN_MIN 0.0 0.0 0.0
DOMAIN_MAX 1.0 1.0 1.0
0.060000 0.040000 0.040000
0.299370 0.032913 0.032913
0.538740 0.025827 0.025827
0.778110 0.018740 0.018740
1.000000 0.011653 0.011653
0.024240 0.266160 0.016160
0.263610 0.259073 0.009073
0.502980 0.251987 0.001987
0.750000 0.250000 0.000000
1.000000 0.250000 0.000000
0.000000 0.500000 0.000000
0.250000 0.500000 0.000000
0.500000 0.500000 0.000000
0.750000 0.500000 0.000000
1.000000 0.500000 0.000000
0.000000 0.750000 0.000000
0.250000 0.750000 0.000000
0.500000 0.750000 0.000000
0.750000 0.750000 0.000000
1.000000 0.750000 0.000000
0.000000 1.000000 0.000000
0.250000 1.000000 0.000000
0.500000 1.000000 0.000000
0.750000 1.000000 0.000000
1.000000 1.000000 0.000000
0.056390 0.037593 0.287593
0.295760 0.030507 0.280507
0.535130 0.023420 0.273420
0.774500 0.016333 0.266333
1.000000 0.009247 0.259247
0.020630 0.263753 0.263753
0.260000 0.256667 0.256667
0.500000 0.250000 0.250000
0.750000 0.250000 0.250000
1.000000 0.250000 0.250000
0.000000 0.500000 0.250000
0.250000 0.500000 0.250000
0.500000 0.500000 0.250000
0.750000 0.500000 0.250000
1.000000 0.500000 0.250000
0.000000 0.750000 0.250000
0.250000 0.750000 0.250000
0.500000 0.750000 0.250000
0.750000 0.750000 0.250000
1.000000 0.750000 0.250000
0.000000 1.000000 0.250000
0.250000 1.000000 0.250000
0.500000 1.000000 0.250000
0.750000 1.000000 0.250000
1.000000 1.000000 0.250000
0.052780 0.035187 0.535187
0.292150 0.028100 0.528100
0.531520 0.021013 0.521013
0.770890 0.013927 0.513927
1.000000 0.006840 0.506840
0.017020 0.261347 0.511347
0.256390 0.254260 0.504260
0.500000 0.250000 0.500000
0.750000 0.250000 0.500000
1.000000 0.250000 0.500000
0.000000 0.500000 0.500000
0.250000 0.500000 0.500000
0.500000 0.500000 0.500000
0.750000 0.500000 0.500000
1.000000 0.500000 0.500000
0.000000 0.750000 0.500000
0.250000 0.750000 0.500000
0.500000 0.750000 0.500000
0.750000 0.750000 0.500000
1.000000 0.750000 0.500000
0.000000 1.000000 0.500000
0.250000 1.000000 0.500000
0.500000 1.000000 0.500000
0.750000 1.000000 0.500000
1.000000 1.000000 0.500000
0.049170 0.032780 0.782780
0.288540 0.025693 0.775693
0.527910 0.018607 0.768607
0.767280 0.011520 0.761520
1.000000 0.004433 0.754433
0.013410 0.258940 0.758940
0.252780 0.251853 0.751853
0.500000 0.250000 0.750000
0.750000 0.250000 0.750000
1.000000 0.250000 0.750000
0.000000 0.500000 0.750000
0.250000 0.500000 0.750000
0.500000 0.500000 0.750000
0.750000 0.500000 0.750000
1.000000 0.500000 0.750000
0.000000 0.750000 0.750000
0.250000 0.750000 0.750000
0.500000 0.750000 0.750000
0.750000 0.750000 0.750000
1.000000 0.750000 0.750000
0.000000 1.000000 0.750000
0.250000 1.000000 0.750000
0.500000 1.000000 0.750000
0.750000 1.000000 0.750000
1.000000 1.000000 0.750000
0.045560 0.030373 1.000000
0.284930 0.023287 1.000000
0.524300 0.016200 1.000000
0.763670 0.009113 1.000000
1.000000 0.002027 1.000000
0.009800 0.256533 1.000000
0.250000 0.250000 1.000000
0.500000 0.250000 1.000000
0.750000 0.250000 1.000000
1.000000 0.250000 1.000000
0.000000 0.500000 1.000000
0.250000 0.500000 1.000000
0.500000 0.500000 1.000000
0.750000 0.500000 1.000000
1.000000 0.500000 1.000000
0.000000 0.750000 1.000000
0.250000 0.750000 1.000000
0.500000 0.750000 1.000000
0.750000 0.750000 1.000000
1.000000 0.750000 1.000000
0.000000 1.000000 1.000000
0.250000 1.000000 1.000000
0.500000 1.000000 1.000000
0.750000 1.000000 1.000000
1.000000 1.000000 1.000000
