lut-visualizer/public/data/sample_luts/lifted_blacks.cube
LUT_3D_SIZE 17
DOMAIN_MIN 0.0 0.0 0.0
DOMAIN_MAX 1.0 1.0 1.0
0.060000 0.040000 0.040000
0.119842 0.038228 0.038228
0.179685 0.036457 0.036457
0.239528 0.034685 0.034685
0.299370 0.032913 0.032913
0.359212 0.031142 0.031142
0.419055 0.029370 0.029370
0.478897 0.027598 0.027598
0.538740 0.025827 0.025827
0.598583 0.024055 0.024055
0.658425 0.022283 0.022283
0.718267 0.020512 0.020512
0.778110 0.018740 0.018740
0.837952 0.016968 0.016968
0.897795 0.015197 0.015197
0.957638 0.013425 0.013425
1.000000 0.011653 0.011653
0.051060 0.096540 0.034040
0.110903 0.094768 0.032268
0.170745 0.092997 0.030497
0.230588 0.091225 0.028725
0.290430 0.089453 0.026953
0.350272 0.087682 0.025182
0.410115 0.085910 0.023410
0.469958 0.084138 0.021638
0.529800 0.082367 0.019867
0.589642 0.080595 0.018095
0.649485 0.078823 0.016323
0.709327 0.077052 0.014552
0.769170 0.075280 0.012780
0.829013 0.073508 0.011008
0.888855 0.071737 0.009237
0.948697 0.069965 0.007465
1.000000 0.068193 0.005693
0.042120 0.153080 0.028080
0.101962 0.151308 0.026308
0.161805 0.149537 0.024537
0.221647 0.147765 0.022765
0.281490 0.145993 0.020993
0.341332 0.144222 0.019222
0.401175 0.142450 0.017450
0.461018 0.140678 0.015678
0.520860 0.138907 0.013907
0.580703 0.137135 0.012135
0.640545 0.135363 0.010363
0.700387 0.133592 0.008592
0.760230 0.131820 0.006820
0.820072 0.130048 0.005048
0.879915 0.128277 0.003277
0.939758 0.126505 0.001505
1.000000 0.125000 0.000000
0.033180 0.209620 0.022120
0.093022 0.207848 0.020348
0.152865 0.206077 0.018577
0.212707 0.204305 0.016805
0.272550 0.202533 0.015033
0.332392 0.200762 0.013262
0.392235 0.198990 0.011490
0.452078 0.197218 0.009718
0.511920 0.195447 0.007947
0.571762 0.193675 0.006175
0.631605 0.191903 0.004403
0.691447 0.190132 0.002632
0.751290 0.188360 0.000860
0.812500 0.187500 0.000000
0.875000 0.187500 0.000000
0.937500 0.187500 0.000000
1.000000 0.187500 0.000000
0.024240 0.266160 0.016160
0.084083 0.264388 0.014388
0.143925 0.262617 0.012617
0.203767 0.260845 0.010845
0.263610 0.259073 0.009073
0.323452 0.257302 0.007302
0.383295 0.255530 0.005530
0.443138 0.253758 0.003758
0.502980 0.251987 0.001987
0.562823 0.250215 0.000215
0.625000 0.250000 0.000000
0.687500 0.250000 0.000000
0.750000 0.250000 0.000000
0.812500 0.250000 0.000000
0.875000 0.250000 0.000000
0.937500 0.250000 0.000000
1.000000 0.250000 0.000000
0.015300 0.322700 0.010200
0.075143 0.320928 0.008428
0.134985 0.319157 0.006657
0.194827 0.317385 0.004885
0.254670 0.315613 0.003113
0.314513 0.313842 0.001342
0.375000 0.312500 0.000000
0.437500 0.312500 0.000000
0.500000 0.312500 0.000000
0.562500 0.312500 0.000000
0.625000 0.312500 0.000000
0.687500 0.312500 0.000000
0.750000 0.312500 0.000000
0.812500 0.312500 0.000000
0.875000 0.312500 0.000000
0.937500 0.312500 0.000000
1.000000 0.312500 0.000000
0.006360 0.379240 0.004240
0.066202 0.377468 0.002468
0.126045 0.375697 0.000697
0.187500 0.375000 0.000000
0.250000 0.375000 0.000000
0.312500 0.375000 0.000000
0.375000 0.375000 0.000000
0.437500 0.375000 0.000000
0.500000 0.375000 0.000000
0.562500 0.375000 0.000000
0.625000 0.375000 0.000000
0.687500 0.375000 0.000000
0.750000 0.375000 0.000000
0.812500 0.375000 0.000000
0.875000 0.375000 0.000000
0.937500 0.375000 0.000000
1.000000 0.375000 0.000000
0.000000 0.437500 0.000000
0.062500 0.437500 0.000000
0.125000 0.437500 0.000000
0.187500 0.437500 0.000000
0.250000 0.437500 0.000000
0.312500 0.437500 0.000000
0.375000 0.437500 0.000000
0.437500 0.437500 0.000000
0.500000 0.437500 0.000000
0.562500 0.437500 0.000000
0.625000 0.437500 0.000000
0.687500 0.437500 0.000000
0.750000 0.437500 0.000000
0.812500 0.437500 0.000000
0.875000 0.437500 0.000000
0.937500 0.437500 0.000000
1.000000 0.437500 0.000000
0.000000 0.500000 0.000000
0.062500 0.500000 0.000000
0.125000 0.500000 0.000000
0.187500 0.500000 0.000000
0.250000 0.500000 0.000000
0.312500 0.500000 0.000000
0.375000 0.500000 0.000000
0.437500 0.500000 0.000000
0.500000 0.500000 0.000000
0.562500 0.500000 0.000000
0.625000 0.500000 0.000000
0.687500 0.500000 0.000000
0.750000 0.500000 0.000000
0.812500 0.500000 0.000000
0.875000 0.500000 0.000000
0.937500 0.500000 0.000000
1.000000 0.500000 0.000000
0.000000 0.562500 0.000000
0.062500 0.562500 0.000000
0.125000 0.562500 0.000000
0.187500 0.562500 0.000000
0.250000 0.562500 0.000000
0.312500 0.562500 0.000000
0.375000 0.562500 0.000000
0.437500 0.562500 0.000000
0.500000 0.562500 0.000000
0.562500 0.562500 0.000000
0.625000 0.562500 0.000000
0.687500 0.562500 0.000000
0.750000 0.562500 0.000000
0.812500 0.562500 0.000000
0.875000 0.562500 0.000000
0.937500 0.562500 0.000000
1.000000 0.562500 0.000000
0.000000 0.625000 0.000000
0.062500 0.625000 0.000000
0.125000 0.625000 0.000000
0.187500 0.625000 0.000000
0.250000 0.625000 0.000000
0.312500 0.625000 0.000000
0.375000 0.625000 0.000000
0.437500 0.625000 0.000000
0.500000 0.625000 0.000000
0.562500 0.625000 0.000000
0.625000 0.625000 0.000000
0.687500 0.625000 0.000000
0.750000 0.625000 0.000000
0.812500 0.625000 0.000000
0.875000 0.625000 0.000000
0.937500 0.625000 0.000000
1.000000 0.625000 0.000000
0.000000 0.687500 0.000000
0.062500 0.687500 0.000000
0.125000 0.687500 0.000000
0.187500 0.687500 0.000000
0.250000 0.687500 0.000000
0.312500 0.687500 0.000000
0.375000 0.687500 0.000000
0.437500 0.687500 0.000000
0.500000 0.687500 0.000000
0.562500 0.687500 0.000000
0.625000 0.687500 0.000000
0.687500 0.687500 0.000000
0.750000 0.687500 0.000000
0.812500 0.687500 0.000000
0.875000 0.687500 0.000000
0.937500 0.687500 0.000000
1.000000 0.687500 0.000000
0.000000 0.750000 0.000000
0.062500 0.750000 0.000000
0.125000 0.750000 0.000000
0.187500 0.750000 0.000000
0.250000 0.750000 0.000000
0.312500 0.750000 0.000000
0.375000 0.750000 0.000000
0.437500 0.750000 0.000000
0.500000 0.750000 0.000000
0.562500 0.750000 0.000000
0.625000 0.750000 0.000000
0.687500 0.750000 0.000000
0.750000 0.750000 0.000000
0.812500 0.750000 0.000000
0.875000 0.750000 0.000000
0.937500 0.750000 0.000000
1.000000 0.750000 0.000000
0.000000 0.812500 0.000000
0.062500 0.812500 0.000000
0.125000 0.812500 0.000000
0.187500 0.812500 0.000000
0.250000 0.812500 0.000000
0.312500 0.812500 0.000000
0.375000 0.812500 0.000000
0.437500 0.812500 0.000000
0.500000 0.812500 0.000000
0.562500 0.812500 0.000000
0.625000 0.812500 0.000000
0.687500 0.812500 0.000000
0.750000 0.812500 0.000000
0.812500 0.812500 0.000000
0.875000 0.812500 0.000000
0.937500 0.812500 0.000000
1.000000 0.812500 0.000000
0.000000 0.875000 0.000000
0.062500 0.875000 0.000000
0.125000 0.875000 0.000000
0.187500 0.875000 0.000000
0.250000 0.875000 0.000000
0.312500 0.875000 0.000000
0.375000 0.875000 0.000000
0.437500 0.875000 0.000000
0.500000 0.875000 0.000000
0.562500 0.875000 0.000000
0.625000 0.875000 0.000000
0.687500 0.875000 0.000000
0.750000 0.875000 0.000000
0.812500 0.875000 0.000000
0.875000 0.875000 0.000000
0.937500 0.875000 0.000000
1.000000 0.875000 0.000000
0.000000 0.937500 0.000000
0.062500 0.937500 0.000000
0.125000 0.937500 0.000000
0.187500 0.937500 0.000000
0.250000 0.937500 0.000000
0.312500 0.937500 0.000000
0.375000 0.937500 0.000000
0.437500 0.937500 0.000000
0.500000 0.937500 0.000000
0.562500 0.937500 0.000000
0.625000 0.937500 0.000000
0.687500 0.937500 0.000000
0.750000 0.937500 0.000000
0.812500 0.937500 0.000000
0.875000 0.937500 0.000000
0.937500 0.937500 0.000000
1.000000 0.937500 0.000000
0.000000 1.000000 0.000000
0.062500 1.000000 0.000000
0.125000 1.000000 0.000000
0.187500 1.000000 0.000000
0.250000 1.000000 0.000000
0.312500 1.000000 0.000000
0.375000 1.000000 0.000000
0.437500 1.000000 0.000000
0.500000 1.000000 0.000000
0.562500 1.000000 0.000000
0.625000 1.000000 0.000000
0.687500 1.000000 0.000000
0.750000 1.000000 0.000000
0.812500 1.000000 0.000000
0.875000 1.000000 0.000000
0.937500 1.000000 0.000000
1.000000 1.000000 0.000000
0.059097 0.039398 0.101898
0.118940 0.037627 0.100127
0.178783 0.035855 0.098355
0.238625 0.034083 0.096583
0.298467 0.032312 0.094812
0.358310 0.030540 0.093040
0.418152 0.028768 0.091268
0.477995 0.026997 0.089497
0.537837 0.025225 0.087725
0.597680 0.023453 0.085953
0.657523 0.021682 0.084182
0.717365 0.019910 0.082410
0.777208 0.018138 0.080638
0.837050 0.016367 0.078867
0.896892 0.014595 0.077095
0.956735 0.012823 0.075323
1.000000 0.011052 0.073552
0.050158 0.095938 0.095938
0.110000 0.094167 0.094167
0.169843 0.092395 0.092395
0.229685 0.090623 0.090623
0.289527 0.088852 0.088852
0.349370 0.087080 0.087080
0.409212 0.085308 0.085308
0.469055 0.083537 0.083537
0.528898 0.081765 0.081765
0.588740 0.079993 0.079993
0.648582 0.078222 0.078222
0.708425 0.076450 0.076450
0.768267 0.074678 0.074678
0.828110 0.072907 0.072907
0.887953 0.071135 0.071135
0.947795 0.069363 0.069363
1.000000 0.067592 0.067592
0.041217 0.152478 0.089978
0.101060 0.150707 0.088207
0.160903 0.148935 0.086435
0.220745 0.147163 0.084663
0.280587 0.145392 0.082892
0.340430 0.143620 0.081120
0.400272 0.141848 0.079348
0.460115 0.140077 0.077577
0.519957 0.138305 0.075805
0.579800 0.136533 0.074033
0.639643 0.134762 0.072262
0.699485 0.132990 0.070490
0.759328 0.131218 0.068718
0.819170 0.129447 0.066947
0.879012 0.127675 0.065175
0.938855 0.125903 0.063403
1.000000 0.125000 0.062500
0.032278 0.209018 0.084018
0.092120 0.207247 0.082247
0.151963 0.205475 0.080475
0.211805 0.203703 0.078703
0.271647 0.201932 0.076932
0.331490 0.200160 0.075160
0.391333 0.198388 0.073388
0.451175 0.196617 0.071617
0.511018 0.194845 0.069845
0.570860 0.193073 0.068073
0.630703 0.191302 0.066302
0.690545 0.189530 0.064530
0.750387 0.187758 0.062758
0.812500 0.187500 0.062500
0.875000 0.187500 0.062500
0.937500 0.187500 0.062500
1.000000 0.187500 0.062500
0.023337 0.265558 0.078058
0.083180 0.263787 0.076287
0.143022 0.262015 0.074515
0.202865 0.260243 0.072743
0.262707 0.258472 0.070972
0.322550 0.256700 0.069200
0.382393 0.254928 0.067428
0.442235 0.253157 0.065657
0.502077 0.251385 0.063885
0.562500 0.250000 0.062500
0.625000 0.250000 0.062500
0.687500 0.250000 0.062500
0.750000 0.250000 0.062500
0.812500 0.250000 0.062500
0.875000 0.250000 0.062500
0.937500 0.250000 0.062500
1.000000 0.250000 0.062500
0.014398 0.322098 0.072098
0.074240 0.320327 0.070327
0.134082 0.318555 0.068555
0.193925 0.316783 0.066783
0.253768 0.315012 0.065012
0.313610 0.313240 0.063240
0.375000 0.312500 0.062500
0.437500 0.312500 0.062500
0.500000 0.312500 0.062500
0.562500 0.312500 0.062500
0.625000 0.312500 0.062500
0.687500 0.312500 0.062500
0.750000 0.312500 0.062500
0.812500 0.312500 0.062500
0.875000 0.312500 0.062500
0.937500 0.312500 0.062500
1.000000 0.312500 0.062500
0.005458 0.378638 0.066138
0.065300 0.376867 0.064367
0.125142 0.375095 0.062595
0.187500 0.375000 0.062500
0.250000 0.375000 0.062500
0.312500 0.375000 0.062500
0.375000 0.375000 0.062500
0.437500 0.375000 0.062500
0.500000 0.375000 0.062500
0.562500 0.375000 0.062500
0.625000 0.375000 0.062500
0.687500 0.375000 0.062500
0.750000 0.375000 0.062500
0.812500 0.375000 0.062500
0.875000 0.375000 0.062500
0.937500 0.375000 0.062500
1.000000 0.375000 0.062500
0.000000 0.437500 0.062500
0.062500 0.437500 0.062500
0.125000 0.437500 0.062500
0.187500 0.437500 0.062500
0.250000 0.437500 0.062500
0.312500 0.437500 0.062500
0.375000 0.437500 0.062500
0.437500 0.437500 0.062500
0.500000 0.437500 0.062500
0.562500 0.437500 0.062500
0.625000 0.437500 0.062500
0.687500 0.437500 0.062500
0.750000 0.437500 0.062500
0.812500 0.437500 0.062500
0.875000 0.437500 0.062500
0.937500 0.437500 0.062500
1.000000 0.437500 0.062500
0.000000 0.500000 0.062500
0.062500 0.500000 0.062500
0.125000 0.500000 0.062500
0.187500 0.500000 0.062500
0.250000 0.500000 0.062500
0.312500 0.500000 0.062500
0.375000 0.500000 0.062500
0.437500 0.500000 0.062500
0.500000 0.500000 0.062500
0.562500 0.500000 0.062500
0.625000 0.500000 0.062500
0.687500 0.500000 0.062500
0.750000 0.500000 0.062500
0.812500 0.500000 0.062500
0.875000 0.500000 0.062500
0.937500 0.500000 0.062500
1.000000 0.500000 0.062500
0.000000 0.562500 0.062500
0.062500 0.562500 0.062500
0.125000 0.562500 0.062500
0.187500 0.562500 0.062500
0.250000 0.562500 0.062500
0.312500 0.562500 0.062500
0.375000 0.562500 0.062500
0.437500 0.562500 0.062500
0.500000 0.562500 0.062500
0.562500 0.562500 0.062500
0.625000 0.562500 0.062500
0.687500 0.562500 0.062500
0.750000 0.562500 0.062500
0.812500 0.562500 0.062500
0.875000 0.562500 0.062500
0.937500 0.562500 0.062500
1.000000 0.562500 0.062500
0.000000 0.625000 0.062500
0.062500 0.625000 0.062500
0.125000 0.625000 0.062500
0.187500 0.625000 0.062500
0.250000 0.625000 0.062500
0.312500 0.625000 0.062500
0.375000 0.625000 0.062500
0.437500 0.625000 0.062500
0.500000 0.625000 0.062500
0.562500 0.625000 0.062500
0.625000 0.625000 0.062500
0.687500 0.625000 0.062500
0.750000 0.625000 0.062500
0.812500 0.625000 0.062500
0.875000 0.625000 0.062500
0.937500 0.625000 0.062500
1.000000 0.625000 0.062500
0.000000 0.687500 0.062500
0.062500 0.687500 0.062500
0.125000 0.687500 0.062500
0.187500 0.687500 0.062500
0.250000 0.687500 0.062500
0.312500 0.687500 0.062500
0.375000 0.687500 0.062500
0.437500 0.687500 0.062500
0.500000 0.687500 0.062500
0.562500 0.687500 0.062500
0.625000 0.687500 0.062500
0.687500 0.687500 0.062500
0.750000 0.687500 0.062500
0.812500 0.687500 0.062500
0.875000 0.687500 0.062500
0.937500 0.687500 0.062500
1.000000 0.687500 0.062500
0.000000 0.750000 0.062500
0.062500 0.750000 0.062500
0.125000 0.750000 0.062500
0.187500 0.750000 0.062500
0.250000 0.750000 0.062500
0.312500 0.750000 0.062500
0.375000 0.750000 0.062500
0.437500 0.750000 0.062500
0.500000 0.750000 0.062500
0.562500 0.750000 0.062500
0.625000 0.750000 0.062500
0.687500 0.750000 0.062500
0.750000 0.750000 0.062500
0.812500 0.750000 0.062500
0.875000 0.750000 0.062500
0.937500 0.750000 0.062500
1.000000 0.750000 0.062500
0.000000 0.812500 0.062500
0.062500 0.812500 0.062500
0.125000 0.812500 0.062500
0.187500 0.812500 0.062500
0.250000 0.812500 0.062500
0.312500 0.812500 0.062500
0.375000 0.812500 0.062500
0.437500 0.812500 0.062500
0.500000 0.812500 0.062500
0.562500 0.812500 0.062500
0.625000 0.812500 0.062500
0.687500 0.812500 0.062500
0.750000 0.812500 0.062500
0.812500 0.812500 0.062500
0.875000 0.812500 0.062500
0.937500 0.812500 0.062500
1.000000 0.812500 0.062500
0.000000 0.875000 0.062500
0.062500 0.875000 0.062500
0.125000 0.875000 0.062500
0.187500 0.875000 0.062500
0.250000 0.875000 0.062500
0.312500 0.875000 0.062500
0.375000 0.875000 0.062500
0.437500 0.875000 0.062500
0.500000 0.875000 0.062500
0.562500 0.875000 0.062500
0.625000 0.875000 0.062500
0.687500 0.875000 0.062500
0.750000 0.875000 0.062500
0.812500 0.875000 0.062500
0.875000 0.875000 0.062500
0.937500 0.875000 0.062500
1.000000 0.875000 0.062500
0.000000 0.937500 0.062500
0.062500 0.937500 0.062500
0.125000 0.937500 0.062500
0.187500 0.937500 0.062500
0.250000 0.937500 0.062500
0.312500 0.937500 0.062500
0.375000 0.937500 0.062500
0.437500 0.937500 0.062500
0.500000 0.937500 0.062500
0.562500 0.937500 0.062500
0.625000 0.937500 0.062500
0.687500 0.937500 0.062500
0.750000 0.937500 0.062500
0.812500 0.937500 0.062500
0.875000 0.937500 0.062500
0.937500 0.937500 0.062500
1.000000 0.937500 0.062500
0.000000 1.000000 0.062500
0.062500 1.000000 0.062500
0.125000 1.000000 0.062500
0.187500 1.000000 0.062500
0.250000 1.000000 0.062500
0.312500 1.000000 0.062500
0.375000 1.000000 0.062500
0.437500 1.000000 0.062500
0.500000 1.000000 0.062500
0.562500 1.000000 0.062500
0.625000 1.000000 0.062500
0.687500 1.000000 0.062500
0.750000 1.000000 0.062500
0.812500 1.000000 0.062500
0.875000 1.000000 0.062500
0.937500 1.000000 0.062500
1.000000 1.000000 0.062500
0.058195 0.038797 0.163797
0.118037 0.037025 0.162025
0.177880 0.035253 0.160253
0.237723 0.033482 0.158482
0.297565 0.031710 0.156710
0.357407 0.029938 0.154938
0.417250 0.028167 0.153167
0.477092 0.026395 0.151395
0.536935 0.024623 0.149623
0.596777 0.022852 0.147852
0.656620 0.021080 0.146080
0.716463 0.019308 0.144308
0.776305 0.017537 0.142537
0.836148 0.015765 0.140765
0.895990 0.013993 0.138993
0.955832 0.012222 0.137222
1.000000 0.010450 0.135450
0.049255 0.095337 0.157837
0.109098 0.093565 0.156065
0.168940 0.091793 0.154293
0.228782 0.090022 0.152522
0.288625 0.088250 0.150750
0.348467 0.086478 0.148978
0.408310 0.084707 0.147207
0.468152 0.082935 0.145435
0.527995 0.081163 0.143663
0.587838 0.079392 0.141892
0.647680 0.077620 0.140120
0.707522 0.075848 0.138348
0.767365 0.074077 0.136577
0.827207 0.072305 0.134805
0.887050 0.070533 0.133033
0.946893 0.068762 0.131262
1.000000 0.066990 0.129490
0.040315 0.151877 0.151877
0.100157 0.150105 0.150105
0.160000 0.148333 0.148333
0.219842 0.146562 0.146562
0.279685 0.144790 0.144790
0.339527 0.143018 0.143018
0.399370 0.141247 0.141247
0.459213 0.139475 0.139475
0.519055 0.137703 0.137703
0.578897 0.135932 0.135932
0.638740 0.134160 0.134160
0.698582 0.132388 0.132388
0.758425 0.130617 0.130617
0.818268 0.128845 0.128845
0.878110 0.127073 0.127073
0.937952 0.125302 0.125302
1.000000 0.125000 0.125000
0.031375 0.208417 0.145917
0.091217 0.206645 0.144145
0.151060 0.204873 0.142373
0.210902 0.203102 0.140602
0.270745 0.201330 0.138830
0.330587 0.199558 0.137058
0.390430 0.197787 0.135287
0.450273 0.196015 0.133515
0.510115 0.194243 0.131743
0.569958 0.192472 0.129972
0.629800 0.190700 0.128200
0.689643 0.188928 0.126428
0.750000 0.187500 0.125000
0.812500 0.187500 0.125000
0.875000 0.187500 0.125000
0.937500 0.187500 0.125000
1.000000 0.187500 0.125000
0.022435 0.264957 0.139957
0.082278 0.263185 0.138185
0.142120 0.261413 0.136413
0.201962 0.259642 0.134642
0.261805 0.257870 0.132870
0.321647 0.256098 0.131098
0.381490 0.254327 0.129327
0.441333 0.252555 0.127555
0.501175 0.250783 0.125783
0.562500 0.250000 0.125000
0.625000 0.250000 0.125000
0.687500 0.250000 0.125000
0.750000 0.250000 0.125000
0.812500 0.250000 0.125000
0.875000 0.250000 0.125000
0.937500 0.250000 0.125000
1.000000 0.250000 0.125000
0.013495 0.321497 0.133997
0.073337 0.319725 0.132225
0.133180 0.317953 0.130453
0.193022 0.316182 0.128682
0.252865 0.314410 0.126910
0.312708 0.312638 0.125138
0.375000 0.312500 0.125000
0.437500 0.312500 0.125000
0.500000 0.312500 0.125000
0.562500 0.312500 0.125000
0.625000 0.312500 0.125000
0.687500 0.312500 0.125000
0.750000 0.312500 0.125000
0.812500 0.312500 0.125000
0.875000 0.312500 0.125000
0.937500 0.312500 0.125000
1.000000 0.312500 0.125000
0.004555 0.378037 0.128037
0.064397 0.376265 0.126265
0.125000 0.375000 0.125000
0.187500 0.375000 0.125000
0.250000 0.375000 0.125000
0.312500 0.375000 0.125000
0.375000 0.375000 0.125000
0.437500 0.375000 0.125000
0.500000 0.375000 0.125000
0.562500 0.375000 0.125000
0.625000 0.375000 0.125000
0.687500 0.375000 0.125000
0.750000 0.375000 0.125000
0.812500 0.375000 0.125000
0.875000 0.375000 0.125000
0.937500 0.375000 0.125000
1.000000 0.375000 0.125000
0.000000 0.437500 0.125000
0.062500 0.437500 0.125000
0.125000 0.437500 0.125000
0.187500 0.437500 0.125000
0.250000 0.437500 0.125000
0.312500 0.437500 0.125000
0.375000 0.437500 0.125000
0.437500 0.437500 0.125000
0.500000 0.437500 0.125000
0.562500 0.437500 0.125000
0.625000 0.437500 0.125000
0.687500 0.437500 0.125000
0.750000 0.437500 0.125000
0.812500 0.437500 0.125000
0.875000 0.437500 0.125000
0.937500 0.437500 0.125000
1.000000 0.437500 0.125000
0.000000 0.500000 0.125000
0.062500 0.500000 0.125000
0.125000 0.500000 0.125000
0.187500 0.500000 0.125000
0.250000 0.500000 0.125000
0.312500 0.500000 0.125000
0.375000 0.500000 0.125000
0.437500 0.500000 0.125000
0.500000 0.500000 0.125000
0.562500 0.500000 0.125000
0.625000 0.500000 0.125000
0.687500 0.500000 0.125000
0.750000 0.500000 0.125000
0.812500 0.500000 0.125000
0.875000 0.500000 0.125000
0.937500 0.500000 0.125000
1.000000 0.500000 0.125000
0.000000 0.562500 0.125000
0.062500 0.562500 0.125000
0.125000 0.562500 0.125000
0.187500 0.562500 0.125000
0.250000 0.562500 0.125000
0.312500 0.562500 0.125000
0.375000 0.562500 0.125000
0.437500 0.562500 0.125000
0.500000 0.562500 0.125000
0.562500 0.562500 0.125000
0.625000 0.562500 0.125000
0.687500 0.562500 0.125000
0.750000 0.562500 0.125000
0.812500 0.562500 0.125000
0.875000 0.562500 0.125000
0.937500 0.562500 0.125000
1.000000 0.562500 0.125000
0.000000 0.625000 0.125000
0.062500 0.625000 0.125000
0.125000 0.625000 0.125000
0.187500 0.625000 0.125000
0.250000 0.625000 0.125000
0.312500 0.625000 0.125000
0.375000 0.625000 0.125000
0.437500 0.625000 0.125000
0.500000 0.625000 0.125000
0.562500 0.625000 0.125000
0.625000 0.625000 0.125000
0.687500 0.625000 0.125000
0.750000 0.625000 0.125000
0.812500 0.625000 0.125000
0.875000 0.625000 0.125000
0.937500 0.625000 0.125000
1.000000 0.625000 0.125000
0.000000 0.687500 0.125000
0.062500 0.687500 0.125000
0.125000 0.687500 0.125000
0.187500 0.687500 0.125000
0.250000 0.687500 0.125000
0.312500 0.687500 0.125000
0.375000 0.687500 0.125000
0.437500 0.687500 0.125000
0.500000 0.687500 0.125000
0.562500 0.687500 0.125000
0.625000 0.687500 0.125000
0.687500 0.687500 0.125000
0.750000 0.687500 0.125000
0.812500 0.687500 0.125000
0.875000 0.687500 0.125000
0.937500 0.687500 0.125000
1.000000 0.687500 0.125000
0.000000 0.750000 0.125000
0.062500 0.750000 0.125000
0.125000 0.750000 0.125000
0.187500 0.750000 0.125000
0.250000 0.750000 0.125000
0.312500 0.750000 0.125000
0.375000 0.750000 0.125000
0.437500 0.750000 0.125000
0.500000 0.750000 0.125000
0.562500 0.750000 0.125000
0.625000 0.750000 0.125000
0.687500 0.750000 0.125000
0.750000 0.750000 0.125000
0.812500 0.750000 0.125000
0.875000 0.750000 0.125000
0.937500 0.750000 0.125000
1.000000 0.750000 0.125000
0.000000 0.812500 0.125000
0.062500 0.812500 0.125000
0.125000 0.812500 0.125000
0.187500 0.812500 0.125000
0.250000 0.812500 0.125000
0.312500 0.812500 0.125000
0.375000 0.812500 0.125000
0.437500 0.812500 0.125000
0.500000 0.812500 0.125000
0.562500 0.812500 0.125000
0.625000 0.812500 0.125000
0.687500 0.812500 0.125000
0.750000 0.812500 0.125000
0.812500 0.812500 0.125000
0.875000 0.812500 0.125000
0.937500 0.812500 0.125000
1.000000 0.812500 0.125000
0.000000 0.875000 0.125000
0.062500 0.875000 0.125000
0.125000 0.875000 0.125000
0.187500 0.875000 0.125000
0.250000 0.875000 0.125000
0.312500 0.875000 0.125000
0.375000 0.875000 0.125000
0.437500 0.875000 0.125000
0.500000 0.875000 0.125000
0.562500 0.875000 0.125000
0.625000 0.875000 0.125000
0.687500 0.875000 0.125000
0.750000 0.875000 0.125000
0.812500 0.875000 0.125000
0.875000 0.875000 0.125000
0.937500 0.875000 0.125000
1.000000 0.875000 0.125000
0.000000 0.937500 0.125000
0.062500 0.937500 0.125000
0.125000 0.937500 0.125000
0.187500 0.937500 0.125000
0.250000 0.937500 0.125000
0.312500 0.937500 0.125000
0.375000 0.937500 0.125000
0.437500 0.937500 0.125000
0.500000 0.937500 0.125000
0.562500 0.937500 0.125000
0.625000 0.937500 0.125000
0.687500 0.937500 0.125000
0.750000 0.937500 0.125000
0.812500 0.937500 0.125000
0.875000 0.937500 0.125000
0.937500 0.937500 0.125000
1.000000 0.937500 0.125000
0.000000 1.000000 0.125000
0.062500 1.000000 0.125000
0.125000 1.000000 0.125000
0.187500 1.000000 0.125000
0.250000 1.000000 0.125000
0.312500 1.000000 0.125000
0.375000 1.000000 0.125000
0.437500 1.000000 0.125000
0.500000 1.000000 0.125000
0.562500 1.000000 0.125000
0.625000 1.000000 0.125000
0.687500 1.000000 0.125000
0.750000 1.000000 0.125000
0.812500 1.000000 0.125000
0.875000 1.000000 0.125000
0.937500 1.000000 0.125000
1.000000 1.000000 0.125000
0.057292 0.038195 0.225695
0.117135 0.036423 0.223923
0.176978 0.034652 0.222152
0.236820 0.032880 0.220380
0.296662 0.031108 0.218608
0.356505 0.029337 0.216837
0.416347 0.027565 0.215065
0.476190 0.025793 0.213293
0.536033 0.024022 0.211522
0.595875 0.022250 0.209750
0.655717 0.020478 0.207978
0.715560 0.018707 0.206207
0.775402 0.016935 0.204435
0.835245 0.015163 0.202663
0.895088 0.013392 0.200892
0.954930 0.011620 0.199120
1.000000 0.009848 0.197348
0.048352 0.094735 0.219735
0.108195 0.092963 0.217963
