lut-visualizer/public/data/sample_luts/low_contrast_fade.cube
LUT_3D_SIZE 17
DOMAIN_MIN 0.0 0.0 0.0
DOMAIN_MAX 1.0 1.0 1.0
0.080000 0.080000 0.080000
0.126875 0.080000 0.080000
0.173750 0.080000 0.080000
0.220625 0.080000 0.080000
0.267500 0.080000 0.080000
0.314375 0.080000 0.080000
0.361250 0.080000 0.080000
0.408125 0.080000 0.080000
0.455000 0.080000 0.080000
0.501875 0.080000 0.080000
0.548750 0.080000 0.080000
0.595625 0.080000 0.080000
0.642500 0.080000 0.080000
0.689375 0.080000 0.080000
0.736250 0.080000 0.080000
0.783125 0.080000 0.080000
0.830000 0.080000 0.080000
0.080000 0.126875 0.080000
0.126875 0.126875 0.080000
0.173750 0.126875 0.080000
0.220625 0.126875 0.080000
0.267500 0.126875 0.080000
0.314375 0.126875 0.080000
0.361250 0.126875 0.080000
0.408125 0.126875 0.080000
0.455000 0.126875 0.080000
0.501875 0.126875 0.080000
0.548750 0.126875 0.080000
0.595625 0.126875 0.080000
0.642500 0.126875 0.080000
0.689375 0.126875 0.080000
0.736250 0.126875 0.080000
0.783125 0.126875 0.080000
0.830000 0.126875 0.080000
0.080000 0.173750 0.080000
0.126875 0.173750 0.080000
0.173750 0.173750 0.080000
0.220625 0.173750 0.080000
0.267500 0.173750 0.080000
0.314375 0.173750 0.080000
0.361250 0.173750 0.080000
0.408125 0.173750 0.080000
0.455000 0.173750 0.080000
0.501875 0.173750 0.080000
0.548750 0.173750 0.080000
0.595625 0.173750 0.080000
0.642500 0.173750 0.080000
0.689375 0.173750 0.080000
0.736250 0.173750 0.080000
0.783125 0.173750 0.080000
0.830000 0.173750 0.080000
0.080000 0.220625 0.080000
0.126875 0.220625 0.080000
0.173750 0.220625 0.080000
0.220625 0.220625 0.080000
0.267500 0.220625 0.080000
0.314375 0.220625 0.080000
0.361250 0.220625 0.080000
0.408125 0.220625 0.080000
0.455000 0.220625 0.080000
0.501875 0.220625 0.080000
0.548750 0.220625 0.080000
0.595625 0.220625 0.080000
0.642500 0.220625 0.080000
0.689375 0.220625 0.080000
0.736250 0.220625 0.080000
0.783125 0.220625 0.080000
0.830000 0.220625 0.080000
0.080000 0.267500 0.080000
0.126875 0.267500 0.080000
0.173750 0.267500 0.080000
0.220625 0.267500 0.080000
0.267500 0.267500 0.080000
0.314375 0.267500 0.080000
0.361250 0.267500 0.080000
0.408125 0.267500 0.080000
0.455000 0.267500 0.080000
0.501875 0.267500 0.080000
0.548750 0.267500 0.080000
0.595625 0.267500 0.080000
0.642500 0.267500 0.080000
0.689375 0.267500 0.080000
0.736250 0.267500 0.080000
0.783125 0.267500 0.080000
0.830000 0.267500 0.080000
0.080000 0.314375 0.080000
0.126875 0.314375 0.080000
0.173750 0.314375 0.080000
0.220625 0.314375 0.080000
0.267500 0.314375 0.080000
0.314375 0.314375 0.080000
0.361250 0.314375 0.080000
0.408125 0.314375 0.080000
0.455000 0.314375 0.080000
0.501875 0.314375 0.080000
0.548750 0.314375 0.080000
0.595625 0.314375 0.080000
0.642500 0.314375 0.080000
0.689375 0.314375 0.080000
0.736250 0.314375 0.080000
0.783125 0.314375 0.080000
0.830000 0.314375 0.080000
0.080000 0.361250 0.080000
0.126875 0.361250 0.080000
0.173750 0.361250 0.080000
0.220625 0.361250 0.080000
0.267500 0.361250 0.080000
0.314375 0.361250 0.080000
0.361250 0.361250 0.080000
0.408125 0.361250 0.080000
0.455000 0.361250 0.080000
0.501875 0.361250 0.080000
0.548750 0.361250 0.080000
0.595625 0.361250 0.080000
0.642500 0.361250 0.080000
0.689375 0.361250 0.080000
0.736250 0.361250 0.080000
0.783125 0.361250 0.080000
0.830000 0.361250 0.080000
0.080000 0.408125 0.080000
0.126875 0.408125 0.080000
0.173750 0.408125 0.080000
0.220625 0.408125 0.080000
0.267500 0.408125 0.080000
0.314375 0.408125 0.080000
0.361250 0.408125 0.080000
0.408125 0.408125 0.080000
0.455000 0.408125 0.080000
0.501875 0.408125 0.080000
0.548750 0.408125 0.080000
0.595625 0.408125 0.080000
0.642500 0.408125 0.080000
0.689375 0.408125 0.080000
0.736250 0.408125 0.080000
0.783125 0.408125 0.080000
0.830000 0.408125 0.080000
0.080000 0.455000 0.080000
0.126875 0.455000 0.080000
0.173750 0.455000 0.080000
0.220625 0.455000 0.080000
0.267500 0.455000 0.080000
0.314375 0.455000 0.080000
0.361250 0.455000 0.080000
0.408125 0.455000 0.080000
0.455000 0.455000 0.080000
0.501875 0.455000 0.080000
0.548750 0.455000 0.080000
0.595625 0.455000 0.080000
0.642500 0.455000 0.080000
0.689375 0.455000 0.080000
0.736250 0.455000 0.080000
0.783125 0.455000 0.080000
0.830000 0.455000 0.080000
0.080000 0.501875 0.080000
0.126875 0.501875 0.080000
0.173750 0.501875 0.080000
0.220625 0.501875 0.080000
0.267500 0.501875 0.080000
0.314375 0.501875 0.080000
0.361250 0.501875 0.080000
0.408125 0.501875 0.080000
0.455000 0.501875 0.080000
0.501875 0.501875 0.080000
0.548750 0.501875 0.080000
0.595625 0.501875 0.080000
0.642500 0.501875 0.080000
0.689375 0.501875 0.080000
0.736250 0.501875 0.080000
0.783125 0.501875 0.080000
0.830000 0.501875 0.080000
0.080000 0.548750 0.080000
0.126875 0.548750 0.080000
0.173750 0.548750 0.080000
0.220625 0.548750 0.080000
0.267500 0.548750 0.080000
0.314375 0.548750 0.080000
0.361250 0.548750 0.080000
0.408125 0.548750 0.080000
0.455000 0.548750 0.080000
0.501875 0.548750 0.080000
0.548750 0.548750 0.080000
0.595625 0.548750 0.080000
0.642500 0.548750 0.080000
0.689375 0.548750 0.080000
0.736250 0.548750 0.080000
0.783125 0.548750 0.080000
0.830000 0.548750 0.080000
0.080000 0.595625 0.080000
0.126875 0.595625 0.080000
0.173750 0.595625 0.080000
0.220625 0.595625 0.080000
0.267500 0.595625 0.080000
0.314375 0.595625 0.080000
0.361250 0.595625 0.080000
0.408125 0.595625 0.080000
0.455000 0.595625 0.080000
0.501875 0.595625 0.080000
0.548750 0.595625 0.080000
0.595625 0.595625 0.080000
0.642500 0.595625 0.080000
0.689375 0.595625 0.080000
0.736250 0.595625 0.080000
0.783125 0.595625 0.080000
0.830000 0.595625 0.080000
0.080000 0.642500 0.080000
0.126875 0.642500 0.080000
0.173750 0.642500 0.080000
0.220625 0.642500 0.080000
0.267500 0.642500 0.080000
0.314375 0.642500 0.080000
0.361250 0.642500 0.080000
0.408125 0.642500 0.080000
0.455000 0.642500 0.080000
0.501875 0.642500 0.080000
0.548750 0.642500 0.080000
0.595625 0.642500 0.080000
0.642500 0.642500 0.080000
0.689375 0.642500 0.080000
0.736250 0.642500 0.080000
0.783125 0.642500 0.080000
0.830000 0.642500 0.080000
0.080000 0.689375 0.080000
0.126875 0.689375 0.080000
0.173750 0.689375 0.080000
0.220625 0.689375 0.080000
0.267500 0.689375 0.080000
0.314375 0.689375 0.080000
0.361250 0.689375 0.080000
0.408125 0.689375 0.080000
0.455000 0.689375 0.080000
0.501875 0.689375 0.080000
0.548750 0.689375 0.080000
0.595625 0.689375 0.080000
0.642500 0.689375 0.080000
0.689375 0.689375 0.080000
0.736250 0.689375 0.080000
0.783125 0.689375 0.080000
0.830000 0.689375 0.080000
0.080000 0.736250 0.080000
0.126875 0.736250 0.080000
0.173750 0.736250 0.080000
0.220625 0.736250 0.080000
0.267500 0.736250 0.080000
0.314375 0.736250 0.080000
0.361250 0.736250 0.080000
0.408125 0.736250 0.080000
0.455000 0.736250 0.080000
0.501875 0.736250 0.080000
0.548750 0.736250 0.080000
0.595625 0.736250 0.080000
0.642500 0.736250 0.080000
0.689375 0.736250 0.080000
0.736250 0.736250 0.080000
0.783125 0.736250 0.080000
0.830000 0.736250 0.080000
0.080000 0.783125 0.080000
0.126875 0.783125 0.080000
0.173750 0.783125 0.080000
0.220625 0.783125 0.080000
0.267500 0.783125 0.080000
0.314375 0.783125 0.080000
0.361250 0.783125 0.080000
0.408125 0.783125 0.080000
0.455000 0.783125 0.080000
0.501875 0.783125 0.080000
0.548750 0.783125 0.080000
0.595625 0.783125 0.080000
0.642500 0.783125 0.080000
0.689375 0.783125 0.080000
0.736250 0.783125 0.080000
0.783125 0.783125 0.080000
0.830000 0.783125 0.080000
0.080000 0.830000 0.080000
0.126875 0.830000 0.080000
0.173750 0.830000 0.080000
0.220625 0.830000 0.080000
0.267500 0.830000 0.080000
0.314375 0.830000 0.080000
0.361250 0.830000 0.080000
0.408125 0.830000 0.080000
0.455000 0.830000 0.080000
0.501875 0.830000 0.080000
0.548750 0.830000 0.080000
0.595625 0.830000 0.080000
0.642500 0.830000 0.080000
0.689375 0.830000 0.080000
0.736250 0.830000 0.080000
0.783125 0.830000 0.080000
0.830000 0.830000 0.080000
0.080000 0.080000 0.126875
0.126875 0.080000 0.126875
0.173750 0.080000 0.126875
0.220625 0.080000 0.126875
0.267500 0.080000 0.126875
0.314375 0.080000 0.126875
0.361250 0.080000 0.126875
0.408125 0.080000 0.126875
0.455000 0.080000 0.126875
0.501875 0.080000 0.126875
0.548750 0.080000 0.126875
0.595625 0.080000 0.126875
0.642500 0.080000 0.126875
0.689375 0.080000 0.126875
0.736250 0.080000 0.126875
0.783125 0.080000 0.126875
0.830000 0.080000 0.126875
0.080000 0.126875 0.126875
0.126875 0.126875 0.126875
0.173750 0.126875 0.126875
0.220625 0.126875 0.126875
0.267500 0.126875 0.126875
0.314375 0.126875 0.126875
0.361250 0.126875 0.126875
0.408125 0.126875 0.126875
0.455000 0.126875 0.126875
0.501875 0.126875 0.126875
0.548750 0.126875 0.126875
0.595625 0.126875 0.126875
0.642500 0.126875 0.126875
0.689375 0.126875 0.126875
0.736250 0.126875 0.126875
0.783125 0.126875 0.126875
0.830000 0.126875 0.126875
0.080000 0.173750 0.126875
0.126875 0.173750 0.126875
0.173750 0.173750 0.126875
0.220625 0.173750 0.126875
0.267500 0.173750 0.126875
0.314375 0.173750 0.126875
0.361250 0.173750 0.126875
0.408125 0.173750 0.126875
0.455000 0.173750 0.126875
0.501875 0.173750 0.126875
0.548750 0.173750 0.126875
0.595625 0.173750 0.126875
0.642500 0.173750 0.126875
0.689375 0.173750 0.126875
0.736250 0.173750 0.126875
0.783125 0.173750 0.126875
0.830000 0.173750 0.126875
0.080000 0.220625 0.126875
0.126875 0.220625 0.126875
0.173750 0.220625 0.126875
0.220625 0.220625 0.126875
0.267500 0.220625 0.126875
0.314375 0.220625 0.126875
0.361250 0.220625 0.126875
0.408125 0.220625 0.126875
0.455000 0.220625 0.126875
0.501875 0.220625 0.126875
0.548750 0.220625 0.126875
0.595625 0.220625 0.126875
0.642500 0.220625 0.126875
0.689375 0.220625 0.126875
0.736250 0.220625 0.126875
0.783125 0.220625 0.126875
0.830000 0.220625 0.126875
0.080000 0.267500 0.126875
0.126875 0.267500 0.126875
0.173750 0.267500 0.126875
0.220625 0.267500 0.126875
0.267500 0.267500 0.126875
0.314375 0.267500 0.126875
0.361250 0.267500 0.126875
0.408125 0.267500 0.126875
0.455000 0.267500 0.126875
0.501875 0.267500 0.126875
0.548750 0.267500 0.126875
0.595625 0.267500 0.126875
0.642500 0.267500 0.126875
0.689375 0.267500 0.126875
0.736250 0.267500 0.126875
0.783125 0.267500 0.126875
0.830000 0.267500 0.126875
0.080000 0.314375 0.126875
0.126875 0.314375 0.126875
0.173750 0.314375 0.126875
0.220625 0.314375 0.126875
0.267500 0.314375 0.126875
0.314375 0.314375 0.126875
0.361250 0.314375 0.126875
0.408125 0.314375 0.126875
0.455000 0.314375 0.126875
0.501875 0.314375 0.126875
0.548750 0.314375 0.126875
0.595625 0.314375 0.126875
0.642500 0.314375 0.126875
0.689375 0.314375 0.126875
0.736250 0.314375 0.126875
0.783125 0.314375 0.126875
0.830000 0.314375 0.126875
0.080000 0.361250 0.126875
0.126875 0.361250 0.126875
0.173750 0.361250 0.126875
0.220625 0.361250 0.126875
0.267500 0.361250 0.126875
0.314375 0.361250 0.126875
0.361250 0.361250 0.126875
0.408125 0.361250 0.126875
0.455000 0.361250 0.126875
0.501875 0.361250 0.126875
0.548750 0.361250 0.126875
0.595625 0.361250 0.126875
0.642500 0.361250 0.126875
0.689375 0.361250 0.126875
0.736250 0.361250 0.126875
0.783125 0.361250 0.126875
0.830000 0.361250 0.126875
0.080000 0.408125 0.126875
0.126875 0.408125 0.126875
0.173750 0.408125 0.126875
0.220625 0.408125 0.126875
0.267500 0.408125 0.126875
0.314375 0.408125 0.126875
0.361250 0.408125 0.126875
0.408125 0.408125 0.126875
0.455000 0.408125 0.126875
0.501875 0.408125 0.126875
0.548750 0.408125 0.126875
0.595625 0.408125 0.126875
0.642500 0.408125 0.126875
0.689375 0.408125 0.126875
0.736250 0.408125 0.126875
0.783125 0.408125 0.126875
0.830000 0.408125 0.126875
0.080000 0.455000 0.126875
0.126875 0.455000 0.126875
0.173750 0.455000 0.126875
0.220625 0.455000 0.126875
0.267500 0.455000 0.126875
0.314375 0.455000 0.126875
0.361250 0.455000 0.126875
0.408125 0.455000 0.126875
0.455000 0.455000 0.126875
0.501875 0.455000 0.126875
0.548750 0.455000 0.126875
0.595625 0.455000 0.126875
0.642500 0.455000 0.126875
0.689375 0.455000 0.126875
0.736250 0.455000 0.126875
0.783125 0.455000 0.126875
0.830000 0.455000 0.126875
0.080000 0.501875 0.126875
0.126875 0.501875 0.126875
0.173750 0.501875 0.126875
0.220625 0.501875 0.126875
0.267500 0.501875 0.126875
0.314375 0.501875 0.126875
0.361250 0.501875 0.126875
0.408125 0.501875 0.126875
0.455000 0.501875 0.126875
0.501875 0.501875 0.126875
0.548750 0.501875 0.126875
0.595625 0.501875 0.126875
0.642500 0.501875 0.126875
0.689375 0.501875 0.126875
0.736250 0.501875 0.126875
0.783125 0.501875 0.126875
0.830000 0.501875 0.126875
0.080000 0.548750 0.126875
0.126875 0.548750 0.126875
0.173750 0.548750 0.126875
0.220625 0.548750 0.126875
0.267500 0.548750 0.126875
0.314375 0.548750 0.126875
0.361250 0.548750 0.126875
0.408125 0.548750 0.126875
0.455000 0.548750 0.126875
0.501875 0.548750 0.126875
0.548750 0.548750 0.126875
0.595625 0.548750 0.126875
0.642500 0.548750 0.126875
0.689375 0.548750 0.126875
0.736250 0.548750 0.126875
0.783125 0.548750 0.126875
0.830000 0.548750 0.126875
0.080000 0.595625 0.126875
0.126875 0.595625 0.126875
0.173750 0.595625 0.126875
0.220625 0.595625 0.126875
0.267500 0.595625 0.126875
0.314375 0.595625 0.126875
0.361250 0.595625 0.126875
0.408125 0.595625 0.126875
0.455000 0.595625 0.126875
0.501875 0.595625 0.126875
0.548750 0.595625 0.126875
0.595625 0.595625 0.126875
0.642500 0.595625 0.126875
0.689375 0.595625 0.126875
0.736250 0.595625 0.126875
0.783125 0.595625 0.126875
0.830000 0.595625 0.126875
0.080000 0.642500 0.126875
0.126875 0.642500 0.126875
0.173750 0.642500 0.126875
0.220625 0.642500 0.126875
0.267500 0.642500 0.126875
0.314375 0.642500 0.126875
0.361250 0.642500 0.126875
0.408125 0.642500 0.126875
0.455000 0.642500 0.126875
0.501875 0.642500 0.126875
0.548750 0.642500 0.126875
0.595625 0.642500 0.126875
0.642500 0.642500 0.126875
0.689375 0.642500 0.126875
0.736250 0.642500 0.126875
0.783125 0.642500 0.126875
0.830000 0.642500 0.126875
0.080000 0.689375 0.126875
0.126875 0.689375 0.126875
0.173750 0.689375 0.126875
0.220625 0.689375 0.126875
0.267500 0.689375 0.126875
0.314375 0.689375 0.126875
0.361250 0.689375 0.126875
0.408125 0.689375 0.126875
0.455000 0.689375 0.126875
0.501875 0.689375 0.126875
0.548750 0.689375 0.126875
0.595625 0.689375 0.126875
0.642500 0.689375 0.126875
0.689375 0.689375 0.126875
0.736250 0.689375 0.126875
0.783125 0.689375 0.126875
0.830000 0.689375 0.126875
0.080000 0.736250 0.126875
0.126875 0.736250 0.126875
0.173750 0.736250 0.126875
0.220625 0.736250 0.126875
0.267500 0.736250 0.126875
0.314375 0.736250 0.126875
0.361250 0.736250 0.126875
0.408125 0.736250 0.126875
0.455000 0.736250 0.126875
0.501875 0.736250 0.126875
0.548750 0.736250 0.126875
0.595625 0.736250 0.126875
0.642500 0.736250 0.126875
0.689375 0.736250 0.126875
0.736250 0.736250 0.126875
0.783125 0.736250 0.126875
0.830000 0.736250 0.126875
0.080000 0.783125 0.126875
0.126875 0.783125 0.126875
0.173750 0.783125 0.126875
0.220625 0.783125 0.126875
0.267500 0.783125 0.126875
0.314375 0.783125 0.126875
0.361250 0.783125 0.126875
0.408125 0.783125 0.126875
0.455000 0.783125 0.126875
0.501875 0.783125 0.126875
0.548750 0.783125 0.126875
0.595625 0.783125 0.126875
0.642500 0.783125 0.126875
0.689375 0.783125 0.126875
0.736250 0.783125 0.126875
0.783125 0.783125 0.126875
0.830000 0.783125 0.126875
0.080000 0.830000 0.126875
0.126875 0.830000 0.126875
0.173750 0.830000 0.126875
0.220625 0.830000 0.126875
0.267500 0.830000 0.126875
0.314375 0.830000 0.126875
0.361250 0.830000 0.126875
0.408125 0.830000 0.126875
0.455000 0.830000 0.126875
0.501875 0.830000 0.126875
0.548750 0.830000 0.126875
0.595625 0.830000 0.126875
0.642500 0.830000 0.126875
0.689375 0.830000 0.126875
0.736250 0.830000 0.126875
0.783125 0.830000 0.126875
0.830000 0.830000 0.126875
0.080000 0.080000 0.173750
0.126875 0.080000 0.173750
0.173750 0.080000 0.173750
0.220625 0.080000 0.173750
0.267500 0.080000 0.173750
0.314375 0.080000 0.173750
0.361250 0.080000 0.173750
0.408125 0.080000 0.173750
0.455000 0.080000 0.173750
0.501875 0.080000 0.173750
0.548750 0.080000 0.173750
0.595625 0.080000 0.173750
0.642500 0.080000 0.173750
0.689375 0.080000 0.173750
0.736250 0.080000 0.173750
0.783125 0.080000 0.173750
0.830000 0.080000 0.173750
0.080000 0.126875 0.173750
0.126875 0.126875 0.173750
0.173750 0.126875 0.173750
0.220625 0.126875 0.173750
0.267500 0.126875 0.173750
0.314375 0.126875 0.173750
0.361250 0.126875 0.173750
0.408125 0.126875 0.173750
0.455000 0.126875 0.173750
0.501875 0.126875 0.173750
0.548750 0.126875 0.173750
0.595625 0.126875 0.173750
0.642500 0.126875 0.173750
0.689375 0.126875 0.173750
0.736250 0.126875 0.173750
0.783125 0.126875 0.173750
0.830000 0.126875 0.173750
0.080000 0.173750 0.173750
0.126875 0.173750 0.173750
0.173750 0.173750 0.173750
0.220625 0.173750 0.173750
0.267500 0.173750 0.173750
0.314375 0.173750 0.173750
0.361250 0.173750 0.173750
0.408125 0.173750 0.173750
0.455000 0.173750 0.173750
0.501875 0.173750 0.173750
0.548750 0.173750 0.173750
0.595625 0.173750 0.173750
0.642500 0.173750 0.173750
0.689375 0.173750 0.173750
0.736250 0.173750 0.173750
0.783125 0.173750 0.173750
0.830000 0.173750 0.173750
0.080000 0.220625 0.173750
0.126875 0.220625 0.173750
0.173750 0.220625 0.173750
0.220625 0.220625 0.173750
0.267500 0.220625 0.173750
0.314375 0.220625 0.173750
0.361250 0.220625 0.173750
0.408125 0.220625 0.173750
0.455000 0.220625 0.173750
0.501875 0.220625 0.173750
0.548750 0.220625 0.173750
0.595625 0.220625 0.173750
0.642500 0.220625 0.173750
0.689375 0.220625 0.173750
0.736250 0.220625 0.173750
0.783125 0.220625 0.173750
0.830000 0.220625 0.173750
0.080000 0.267500 0.173750
0.126875 0.267500 0.173750
0.173750 0.267500 0.173750
0.220625 0.267500 0.173750
0.267500 0.267500 0.173750
0.314375 0.267500 0.173750
0.361250 0.267500 0.173750
0.408125 0.267500 0.173750
0.455000 0.267500 0.173750
0.501875 0.267500 0.173750
0.548750 0.267500 0.173750
0.595625 0.267500 0.173750
0.642500 0.267500 0.173750
0.689375 0.267500 0.173750
0.736250 0.267500 0.173750
0.783125 0.267500 0.173750
0.830000 0.267500 0.173750
0.080000 0.314375 0.173750
0.126875 0.314375 0.173750
0.173750 0.314375 0.173750
0.220625 0.314375 0.173750
0.267500 0.314375 0.173750
0.314375 0.314375 0.173750
0.361250 0.314375 0.173750
0.408125 0.314375 0.173750
0.455000 0.314375 0.173750
0.501875 0.314375 0.173750
0.548750 0.314375 0.173750
0.595625 0.314375 0.173750
0.642500 0.314375 0.173750
0.689375 0.314375 0.173750
0.736250 0.314375 0.173750
0.783125 0.314375 0.173750
0.830000 0.314375 0.173750
0.080000 0.361250 0.173750
0.126875 0.361250 0.173750
0.173750 0.361250 0.173750
0.220625 0.361250 0.173750
0.267500 0.361250 0.173750
0.314375 0.361250 0.173750
0.361250 0.361250 0.173750
0.408125 0.361250 0.173750
0.455000 0.361250 0.173750
0.501875 0.361250 0.173750
0.548750 0.361250 0.173750
0.595625 0.361250 0.173750
0.642500 0.361250 0.173750
0.689375 0.361250 0.173750
0.736250 0.361250 0.173750
0.783125 0.361250 0.173750
0.830000 0.361250 0.173750
0.080000 0.408125 0.173750
0.126875 0.408125 0.173750
0.173750 0.408125 0.173750
0.220625 0.408125 0.173750
0.267500 0.408125 0.173750
0.314375 0.408125 0.173750
0.361250 0.408125 0.173750
0.408125 0.408125 0.173750
0.455000 0.408125 0.173750
0.501875 0.408125 0.173750
0.548750 0.408125 0.173750
0.595625 0.408125 0.173750
0.642500 0.408125 0.173750
0.689375 0.408125 0.173750
0.736250 0.408125 0.173750
0.783125 0.408125 0.173750
0.830000 0.408125 0.173750
0.080000 0.455000 0.173750
0.126875 0.455000 0.173750
0.173750 0.455000 0.173750
0.220625 0.455000 0.173750
0.267500 0.455000 0.173750
0.314375 0.455000 0.173750
0.361250 0.455000 0.173750
0.408125 0.455000 0.173750
0.455000 0.455000 0.173750
0.501875 0.455000 0.173750
0.548750 0.455000 0.173750
0.595625 0.455000 0.173750
0.642500 0.455000 0.173750
0.689375 0.455000 0.173750
0.736250 0.455000 0.173750
0.783125 0.455000 0.173750
0.830000 0.455000 0.173750
0.080000 0.501875 0.173750
0.126875 0.501875 0.173750
0.173750 0.501875 0.173750
0.220625 0.501875 0.173750
0.267500 0.501875 0.173750
0.314375 0.501875 0.173750
0.361250 0.501875 0.173750
0.408125 0.501875 0.173750
0.455000 0.501875 0.173750
0.501875 0.501875 0.173750
0.548750 0.501875 0.173750
0.595625 0.501875 0.173750
0.642500 0.501875 0.173750
0.689375 0.501875 0.173750
0.736250 0.501875 0.173750
0.783125 0.501875 0.173750
0.830000 0.501875 0.173750
0.080000 0.548750 0.173750
0.126875 0.548750 0.173750
0.173750 0.548750 0.173750
0.220625 0.548750 0.173750
0.267500 0.548750 0.173750
0.314375 0.548750 0.173750
0.361250 0.548750 0.173750
0.408125 0.548750 0.173750
0.455000 0.548750 0.173750
0.501875 0.548750 0.173750
0.548750 0.548750 0.173750
0.595625 0.548750 0.173750
0.642500 0.548750 0.173750
0.689375 0.548750 0.173750
0.736250 0.548750 0.173750
0.783125 0.548750 0.173750
0.830000 0.548750 0.173750
0.080000 0.595625 0.173750
0.126875 0.595625 0.173750
0.173750 0.595625 0.173750
0.220625 0.595625 0.173750
0.267500 0.595625 0.173750
0.314375 0.595625 0.173750
0.361250 0.595625 0.173750
0.408125 0.595625 0.173750
0.455000 0.595625 0.173750
0.501875 0.595625 0.173750
0.548750 0.595625 0.173750
0.595625 0.595625 0.173750
0.642500 0.595625 0.173750
0.689375 0.595625 0.173750
0.736250 0.595625 0.173750
0.783125 0.595625 0.173750
0.830000 0.595625 0.173750
0.080000 0.642500 0.173750
0.126875 0.642500 0.173750
0.173750 0.642500 0.173750
0.220625 0.642500 0.173750
0.267500 0.642500 0.173750
0.314375 0.642500 0.173750
0.361250 0.642500 0.173750
0.408125 0.642500 0.173750
0.455000 0.642500 0.173750
0.501875 0.642500 0.173750
0.548750 0.642500 0.173750
0.595625 0.642500 0.173750
0.642500 0.642500 0.173750
0.689375 0.642500 0.173750
0.736250 0.642500 0.173750
0.783125 0.642500 0.173750
0.830000 0.642500 0.173750
0.080000 0.689375 0.173750
0.126875 0.689375 0.173750
0.173750 0.689375 0.173750
0.220625 0.689375 0.173750
0.267500 0.689375 0.173750
0.314375 0.689375 0.173750
0.361250 0.689375 0.173750
0.408125 0.689375 0.173750
0.455000 0.689375 0.173750
0.501875 0.689375 0.173750
0.548750 0.689375 0.173750
0.595625 0.689375 0.173750
0.642500 0.689375 0.173750
0.689375 0.689375 0.173750
0.736250 0.689375 0.173750
0.783125 0.689375 0.173750
0.830000 0.689375 0.173750
0.080000 0.736250 0.173750
0.126875 0.736250 0.173750
0.173750 0.736250 0.173750
0.220625 0.736250 0.173750
0.267500 0.736250 0.173750
0.314375 0.736250 0.173750
0.361250 0.736250 0.173750
0.408125 0.736250 0.173750
0.455000 0.736250 0.173750
0.501875 0.736250 0.173750
0.548750 0.736250 0.173750
0.595625 0.736250 0.173750
0.642500 0.736250 0.173750
0.689375 0.736250 0.173750
0.736250 0.736250 0.173750
0.783125 0.736250 0.173750
0.830000 0.736250 0.173750
0.080000 0.783125 0.173750
0.126875 0.783125 0.173750
0.173750 0.783125 0.173750
0.220625 0.783125 0.173750
0.267500 0.783125 0.173750
0.314375 0.783125 0.173750
0.361250 0.783125 0.173750
0.408125 0.783125 0.173750
0.455000 0.783125 0.173750
0.501875 0.783125 0.173750
0.548750 0.783125 0.173750
0.595625 0.783125 0.173750
0.642500 0.783125 0.173750
0.689375 0.783125 0.173750
0.736250 0.783125 0.173750
0.783125 0.783125 0.173750
0.830000 0.783125 0.173750
0.080000 0.830000 0.173750
0.126875 0.830000 0.173750
0.173750 0.830000 0.173750
0.220625 0.830000 0.173750
0.267500 0.830000 0.173750
0.314375 0.830000 0.173750
0.361250 0.830000 0.173750
0.408125 0.830000 0.173750
0.455000 0.830000 0.173750
0.501875 0.830000 0.173750
0.548750 0.830000 0.173750
0.595625 0.830000 0.173750
0.642500 0.830000 0.173750
0.689375 0.830000 0.173750
0.736250 0.830000 0.173750
0.783125 0.830000 0.173750
0.830000 0.830000 0.173750
0.080000 0.080000 0.220625
0.126875 0.080000 0.220625
0.173750 0.080000 0.220625
0.220625 0.080000 0.220625
0.267500 0.080000 0.220625
0.314375 0.080000 0.220625
0.361250 0.080000 0.220625
0.408125 0.080000 0.220625
0.455000 0.080000 0.220625
0.501875 0.080000 0.220625
0.548750 0.080000 0.220625
0.595625 0.080000 0.220625
0.642500 0.080000 0.220625
0.689375 0.080000 0.220625
0.736250 0.080000 0.220625
0.783125 0.080000 0.220625
0.830000 0.080000 0.220625
0.080000 0.126875 0.220625
0.126875 0.126875 0.220625
