lut-visualizer/public/data/sample_luts/low_contrast_fade.cube
LUT_3D_SIZE 9
DOMAIN_MIN 0.0 0.0 0.0
DOMAIN_MAX 1.0 1.0 1.0
0.080000 0.080000 0.080000
0.173750 0.080000 0.080000
0.267500 0.080000 0.080000
0.361250 0.080000 0.080000
0.455000 0.080000 0.080000
0.548750 0.080000 0.080000
0.642500 0.080000 0.080000
0.736250 0.080000 0.080000
0.830000 0.080000 0.080000
0.080000 0.173750 0.080000
0.173750 0.173750 0.080000
0.267500 0.173750 0.080000
0.361250 0.173750 0.080000
0.455000 0.173750 0.080000
0.548750 0.173750 0.080000
0.642500 0.173750 0.080000
0.736250 0.173750 0.080000
0.830000 0.173750 0.080000
0.080000 0.267500 0.080000
0.173750 0.267500 0.080000
0.267500 0.267500 0.080000
0.361250 0.267500 0.080000
0.455000 0.267500 0.080000
0.548750 0.267500 0.080000
0.642500 0.267500 0.080000
0.736250 0.267500 0.080000
0.830000 0.267500 0.080000
0.080000 0.361250 0.080000
0.173750 0.361250 0.080000
0.267500 0.361250 0.080000
0.361250 0.361250 0.080000
0.455000 0.361250 0.080000
0.548750 0.361250 0.080000
0.642500 0.361250 0.080000
0.736250 0.361250 0.080000
0.830000 0.361250 0.080000
0.080000 0.455000 0.080000
0.173750 0.455000 0.080000
0.267500 0.455000 0.080000
0.361250 0.455000 0.080000
0.455000 0.455000 0.080000
0.548750 0.455000 0.080000
0.642500 0.455000 0.080000
0.736250 0.455000 0.080000
0.830000 0.455000 0.080000
0.080000 0.548750 0.080000
0.173750 0.548750 0.080000
0.267500 0.548750 0.080000
0.361250 0.548750 0.080000
0.455000 0.548750 0.080000
0.548750 0.548750 0.080000
0.642500 0.548750 0.080000
0.736250 0.548750 0.080000
0.830000 0.548750 0.080000
0.080000 0.642500 0.080000
0.173750 0.642500 0.080000
0.267500 0.642500 0.080000
0.361250 0.642500 0.080000
0.455000 0.642500 0.080000
0.548750 0.642500 0.080000
0.642500 0.642500 0.080000
0.736250 0.642500 0.080000
0.830000 0.642500 0.080000
0.080000 0.736250 0.080000
0.173750 0.736250 0.080000
0.267500 0.736250 0.080000
0.361250 0.736250 0.080000
0.455000 0.736250 0.080000
0.548750 0.736250 0.080000
0.642500 0.736250 0.080000
0.736250 0.736250 0.080000
0.830000 0.736250 0.080000
0.080000 0.830000 0.080000
0.173750 0.830000 0.080000
0.267500 0.830000 0.080000
0.361250 0.830000 0.080000
0.455000 0.830000 0.080000
0.548750 0.830000 0.080000
0.642500 0.830000 0.080000
0.736250 0.830000 0.080000
0.830000 0.830000 0.080000
0.080000 0.080000 0.173750
0.173750 0.080000 0.173750
0.267500 0.080000 0.173750
0.361250 0.080000 0.173750
0.455000 0.080000 0.173750
0.548750 0.080000 0.173750
0.642500 0.080000 0.173750
0.736250 0.080000 0.173750
0.830000 0.080000 0.173750
0.080000 0.173750 0.173750
0.173750 0.173750 0.173750
0.267500 0.173750 0.173750
0.361250 0.173750 0.173750
0.455000 0.173750 0.173750
0.548750 0.173750 0.173750
0.642500 0.173750 0.173750
0.736250 0.173750 0.173750
0.830000 0.173750 0.173750
0.080000 0.267500 0.173750
0.173750 0.267500 0.173750
0.267500 0.267500 0.173750
0.361250 0.267500 0.173750
0.455000 0.267500 0.173750
0.548750 0.267500 0.173750
0.642500 0.267500 0.173750
0.736250 0.267500 0.173750
0.830000 0.267500 0.173750
0.080000 0.361250 0.173750
0.173750 0.361250 0.173750
0.267500 0.361250 0.173750
0.361250 0.361250 0.173750
0.455000 0.361250 0.173750
0.548750 0.361250 0.173750
0.642500 0.361250 0.173750
0.736250 0.361250 0.173750
0.830000 0.361250 0.173750
0.080000 0.455000 0.173750
0.173750 0.455000 0.173750
0.267500 0.455000 0.173750
0.361250 0.455000 0.173750
0.455000 0.455000 0.173750
0.548750 0.455000 0.173750
0.642500 0.455000 0.173750
0.736250 0.455000 0.173750
0.830000 0.455000 0.173750
0.080000 0.548750 0.173750
0.173750 0.548750 0.173750
0.267500 0.548750 0.173750
0.361250 0.548750 0.173750
0.455000 0.548750 0.173750
0.548750 0.548750 0.173750
0.642500 0.548750 0.173750
0.736250 0.548750 0.173750
0.830000 0.548750 0.173750
0.080000 0.642500 0.173750
0.173750 0.642500 0.173750
0.267500 0.642500 0.173750
0.361250 0.642500 0.173750
0.455000 0.642500 0.173750
0.548750 0.642500 0.173750
0.642500 0.642500 0.173750
0.736250 0.642500 0.173750
0.830000 0.642500 0.173750
0.080000 0.736250 0.173750
0.173750 0.736250 0.173750
0.267500 0.736250 0.173750
0.361250 0.736250 0.173750
0.455000 0.736250 0.173750
0.548750 0.736250 0.173750
0.642500 0.736250 0.173750
0.736250 0.736250 0.173750
0.830000 0.736250 0.173750
0.080000 0.830000 0.173750
0.173750 0.830000 0.173750
0.267500 0.830000 0.173750
0.361250 0.830000 0.173750
0.455000 0.830000 0.173750
0.548750 0.830000 0.173750
0.642500 0.830000 0.173750
0.736250 0.830000 0.173750
0.830000 0.830000 0.173750
0.080000 0.080000 0.267500
0.173750 0.080000 0.267500
0.267500 0.080000 0.267500
0.361250 0.080000 0.267500
0.455000 0.080000 0.267500
0.548750 0.080000 0.267500
0.642500 0.080000 0.267500
0.736250 0.080000 0.267500
0.830000 0.080000 0.267500
0.080000 0.173750 0.267500
0.173750 0.173750 0.267500
0.267500 0.173750 0.267500
0.361250 0.173750 0.267500
0.455000 0.173750 0.267500
0.548750 0.173750 0.267500
0.642500 0.173750 0.267500
0.736250 0.173750 0.267500
0.830000 0.173750 0.267500
0.080000 0.267500 0.267500
0.173750 0.267500 0.267500
0.267500 0.267500 0.267500
0.361250 0.267500 0.267500
0.455000 0.267500 0.267500
0.548750 0.267500 0.267500
0.642500 0.267500 0.267500
0.736250 0.267500 0.267500
0.830000 0.267500 0.267500
0.080000 0.361250 0.267500
0.173750 0.361250 0.267500
0.267500 0.361250 0.267500
0.361250 0.361250 0.267500
0.455000 0.361250 0.267500
0.548750 0.361250 0.267500
0.642500 0.361250 0.267500
0.736250 0.361250 0.267500
0.830000 0.361250 0.267500
0.080000 0.455000 0.267500
0.173750 0.455000 0.267500
0.267500 0.455000 0.267500
0.361250 0.455000 0.267500
0.455000 0.455000 0.267500
0.548750 0.455000 0.267500
0.642500 0.455000 0.267500
0.736250 0.455000 0.267500
0.830000 0.455000 0.267500
0.080000 0.548750 0.267500
0.173750 0.548750 0.267500
0.267500 0.548750 0.267500
0.361250 0.548750 0.267500
0.455000 0.548750 0.267500
0.548750 0.548750 0.267500
0.642500 0.548750 0.267500
0.736250 0.548750 0.267500
0.830000 0.548750 0.267500
0.080000 0.642500 0.267500
0.173750 0.642500 0.267500
0.267500 0.642500 0.267500
0.361250 0.642500 0.267500
0.455000 0.642500 0.267500
0.548750 0.642500 0.267500
0.642500 0.642500 0.267500
0.736250 0.642500 0.267500
0.830000 0.642500 0.267500
0.080000 0.736250 0.267500
0.173750 0.736250 0.267500
0.267500 0.736250 0.267500
0.361250 0.736250 0.267500
0.455000 0.736250 0.267500
0.548750 0.736250 0.267500
0.642500 0.736250 0.267500
0.736250 0.736250 0.267500
0.830000 0.736250 0.267500
0.080000 0.830000 0.267500
0.173750 0.830000 0.267500
0.267500 0.830000 0.267500
0.361250 0.830000 0.267500
0.455000 0.830000 0.267500
0.548750 0.830000 0.267500
0.642500 0.830000 0.267500
0.736250 0.830000 0.267500
0.830000 0.830000 0.267500
0.080000 0.080000 0.361250
0.173750 0.080000 0.361250
0.267500 0.080000 0.361250
0.361250 0.080000 0.361250
0.455000 0.080000 0.361250
0.548750 0.080000 0.361250
0.642500 0.080000 0.361250
0.736250 0.080000 0.361250
0.830000 0.080000 0.361250
0.080000 0.173750 0.361250
0.173750 0.173750 0.361250
0.267500 0.173750 0.361250
0.361250 0.173750 0.361250
0.455000 0.173750 0.361250
0.548750 0.173750 0.361250
0.642500 0.173750 0.361250
0.736250 0.173750 0.361250
0.830000 0.173750 0.361250
0.080000 0.267500 0.361250
0.173750 0.267500 0.361250
0.267500 0.267500 0.361250
0.361250 0.267500 0.361250
0.455000 0.267500 0.361250
0.548750 0.267500 0.361250
0.642500 0.267500 0.361250
0.736250 0.267500 0.361250
0.830000 0.267500 0.361250
0.080000 0.361250 0.361250
0.173750 0.361250 0.361250
0.267500 0.361250 0.361250
0.361250 0.361250 0.361250
0.455000 0.361250 0.361250
0.548750 0.361250 0.361250
0.642500 0.361250 0.361250
0.736250 0.361250 0.361250
0.830000 0.361250 0.361250
0.080000 0.455000 0.361250
0.173750 0.455000 0.361250
0.267500 0.455000 0.361250
0.361250 0.455000 0.361250
0.455000 0.455000 0.361250
0.548750 0.455000 0.361250
0.642500 0.455000 0.361250
0.736250 0.455000 0.361250
0.830000 0.455000 0.361250
0.080000 0.548750 0.361250
0.173750 0.548750 0.361250
0.267500 0.548750 0.361250
0.361250 0.548750 0.361250
0.455000 0.548750 0.361250
0.548750 0.548750 0.361250
0.642500 0.548750 0.361250
0.736250 0.548750 0.361250
0.830000 0.548750 0.361250
0.080000 0.642500 0.361250
0.173750 0.642500 0.361250
0.267500 0.642500 0.361250
0.361250 0.642500 0.361250
0.455000 0.642500 0.361250
0.548750 0.642500 0.361250
0.642500 0.642500 0.361250
0.736250 0.642500 0.361250
0.830000 0.642500 0.361250
0.080000 0.736250 0.361250
0.173750 0.736250 0.361250
0.267500 0.736250 0.361250
0.361250 0.736250 0.361250
0.455000 0.736250 0.361250
0.548750 0.736250 0.361250
0.642500 0.736250 0.361250
0.736250 0.736250 0.361250
0.830000 0.736250 0.361250
0.080000 0.830000 0.361250
0.173750 0.830000 0.361250
0.267500 0.830000 0.361250
0.361250 0.830000 0.361250
0.455000 0.830000 0.361250
0.548750 0.830000 0.361250
0.642500 0.830000 0.361250
0.736250 0.830000 0.361250
0.830000 0.830000 0.361250
0.080000 0.080000 0.455000
0.173750 0.080000 0.455000
0.267500 0.080000 0.455000
0.361250 0.080000 0.455000
0.455000 0.080000 0.455000
0.548750 0.080000 0.455000
0.642500 0.080000 0.455000
0.736250 0.080000 0.455000
0.830000 0.080000 0.455000
0.080000 0.173750 0.455000
0.173750 0.173750 0.455000
0.267500 0.173750 0.455000
0.361250 0.173750 0.455000
0.455000 0.173750 0.455000
0.548750 0.173750 0.455000
0.642500 0.173750 0.455000
0.736250 0.173750 0.455000
0.830000 0.173750 0.455000
0.080000 0.267500 0.455000
0.173750 0.267500 0.455000
0.267500 0.267500 0.455000
0.361250 0.267500 0.455000
0.455000 0.267500 0.455000
0.548750 0.267500 0.455000
0.642500 0.267500 0.455000
0.736250 0.267500 0.455000
0.830000 0.267500 0.455000
0.080000 0.361250 0.455000
0.173750 0.361250 0.455000
0.267500 0.361250 0.455000
0.361250 0.361250 0.455000
0.455000 0.361250 0.455000
0.548750 0.361250 0.455000
0.642500 0.361250 0.455000
0.736250 0.361250 0.455000
0.830000 0.361250 0.455000
0.080000 0.455000 0.455000
0.173750 0.455000 0.455000
0.267500 0.455000 0.455000
0.361250 0.455000 0.455000
0.455000 0.455000 0.455000
0.548750 0.455000 0.455000
0.642500 0.455000 0.455000
0.736250 0.455000 0.455000
0.830000 0.455000 0.455000
0.080000 0.548750 0.455000
0.173750 0.548750 0.455000
0.267500 0.548750 0.455000
0.361250 0.548750 0.455000
0.455000 0.548750 0.455000
0.548750 0.548750 0.455000
0.642500 0.548750 0.455000
0.736250 0.548750 0.455000
0.830000 0.548750 0.455000
0.080000 0.642500 0.455000
0.173750 0.642500 0.455000
0.267500 0.642500 0.455000
0.361250 0.642500 0.455000
0.455000 0.642500 0.455000
0.548750 0.642500 0.455000
0.642500 0.642500 0.455000
0.736250 0.642500 0.455000
0.830000 0.642500 0.455000
0.080000 0.736250 0.455000
0.173750 0.736250 0.455000
0.267500 0.736250 0.455000
0.361250 0.736250 0.455000
0.455000 0.736250 0.455000
0.548750 0.736250 0.455000
0.642500 0.736250 0.455000
0.736250 0.736250 0.455000
0.830000 0.736250 0.455000
0.080000 0.830000 0.455000
0.173750 0.830000 0.455000
0.267500 0.830000 0.455000
0.361250 0.830000 0.455000
0.455000 0.830000 0.455000
0.548750 0.830000 0.455000
0.642500 0.830000 0.455000
0.736250 0.830000 0.455000
0.830000 0.830000 0.455000
0.080000 0.080000 0.548750
0.173750 0.080000 0.548750
0.267500 0.080000 0.548750
0.361250 0.080000 0.548750
0.455000 0.080000 0.548750
0.548750 0.080000 0.548750
0.642500 0.080000 0.548750
0.736250 0.080000 0.548750
0.830000 0.080000 0.548750
0.080000 0.173750 0.548750
0.173750 0.173750 0.548750
0.267500 0.173750 0.548750
0.361250 0.173750 0.548750
0.455000 0.173750 0.548750
0.548750 0.173750 0.548750
0.642500 0.173750 0.548750
0.736250 0.173750 0.548750
0.830000 0.173750 0.548750
0.080000 0.267500 0.548750
0.173750 0.267500 0.548750
0.267500 0.267500 0.548750
0.361250 0.267500 0.548750
0.455000 0.267500 0.548750
0.548750 0.267500 0.548750
0.642500 0.267500 0.548750
0.736250 0.267500 0.548750
0.830000 0.267500 0.548750
0.080000 0.361250 0.548750
0.173750 0.361250 0.548750
0.267500 0.361250 0.548750
0.361250 0.361250 0.548750
0.455000 0.361250 0.548750
0.548750 0.361250 0.548750
0.642500 0.361250 0.548750
0.736250 0.361250 0.548750
0.830000 0.361250 0.548750
0.080000 0.455000 0.548750
0.173750 0.455000 0.548750
0.267500 0.455000 0.548750
0.361250 0.455000 0.548750
0.455000 0.455000 0.548750
0.548750 0.455000 0.548750
0.642500 0.455000 0.548750
0.736250 0.455000 0.548750
0.830000 0.455000 0.548750
0.080000 0.548750 0.548750
0.173750 0.548750 0.548750
0.267500 0.548750 0.548750
0.361250 0.548750 0.548750
0.455000 0.548750 0.548750
0.548750 0.548750 0.548750
0.642500 0.548750 0.548750
0.736250 0.548750 0.548750
0.830000 0.548750 0.548750
0.080000 0.642500 0.548750
0.173750 0.642500 0.548750
0.267500 0.642500 0.548750
0.361250 0.642500 0.548750
0.455000 0.642500 0.548750
0.548750 0.642500 0.548750
0.642500 0.642500 0.548750
0.736250 0.642500 0.548750
0.830000 0.642500 0.548750
0.080000 0.736250 0.548750
0.173750 0.736250 0.548750
0.267500 0.736250 0.548750
0.361250 0.736250 0.548750
0.455000 0.736250 0.548750
0.548750 0.736250 0.548750
0.642500 0.736250 0.548750
0.736250 0.736250 0.548750
0.830000 0.736250 0.548750
0.080000 0.830000 0.548750
0.173750 0.830000 0.548750
0.267500 0.830000 0.548750
0.361250 0.830000 0.548750
0.455000 0.830000 0.548750
0.548750 0.830000 0.548750
0.642500 0.830000 0.548750
0.736250 0.830000 0.548750
0.830000 0.830000 0.548750
0.080000 0.080000 0.642500
0.173750 0.080000 0.642500
0.267500 0.080000 0.642500
0.361250 0.080000 0.642500
0.455000 0.080000 0.642500
0.548750 0.080000 0.642500
0.642500 0.080000 0.642500
0.736250 0.080000 0.642500
0.830000 0.080000 0.642500
0.080000 0.173750 0.642500
0.173750 0.173750 0.642500
0.267500 0.173750 0.642500
0.361250 0.173750 0.642500
0.455000 0.173750 0.642500
0.548750 0.173750 0.642500
0.642500 0.173750 0.642500
0.736250 0.173750 0.642500
0.830000 0.173750 0.642500
0.080000 0.267500 0.642500
0.173750 0.267500 0.642500
0.267500 0.267500 0.642500
0.361250 0.267500 0.642500
0.455000 0.267500 0.642500
0.548750 0.267500 0.642500
0.642500 0.267500 0.642500
0.736250 0.267500 0.642500
0.830000 0.267500 0.642500
0.080000 0.361250 0.642500
0.173750 0.361250 0.642500
0.267500 0.361250 0.642500
0.361250 0.361250 0.642500
0.455000 0.361250 0.642500
0.548750 0.361250 0.642500
0.642500 0.361250 0.642500
0.736250 0.361250 0.642500
0.830000 0.361250 0.642500
0.080000 0.455000 0.642500
0.173750 0.455000 0.642500
0.267500 0.455000 0.642500
0.361250 0.455000 0.642500
0.455000 0.455000 0.642500
0.548750 0.455000 0.642500
0.642500 0.455000 0.642500
0.736250 0.455000 0.642500
0.830000 0.455000 0.642500
0.080000 0.548750 0.642500
0.173750 0.548750 0.642500
0.267500 0.548750 0.642500
0.361250 0.548750 0.642500
0.455000 0.548750 0.642500
0.548750 0.548750 0.642500
0.642500 0.548750 0.642500
0.736250 0.548750 0.642500
0.830000 0.548750 0.642500
0.080000 0.642500 0.642500
0.173750 0.642500 0.642500
0.267500 0.642500 0.642500
0.361250 0.642500 0.642500
0.455000 0.642500 0.642500
0.548750 0.642500 0.642500
0.642500 0.642500 0.642500
0.736250 0.642500 0.642500
0.830000 0.642500 0.642500
0.080000 0.736250 0.642500
0.173750 0.736250 0.642500
0.267500 0.736250 0.642500
0.361250 0.736250 0.642500
0.455000 0.736250 0.642500
0.548750 0.736250 0.642500
0.642500 0.736250 0.642500
0.736250 0.736250 0.642500
0.830000 0.736250 0.642500
0.080000 0.830000 0.642500
0.173750 0.830000 0.642500
0.267500 0.830000 0.642500
0.361250 0.830000 0.642500
0.455000 0.830000 0.642500
0.548750 0.830000 0.642500
0.642500 0.830000 0.642500
0.736250 0.830000 0.642500
0.830000 0.830000 0.642500
0.080000 0.080000 0.736250
0.173750 0.080000 0.736250
0.267500 0.080000 0.736250
0.361250 0.080000 0.736250
0.455000 0.080000 0.736250
0.548750 0.080000 0.736250
0.642500 0.080000 0.736250
0.736250 0.080000 0.736250
0.830000 0.080000 0.736250
0.080000 0.173750 0.736250
0.173750 0.173750 0.736250
0.267500 0.173750 0.736250
0.361250 0.173750 0.736250
0.455000 0.173750 0.736250
0.548750 0.173750 0.736250
0.642500 0.173750 0.736250
0.736250 0.173750 0.736250
0.830000 0.173750 0.736250
0.080000 0.267500 0.736250
0.173750 0.267500 0.736250
0.267500 0.267500 0.736250
0.361250 0.267500 0.736250
0.455000 0.267500 0.736250
0.548750 0.267500 0.736250
0.642500 0.267500 0.736250
0.736250 0.267500 0.736250
0.830000 0.267500 0.736250
0.080000 0.361250 0.736250
0.173750 0.361250 0.736250
0.267500 0.361250 0.736250
0.361250 0.361250 0.736250
0.455000 0.361250 0.736250
0.548750 0.361250 0.736250
0.642500 0.361250 0.736250
0.736250 0.361250 0.736250
0.830000 0.361250 0.736250
0.080000 0.455000 0.736250
0.173750 0.455000 0.736250
0.267500 0.455000 0.736250
0.361250 0.455000 0.736250
0.455000 0.455000 0.736250
0.548750 0.455000 0.736250
0.642500 0.455000 0.736250
0.736250 0.455000 0.736250
0.830000 0.455000 0.736250
0.080000 0.548750 0.736250
0.173750 0.548750 0.736250
0.267500 0.548750 0.736250
0.361250 0.548750 0.736250
0.455000 0.548750 0.736250
0.548750 0.548750 0.736250
0.642500 0.548750 0.736250
0.736250 0.548750 0.736250
0.830000 0.548750 0.736250
0.080000 0.642500 0.736250
0.173750 0.642500 0.736250
0.267500 0.642500 0.736250
0.361250 0.642500 0.736250
0.455000 0.642500 0.736250
0.548750 0.642500 0.736250
0.642500 0.642500 0.736250
0.736250 0.642500 0.736250
0.830000 0.642500 0.736250
0.080000 0.736250 0.736250
0.173750 0.736250 0.736250
0.267500 0.736250 0.736250
0.361250 0.736250 0.736250
0.455000 0.736250 0.736250
0.548750 0.736250 0.736250
0.642500 0.736250 0.736250
0.736250 0.736250 0.736250
0.830000 0.736250 0.736250
0.080000 0.830000 0.736250
0.173750 0.830000 0.736250
0.267500 0.830000 0.736250
0.361250 0.830000 0.736250
0.455000 0.830000 0.736250
0.548750 0.830000 0.736250
0.642500 0.830000 0.736250
0.736250 0.830000 0.736250
0.830000 0.830000 0.736250
0.080000 0.080000 0.830000
0.173750 0.080000 0.830000
0.267500 0.080000 0.830000
0.361250 0.080000 0.830000
0.455000 0.080000 0.830000
0.548750 0.080000 0.830000
0.642500 0.080000 0.830000
0.736250 0.080000 0.830000
0.830000 0.080000 0.830000
0.080000 0.173750 0.830000
0.173750 0.173750 0.830000
0.267500 0.173750 0.830000
0.361250 0.173750 0.830000
0.455000 0.173750 0.830000
0.548750 0.173750 0.830000
0.642500 0.173750 0.830000
0.736250 0.173750 0.830000
0.830000 0.173750 0.830000
0.080000 0.267500 0.830000
0.173750 0.267500 0.830000
0.267500 0.267500 0.830000
0.361250 0.267500 0.830000
0.455000 0.267500 0.830000
0.548750 0.267500 0.830000
0.642500 0.267500 0.830000
0.736250 0.267500 0.830000
0.830000 0.267500 0.830000
0.080000 0.361250 0.830000
0.173750 0.361250 0.830000
0.267500 0.361250 0.830000
0.361250 0.361250 0.830000
0.455000 0.361250 0.830000
0.548750 0.361250 0.830000
0.642500 0.361250 0.830000
0.736250 0.361250 0.830000
0.830000 0.361250 0.830000
0.080000 0.455000 0.830000
0.173750 0.455000 0.830000
0.267500 0.455000 0.830000
0.361250 0.455000 0.830000
0.455000 0.455000 0.830000
0.548750 0.455000 0.830000
0.642500 0.455000 0.830000
0.736250 0.455000 0.830000
0.830000 0.455000 0.830000
0.080000 0.548750 0.830000
0.173750 0.548750 0.830000
0.267500 0.548750 0.830000
0.361250 0.548750 0.830000
0.455000 0.548750 0.830000
0.548750 0.548750 0.830000
0.642500 0.548750 0.830000
0.736250 0.548750 0.830000
0.830000 0.548750 0.830000
0.080000 0.642500 0.830000
0.173750 0.642500 0.830000
0.267500 0.642500 0.830000
0.361250 0.642500 0.830000
0.455000 0.642500 0.830000
0.548750 0.642500 0.830000
0.642500 0.642500 0.830000
0.736250 0.642500 0.830000
0.830000 0.642500 0.830000
0.080000 0.736250 0.830000
0.173750 0.736250 0.830000
0.267500 0.736250 0.830000
0.361250 0.736250 0.830000
0.455000 0.736250 0.830000
0.548750 0.736250 0.830000
0.642500 0.736250 0.830000
0.736250 0.736250 0.830000
0.830000 0.736250 0.830000
0.080000 0.830000 0.830000
0.173750 0.830000 0.830000
0.267500 0.830000 0.830000
0.361250 0.830000 0.830000
0.455000 0.830000 0.830000
0.548750 0.830000 0.830000
0.642500 0.830000 0.830000
0.736250 0.830000 0.830000
0.830000 0.830000 0.830000
