lut-visualizer/public/data/sample_luts/matte_look.cube
LUT_3D_SIZE 17
DOMAIN_MIN 0.0 0.0 0.0
DOMAIN_MAX 1.0 1.0 1.0
0.060000 0.060000 0.080000
0.103750 0.060000 0.080000
0.147500 0.060000 0.080000
0.191250 0.060000 0.080000
0.235000 0.060000 0.080000
0.278750 0.060000 0.080000
0.322500 0.060000 0.080000
0.366250 0.060000 0.080000
0.410000 0.060000 0.080000
0.453750 0.060000 0.080000
0.497500 0.060000 0.080000
0.541250 0.060000 0.080000
0.585000 0.060000 0.080000
0.628750 0.060000 0.080000
0.672500 0.060000 0.080000
0.716250 0.060000 0.080000
0.760000 0.060000 0.080000
0.060000 0.105000 0.080000
0.103750 0.105000 0.080000
0.147500 0.105000 0.080000
0.191250 0.105000 0.080000
0.235000 0.105000 0.080000
0.278750 0.105000 0.080000
0.322500 0.105000 0.080000
0.366250 0.105000 0.080000
0.410000 0.105000 0.080000
0.453750 0.105000 0.080000
0.497500 0.105000 0.080000
0.541250 0.105000 0.080000
0.585000 0.105000 0.080000
0.628750 0.105000 0.080000
0.672500 0.105000 0.080000
0.716250 0.105000 0.080000
0.760000 0.105000 0.080000
0.060000 0.150000 0.080000
0.103750 0.150000 0.080000
0.147500 0.150000 0.080000
0.191250 0.150000 0.080000
0.235000 0.150000 0.080000
0.278750 0.150000 0.080000
0.322500 0.150000 0.080000
0.366250 0.150000 0.080000
0.410000 0.150000 0.080000
0.453750 0.150000 0.080000
0.497500 0.150000 0.080000
0.541250 0.150000 0.080000
0.585000 0.150000 0.080000
0.628750 0.150000 0.080000
0.672500 0.150000 0.080000
0.716250 0.150000 0.080000
0.760000 0.150000 0.080000
0.060000 0.195000 0.080000
0.103750 0.195000 0.080000
0.147500 0.195000 0.080000
0.191250 0.195000 0.080000
0.235000 0.195000 0.080000
0.278750 0.195000 0.080000
0.322500 0.195000 0.080000
0.366250 0.195000 0.080000
0.410000 0.195000 0.080000
0.453750 0.195000 0.080000
0.497500 0.195000 0.080000
0.541250 0.195000 0.080000
0.585000 0.195000 0.080000
0.628750 0.195000 0.080000
0.672500 0.195000 0.080000
0.716250 0.195000 0.080000
0.760000 0.195000 0.080000
0.060000 0.240000 0.080000
0.103750 0.240000 0.080000
0.147500 0.240000 0.080000
0.191250 0.240000 0.080000
0.235000 0.240000 0.080000
0.278750 0.240000 0.080000
0.322500 0.240000 0.080000
0.366250 0.240000 0.080000
0.410000 0.240000 0.080000
0.453750 0.240000 0.080000
0.497500 0.240000 0.080000
0.541250 0.240000 0.080000
0.585000 0.240000 0.080000
0.628750 0.240000 0.080000
0.672500 0.240000 0.080000
0.716250 0.240000 0.080000
0.760000 0.240000 0.080000
0.060000 0.285000 0.080000
0.103750 0.285000 0.080000
0.147500 0.285000 0.080000
0.191250 0.285000 0.080000
0.235000 0.285000 0.080000
0.278750 0.285000 0.080000
0.322500 0.285000 0.080000
0.366250 0.285000 0.080000
0.410000 0.285000 0.080000
0.453750 0.285000 0.080000
0.497500 0.285000 0.080000
0.541250 0.285000 0.080000
0.585000 0.285000 0.080000
0.628750 0.285000 0.080000
0.672500 0.285000 0.080000
0.716250 0.285000 0.080000
0.760000 0.285000 0.080000
0.060000 0.330000 0.080000
0.103750 0.330000 0.080000
0.147500 0.330000 0.080000
0.191250 0.330000 0.080000
0.235000 0.330000 0.080000
0.278750 0.330000 0.080000
0.322500 0.330000 0.080000
0.366250 0.330000 0.080000
0.410000 0.330000 0.080000
0.453750 0.330000 0.080000
0.497500 0.330000 0.080000
0.541250 0.330000 0.080000
0.585000 0.330000 0.080000
0.628750 0.330000 0.080000
0.672500 0.330000 0.080000
0.716250 0.330000 0.080000
0.760000 0.330000 0.080000
0.060000 0.375000 0.080000
0.103750 0.375000 0.080000
0.147500 0.375000 0.080000
0.191250 0.375000 0.080000
0.235000 0.375000 0.080000
0.278750 0.375000 0.080000
0.322500 0.375000 0.080000
0.366250 0.375000 0.080000
0.410000 0.375000 0.080000
0.453750 0.375000 0.080000
0.497500 0.375000 0.080000
0.541250 0.375000 0.080000
0.585000 0.375000 0.080000
0.628750 0.375000 0.080000
0.672500 0.375000 0.080000
0.716250 0.375000 0.080000
0.760000 0.375000 0.080000
0.060000 0.420000 0.080000
0.103750 0.420000 0.080000
0.147500 0.420000 0.080000
0.191250 0.420000 0.080000
0.235000 0.420000 0.080000
0.278750 0.420000 0.080000
0.322500 0.420000 0.080000
0.366250 0.420000 0.080000
0.410000 0.420000 0.080000
0.453750 0.420000 0.080000
0.497500 0.420000 0.080000
0.541250 0.420000 0.080000
0.585000 0.420000 0.080000
0.628750 0.420000 0.080000
0.672500 0.420000 0.080000
0.716250 0.420000 0.080000
0.760000 0.420000 0.080000
0.060000 0.465000 0.080000
0.103750 0.465000 0.080000
0.147500 0.465000 0.080000
0.191250 0.465000 0.080000
0.235000 0.465000 0.080000
0.278750 0.465000 0.080000
0.322500 0.465000 0.080000
0.366250 0.465000 0.080000
0.410000 0.465000 0.080000
0.453750 0.465000 0.080000
0.497500 0.465000 0.080000
0.541250 0.465000 0.080000
0.585000 0.465000 0.080000
0.628750 0.465000 0.080000
0.672500 0.465000 0.080000
0.716250 0.465000 0.080000
0.760000 0.465000 0.080000
0.060000 0.510000 0.080000
0.103750 0.510000 0.080000
0.147500 0.510000 0.080000
0.191250 0.510000 0.080000
0.235000 0.510000 0.080000
0.278750 0.510000 0.080000
0.322500 0.510000 0.080000
0.366250 0.510000 0.080000
0.410000 0.510000 0.080000
0.453750 0.510000 0.080000
0.497500 0.510000 0.080000
0.541250 0.510000 0.080000
0.585000 0.510000 0.080000
0.628750 0.510000 0.080000
0.672500 0.510000 0.080000
0.716250 0.510000 0.080000
0.760000 0.510000 0.080000
0.060000 0.555000 0.080000
0.103750 0.555000 0.080000
0.147500 0.555000 0.080000
0.191250 0.555000 0.080000
0.235000 0.555000 0.080000
0.278750 0.555000 0.080000
0.322500 0.555000 0.080000
0.366250 0.555000 0.080000
0.410000 0.555000 0.080000
0.453750 0.555000 0.080000
0.497500 0.555000 0.080000
0.541250 0.555000 0.080000
0.585000 0.555000 0.080000
0.628750 0.555000 0.080000
0.672500 0.555000 0.080000
0.716250 0.555000 0.080000
0.760000 0.555000 0.080000
0.060000 0.600000 0.080000
0.103750 0.600000 0.080000
0.147500 0.600000 0.080000
0.191250 0.600000 0.080000
0.235000 0.600000 0.080000
0.278750 0.600000 0.080000
0.322500 0.600000 0.080000
0.366250 0.600000 0.080000
0.410000 0.600000 0.080000
0.453750 0.600000 0.080000
0.497500 0.600000 0.080000
0.541250 0.600000 0.080000
0.585000 0.600000 0.080000
0.628750 0.600000 0.080000
0.672500 0.600000 0.080000
0.716250 0.600000 0.080000
0.760000 0.600000 0.080000
0.060000 0.645000 0.080000
0.103750 0.645000 0.080000
0.147500 0.645000 0.080000
0.191250 0.645000 0.080000
0.235000 0.645000 0.080000
0.278750 0.645000 0.080000
0.322500 0.645000 0.080000
0.366250 0.645000 0.080000
0.410000 0.645000 0.080000
0.453750 0.645000 0.080000
0.497500 0.645000 0.080000
0.541250 0.645000 0.080000
0.585000 0.645000 0.080000
0.628750 0.645000 0.080000
0.672500 0.645000 0.080000
0.716250 0.645000 0.080000
0.760000 0.645000 0.080000
0.060000 0.690000 0.080000
0.103750 0.690000 0.080000
0.147500 0.690000 0.080000
0.191250 0.690000 0.080000
0.235000 0.690000 0.080000
0.278750 0.690000 0.080000
0.322500 0.690000 0.080000
0.366250 0.690000 0.080000
0.410000 0.690000 0.080000
0.453750 0.690000 0.080000
0.497500 0.690000 0.080000
0.541250 0.690000 0.080000
0.585000 0.690000 0.080000
0.628750 0.690000 0.080000
0.672500 0.690000 0.080000
0.716250 0.690000 0.080000
0.760000 0.690000 0.080000
0.060000 0.735000 0.080000
0.103750 0.735000 0.080000
0.147500 0.735000 0.080000
0.191250 0.735000 0.080000
0.235000 0.735000 0.080000
0.278750 0.735000 0.080000
0.322500 0.735000 0.080000
0.366250 0.735000 0.080000
0.410000 0.735000 0.080000
0.453750 0.735000 0.080000
0.497500 0.735000 0.080000
0.541250 0.735000 0.080000
0.585000 0.735000 0.080000
0.628750 0.735000 0.080000
0.672500 0.735000 0.080000
0.716250 0.735000 0.080000
0.760000 0.735000 0.080000
0.060000 0.780000 0.080000
0.103750 0.780000 0.080000
0.147500 0.780000 0.080000
0.191250 0.780000 0.080000
0.235000 0.780000 0.080000
0.278750 0.780000 0.080000
0.322500 0.780000 0.080000
0.366250 0.780000 0.080000
0.410000 0.780000 0.080000
0.453750 0.780000 0.080000
0.497500 0.780000 0.080000
0.541250 0.780000 0.080000
0.585000 0.780000 0.080000
0.628750 0.780000 0.080000
0.672500 0.780000 0.080000
0.716250 0.780000 0.080000
0.760000 0.780000 0.080000
0.060000 0.060000 0.125625
0.103750 0.060000 0.125625
0.147500 0.060000 0.125625
0.191250 0.060000 0.125625
0.235000 0.060000 0.125625
0.278750 0.060000 0.125625
0.322500 0.060000 0.125625
0.366250 0.060000 0.125625
0.410000 0.060000 0.125625
0.453750 0.060000 0.125625
0.497500 0.060000 0.125625
0.541250 0.060000 0.125625
0.585000 0.060000 0.125625
0.628750 0.060000 0.125625
0.672500 0.060000 0.125625
0.716250 0.060000 0.125625
0.760000 0.060000 0.125625
0.060000 0.105000 0.125625
0.103750 0.105000 0.125625
0.147500 0.105000 0.125625
0.191250 0.105000 0.125625
0.235000 0.105000 0.125625
0.278750 0.105000 0.125625
0.322500 0.105000 0.125625
0.366250 0.105000 0.125625
0.410000 0.105000 0.125625
0.453750 0.105000 0.125625
0.497500 0.105000 0.125625
0.541250 0.105000 0.125625
0.585000 0.105000 0.125625
0.628750 0.105000 0.125625
0.672500 0.105000 0.125625
0.716250 0.105000 0.125625
0.760000 0.105000 0.125625
0.060000 0.150000 0.125625
0.103750 0.150000 0.125625
0.147500 0.150000 0.125625
0.191250 0.150000 0.125625
0.235000 0.150000 0.125625
0.278750 0.150000 0.125625
0.322500 0.150000 0.125625
0.366250 0.150000 0.125625
0.410000 0.150000 0.125625
0.453750 0.150000 0.125625
0.497500 0.150000 0.125625
0.541250 0.150000 0.125625
0.585000 0.150000 0.125625
0.628750 0.150000 0.125625
0.672500 0.150000 0.125625
0.716250 0.150000 0.125625
0.760000 0.150000 0.125625
0.060000 0.195000 0.125625
0.103750 0.195000 0.125625
0.147500 0.195000 0.125625
0.191250 0.195000 0.125625
0.235000 0.195000 0.125625
0.278750 0.195000 0.125625
0.322500 0.195000 0.125625
0.366250 0.195000 0.125625
0.410000 0.195000 0.125625
0.453750 0.195000 0.125625
0.497500 0.195000 0.125625
0.541250 0.195000 0.125625
0.585000 0.195000 0.125625
0.628750 0.195000 0.125625
0.672500 0.195000 0.125625
0.716250 0.195000 0.125625
0.760000 0.195000 0.125625
0.060000 0.240000 0.125625
0.103750 0.240000 0.125625
0.147500 0.240000 0.125625
0.191250 0.240000 0.125625
0.235000 0.240000 0.125625
0.278750 0.240000 0.125625
0.322500 0.240000 0.125625
0.366250 0.240000 0.125625
0.410000 0.240000 0.125625
0.453750 0.240000 0.125625
0.497500 0.240000 0.125625
0.541250 0.240000 0.125625
0.585000 0.240000 0.125625
0.628750 0.240000 0.125625
0.672500 0.240000 0.125625
0.716250 0.240000 0.125625
0.760000 0.240000 0.125625
0.060000 0.285000 0.125625
0.103750 0.285000 0.125625
0.147500 0.285000 0.125625
0.191250 0.285000 0.125625
0.235000 0.285000 0.125625
0.278750 0.285000 0.125625
0.322500 0.285000 0.125625
0.366250 0.285000 0.125625
0.410000 0.285000 0.125625
0.453750 0.285000 0.125625
0.497500 0.285000 0.125625
0.541250 0.285000 0.125625
0.585000 0.285000 0.125625
0.628750 0.285000 0.125625
0.672500 0.285000 0.125625
0.716250 0.285000 0.125625
0.760000 0.285000 0.125625
0.060000 0.330000 0.125625
0.103750 0.330000 0.125625
0.147500 0.330000 0.125625
0.191250 0.330000 0.125625
0.235000 0.330000 0.125625
0.278750 0.330000 0.125625
0.322500 0.330000 0.125625
0.366250 0.330000 0.125625
0.410000 0.330000 0.125625
0.453750 0.330000 0.125625
0.497500 0.330000 0.125625
0.541250 0.330000 0.125625
0.585000 0.330000 0.125625
0.628750 0.330000 0.125625
0.672500 0.330000 0.125625
0.716250 0.330000 0.125625
0.760000 0.330000 0.125625
0.060000 0.375000 0.125625
0.103750 0.375000 0.125625
0.147500 0.375000 0.125625
0.191250 0.375000 0.125625
0.235000 0.375000 0.125625
0.278750 0.375000 0.125625
0.322500 0.375000 0.125625
0.366250 0.375000 0.125625
0.410000 0.375000 0.125625
0.453750 0.375000 0.125625
0.497500 0.375000 0.125625
0.541250 0.375000 0.125625
0.585000 0.375000 0.125625
0.628750 0.375000 0.125625
0.672500 0.375000 0.125625
0.716250 0.375000 0.125625
0.760000 0.375000 0.125625
0.060000 0.420000 0.125625
0.103750 0.420000 0.125625
0.147500 0.420000 0.125625
0.191250 0.420000 0.125625
0.235000 0.420000 0.125625
0.278750 0.420000 0.125625
0.322500 0.420000 0.125625
0.366250 0.420000 0.125625
0.410000 0.420000 0.125625
0.453750 0.420000 0.125625
0.497500 0.420000 0.125625
0.541250 0.420000 0.125625
0.585000 0.420000 0.125625
0.628750 0.420000 0.125625
0.672500 0.420000 0.125625
0.716250 0.420000 0.125625
0.760000 0.420000 0.125625
0.060000 0.465000 0.125625
0.103750 0.465000 0.125625
0.147500 0.465000 0.125625
0.191250 0.465000 0.125625
0.235000 0.465000 0.125625
0.278750 0.465000 0.125625
0.322500 0.465000 0.125625
0.366250 0.465000 0.125625
0.410000 0.465000 0.125625
0.453750 0.465000 0.125625
0.497500 0.465000 0.125625
0.541250 0.465000 0.125625
0.585000 0.465000 0.125625
0.628750 0.465000 0.125625
0.672500 0.465000 0.125625
0.716250 0.465000 0.125625
0.760000 0.465000 0.125625
0.060000 0.510000 0.125625
0.103750 0.510000 0.125625
0.147500 0.510000 0.125625
0.191250 0.510000 0.125625
0.235000 0.510000 0.125625
0.278750 0.510000 0.125625
0.322500 0.510000 0.125625
0.366250 0.510000 0.125625
0.410000 0.510000 0.125625
0.453750 0.510000 0.125625
0.497500 0.510000 0.125625
0.541250 0.510000 0.125625
0.585000 0.510000 0.125625
0.628750 0.510000 0.125625
0.672500 0.510000 0.125625
0.716250 0.510000 0.125625
0.760000 0.510000 0.125625
0.060000 0.555000 0.125625
0.103750 0.555000 0.125625
0.147500 0.555000 0.125625
0.191250 0.555000 0.125625
0.235000 0.555000 0.125625
0.278750 0.555000 0.125625
0.322500 0.555000 0.125625
0.366250 0.555000 0.125625
0.410000 0.555000 0.125625
0.453750 0.555000 0.125625
0.497500 0.555000 0.125625
0.541250 0.555000 0.125625
0.585000 0.555000 0.125625
0.628750 0.555000 0.125625
0.672500 0.555000 0.125625
0.716250 0.555000 0.125625
0.760000 0.555000 0.125625
0.060000 0.600000 0.125625
0.103750 0.600000 0.125625
0.147500 0.600000 0.125625
0.191250 0.600000 0.125625
0.235000 0.600000 0.125625
0.278750 0.600000 0.125625
0.322500 0.600000 0.125625
0.366250 0.600000 0.125625
0.410000 0.600000 0.125625
0.453750 0.600000 0.125625
0.497500 0.600000 0.125625
0.541250 0.600000 0.125625
0.585000 0.600000 0.125625
0.628750 0.600000 0.125625
0.672500 0.600000 0.125625
0.716250 0.600000 0.125625
0.760000 0.600000 0.125625
0.060000 0.645000 0.125625
0.103750 0.645000 0.125625
0.147500 0.645000 0.125625
0.191250 0.645000 0.125625
0.235000 0.645000 0.125625
0.278750 0.645000 0.125625
0.322500 0.645000 0.125625
0.366250 0.645000 0.125625
0.410000 0.645000 0.125625
0.453750 0.645000 0.125625
0.497500 0.645000 0.125625
0.541250 0.645000 0.125625
0.585000 0.645000 0.125625
0.628750 0.645000 0.125625
0.672500 0.645000 0.125625
0.716250 0.645000 0.125625
0.760000 0.645000 0.125625
0.060000 0.690000 0.125625
0.103750 0.690000 0.125625
0.147500 0.690000 0.125625
0.191250 0.690000 0.125625
0.235000 0.690000 0.125625
0.278750 0.690000 0.125625
0.322500 0.690000 0.125625
0.366250 0.690000 0.125625
0.410000 0.690000 0.125625
0.453750 0.690000 0.125625
0.497500 0.690000 0.125625
0.541250 0.690000 0.125625
0.585000 0.690000 0.125625
0.628750 0.690000 0.125625
0.672500 0.690000 0.125625
0.716250 0.690000 0.125625
0.760000 0.690000 0.125625
0.060000 0.735000 0.125625
0.103750 0.735000 0.125625
0.147500 0.735000 0.125625
0.191250 0.735000 0.125625
0.235000 0.735000 0.125625
0.278750 0.735000 0.125625
0.322500 0.735000 0.125625
0.366250 0.735000 0.125625
0.410000 0.735000 0.125625
0.453750 0.735000 0.125625
0.497500 0.735000 0.125625
0.541250 0.735000 0.125625
0.585000 0.735000 0.125625
0.628750 0.735000 0.125625
0.672500 0.735000 0.125625
0.716250 0.735000 0.125625
0.760000 0.735000 0.125625
0.060000 0.780000 0.125625
0.103750 0.780000 0.125625
0.147500 0.780000 0.125625
0.191250 0.780000 0.125625
0.235000 0.780000 0.125625
0.278750 0.780000 0.125625
0.322500 0.780000 0.125625
0.366250 0.780000 0.125625
0.410000 0.780000 0.125625
0.453750 0.780000 0.125625
0.497500 0.780000 0.125625
0.541250 0.780000 0.125625
0.585000 0.780000 0.125625
0.628750 0.780000 0.125625
0.672500 0.780000 0.125625
0.716250 0.780000 0.125625
0.760000 0.780000 0.125625
0.060000 0.060000 0.171250
0.103750 0.060000 0.171250
0.147500 0.060000 0.171250
0.191250 0.060000 0.171250
0.235000 0.060000 0.171250
0.278750 0.060000 0.171250
0.322500 0.060000 0.171250
0.366250 0.060000 0.171250
0.410000 0.060000 0.171250
0.453750 0.060000 0.171250
0.497500 0.060000 0.171250
0.541250 0.060000 0.171250
0.585000 0.060000 0.171250
0.628750 0.060000 0.171250
0.672500 0.060000 0.171250
0.716250 0.060000 0.171250
0.760000 0.060000 0.171250
0.060000 0.105000 0.171250
0.103750 0.105000 0.171250
0.147500 0.105000 0.171250
0.191250 0.105000 0.171250
0.235000 0.105000 0.171250
0.278750 0.105000 0.171250
0.322500 0.105000 0.171250
0.366250 0.105000 0.171250
0.410000 0.105000 0.171250
0.453750 0.105000 0.171250
0.497500 0.105000 0.171250
0.541250 0.105000 0.171250
0.585000 0.105000 0.171250
0.628750 0.105000 0.171250
0.672500 0.105000 0.171250
0.716250 0.105000 0.171250
0.760000 0.105000 0.171250
0.060000 0.150000 0.171250
0.103750 0.150000 0.171250
0.147500 0.150000 0.171250
0.191250 0.150000 0.171250
0.235000 0.150000 0.171250
0.278750 0.150000 0.171250
0.322500 0.150000 0.171250
0.366250 0.150000 0.171250
0.410000 0.150000 0.171250
0.453750 0.150000 0.171250
0.497500 0.150000 0.171250
0.541250 0.150000 0.171250
0.585000 0.150000 0.171250
0.628750 0.150000 0.171250
0.672500 0.150000 0.171250
0.716250 0.150000 0.171250
0.760000 0.150000 0.171250
0.060000 0.195000 0.171250
0.103750 0.195000 0.171250
0.147500 0.195000 0.171250
0.191250 0.195000 0.171250
0.235000 0.195000 0.171250
0.278750 0.195000 0.171250
0.322500 0.195000 0.171250
0.366250 0.195000 0.171250
0.410000 0.195000 0.171250
0.453750 0.195000 0.171250
0.497500 0.195000 0.171250
0.541250 0.195000 0.171250
0.585000 0.195000 0.171250
0.628750 0.195000 0.171250
0.672500 0.195000 0.171250
0.716250 0.195000 0.171250
0.760000 0.195000 0.171250
0.060000 0.240000 0.171250
0.103750 0.240000 0.171250
0.147500 0.240000 0.171250
0.191250 0.240000 0.171250
0.235000 0.240000 0.171250
0.278750 0.240000 0.171250
0.322500 0.240000 0.171250
0.366250 0.240000 0.171250
0.410000 0.240000 0.171250
0.453750 0.240000 0.171250
0.497500 0.240000 0.171250
0.541250 0.240000 0.171250
0.585000 0.240000 0.171250
0.628750 0.240000 0.171250
0.672500 0.240000 0.171250
0.716250 0.240000 0.171250
0.760000 0.240000 0.171250
0.060000 0.285000 0.171250
0.103750 0.285000 0.171250
0.147500 0.285000 0.171250
0.191250 0.285000 0.171250
0.235000 0.285000 0.171250
0.278750 0.285000 0.171250
0.322500 0.285000 0.171250
0.366250 0.285000 0.171250
0.410000 0.285000 0.171250
0.453750 0.285000 0.171250
0.497500 0.285000 0.171250
0.541250 0.285000 0.171250
0.585000 0.285000 0.171250
0.628750 0.285000 0.171250
0.672500 0.285000 0.171250
0.716250 0.285000 0.171250
0.760000 0.285000 0.171250
0.060000 0.330000 0.171250
0.103750 0.330000 0.171250
0.147500 0.330000 0.171250
0.191250 0.330000 0.171250
0.235000 0.330000 0.171250
0.278750 0.330000 0.171250
0.322500 0.330000 0.171250
0.366250 0.330000 0.171250
0.410000 0.330000 0.171250
0.453750 0.330000 0.171250
0.497500 0.330000 0.171250
0.541250 0.330000 0.171250
0.585000 0.330000 0.171250
0.628750 0.330000 0.171250
0.672500 0.330000 0.171250
0.716250 0.330000 0.171250
0.760000 0.330000 0.171250
0.060000 0.375000 0.171250
0.103750 0.375000 0.171250
0.147500 0.375000 0.171250
0.191250 0.375000 0.171250
0.235000 0.375000 0.171250
0.278750 0.375000 0.171250
0.322500 0.375000 0.171250
0.366250 0.375000 0.171250
0.410000 0.375000 0.171250
0.453750 0.375000 0.171250
0.497500 0.375000 0.171250
0.541250 0.375000 0.171250
0.585000 0.375000 0.171250
0.628750 0.375000 0.171250
0.672500 0.375000 0.171250
0.716250 0.375000 0.171250
0.760000 0.375000 0.171250
0.060000 0.420000 0.171250
0.103750 0.420000 0.171250
0.147500 0.420000 0.171250
0.191250 0.420000 0.171250
0.235000 0.420000 0.171250
0.278750 0.420000 0.171250
0.322500 0.420000 0.171250
0.366250 0.420000 0.171250
0.410000 0.420000 0.171250
0.453750 0.420000 0.171250
0.497500 0.420000 0.171250
0.541250 0.420000 0.171250
0.585000 0.420000 0.171250
0.628750 0.420000 0.171250
0.672500 0.420000 0.171250
0.716250 0.420000 0.171250
0.760000 0.420000 0.171250
0.060000 0.465000 0.171250
0.103750 0.465000 0.171250
0.147500 0.465000 0.171250
0.191250 0.465000 0.171250
0.235000 0.465000 0.171250
0.278750 0.465000 0.171250
0.322500 0.465000 0.171250
0.366250 0.465000 0.171250
0.410000 0.465000 0.171250
0.453750 0.465000 0.171250
0.497500 0.465000 0.171250
0.541250 0.465000 0.171250
0.585000 0.465000 0.171250
0.628750 0.465000 0.171250
0.672500 0.465000 0.171250
0.716250 0.465000 0.171250
0.760000 0.465000 0.171250
0.060000 0.510000 0.171250
0.103750 0.510000 0.171250
0.147500 0.510000 0.171250
0.191250 0.510000 0.171250
0.235000 0.510000 0.171250
0.278750 0.510000 0.171250
0.322500 0.510000 0.171250
0.366250 0.510000 0.171250
0.410000 0.510000 0.171250
0.453750 0.510000 0.171250
0.497500 0.510000 0.171250
0.541250 0.510000 0.171250
0.585000 0.510000 0.171250
0.628750 0.510000 0.171250
0.672500 0.510000 0.171250
0.716250 0.510000 0.171250
0.760000 0.510000 0.171250
0.060000 0.555000 0.171250
0.103750 0.555000 0.171250
0.147500 0.555000 0.171250
0.191250 0.555000 0.171250
0.235000 0.555000 0.171250
0.278750 0.555000 0.171250
0.322500 0.555000 0.171250
0.366250 0.555000 0.171250
0.410000 0.555000 0.171250
0.453750 0.555000 0.171250
0.497500 0.555000 0.171250
0.541250 0.555000 0.171250
0.585000 0.555000 0.171250
0.628750 0.555000 0.171250
0.672500 0.555000 0.171250
0.716250 0.555000 0.171250
0.760000 0.555000 0.171250
0.060000 0.600000 0.171250
0.103750 0.600000 0.171250
0.147500 0.600000 0.171250
0.191250 0.600000 0.171250
0.235000 0.600000 0.171250
0.278750 0.600000 0.171250
0.322500 0.600000 0.171250
0.366250 0.600000 0.171250
0.410000 0.600000 0.171250
0.453750 0.600000 0.171250
0.497500 0.600000 0.171250
0.541250 0.600000 0.171250
0.585000 0.600000 0.171250
0.628750 0.600000 0.171250
0.672500 0.600000 0.171250
0.716250 0.600000 0.171250
0.760000 0.600000 0.171250
0.060000 0.645000 0.171250
0.103750 0.645000 0.171250
0.147500 0.645000 0.171250
0.191250 0.645000 0.171250
0.235000 0.645000 0.171250
0.278750 0.645000 0.171250
0.322500 0.645000 0.171250
0.366250 0.645000 0.171250
0.410000 0.645000 0.171250
0.453750 0.645000 0.171250
0.497500 0.645000 0.171250
0.541250 0.645000 0.171250
0.585000 0.645000 0.171250
0.628750 0.645000 0.171250
0.672500 0.645000 0.171250
0.716250 0.645000 0.171250
0.760000 0.645000 0.171250
0.060000 0.690000 0.171250
0.103750 0.690000 0.171250
0.147500 0.690000 0.171250
0.191250 0.690000 0.171250
0.235000 0.690000 0.171250
0.278750 0.690000 0.171250
0.322500 0.690000 0.171250
0.366250 0.690000 0.171250
0.410000 0.690000 0.171250
0.453750 0.690000 0.171250
0.497500 0.690000 0.171250
0.541250 0.690000 0.171250
0.585000 0.690000 0.171250
0.628750 0.690000 0.171250
0.672500 0.690000 0.171250
0.716250 0.690000 0.171250
0.760000 0.690000 0.171250
0.060000 0.735000 0.171250
0.103750 0.735000 0.171250
0.147500 0.735000 0.171250
0.191250 0.735000 0.171250
0.235000 0.735000 0.171250
0.278750 0.735000 0.171250
0.322500 0.735000 0.171250
0.366250 0.735000 0.171250
0.410000 0.735000 0.171250
0.453750 0.735000 0.171250
0.497500 0.735000 0.171250
0.541250 0.735000 0.171250
0.585000 0.735000 0.171250
0.628750 0.735000 0.171250
0.672500 0.735000 0.171250
0.716250 0.735000 0.171250
0.760000 0.735000 0.171250
0.060000 0.780000 0.171250
0.103750 0.780000 0.171250
0.147500 0.780000 0.171250
0.191250 0.780000 0.171250
0.235000 0.780000 0.171250
0.278750 0.780000 0.171250
0.322500 0.780000 0.171250
0.366250 0.780000 0.171250
0.410000 0.780000 0.171250
0.453750 0.780000 0.171250
0.497500 0.780000 0.171250
0.541250 0.780000 0.171250
0.585000 0.780000 0.171250
0.628750 0.780000 0.171250
0.672500 0.780000 0.171250
0.716250 0.780000 0.171250
0.760000 0.780000 0.171250
0.060000 0.060000 0.216875
0.103750 0.060000 0.216875
0.147500 0.060000 0.216875
0.191250 0.060000 0.216875
0.235000 0.060000 0.216875
0.278750 0.060000 0.216875
0.322500 0.060000 0.216875
0.366250 0.060000 0.216875
0.410000 0.060000 0.216875
0.453750 0.060000 0.216875
0.497500 0.060000 0.216875
0.541250 0.060000 0.216875
0.585000 0.060000 0.216875
0.628750 0.060000 0.216875
0.672500 0.060000 0.216875
0.716250 0.060000 0.216875
0.760000 0.060000 0.216875
0.060000 0.105000 0.216875
0.103750 0.105000 0.216875
