lut-visualizer/public/data/sample_luts/matte_look.cube
LUT_3D_SIZE 9
DOMAIN_MIN 0.0 0.0 0.0
DOMAIN_MAX 1.0 1.0 1.0
0.060000 0.060000 0.080000
0.147500 0.060000 0.080000
0.235000 0.060000 0.080000
0.322500 0.060000 0.080000
0.410000 0.060000 0.080000
0.497500 0.060000 0.080000
0.585000 0.060000 0.080000
0.672500 0.060000 0.080000
0.760000 0.060000 0.080000
0.060000 0.150000 0.080000
0.147500 0.150000 0.080000
0.235000 0.150000 0.080000
0.322500 0.150000 0.080000
0.410000 0.150000 0.080000
0.497500 0.150000 0.080000
0.585000 0.150000 0.080000
0.672500 0.150000 0.080000
0.760000 0.150000 0.080000
0.060000 0.240000 0.080000
0.147500 0.240000 0.080000
0.235000 0.240000 0.080000
0.322500 0.240000 0.080000
0.410000 0.240000 0.080000
0.497500 0.240000 0.080000
0.585000 0.240000 0.080000
0.672500 0.240000 0.080000
0.760000 0.240000 0.080000
0.060000 0.330000 0.080000
0.147500 0.330000 0.080000
0.235000 0.330000 0.080000
0.322500 0.330000 0.080000
0.410000 0.330000 0.080000
0.497500 0.330000 0.080000
0.585000 0.330000 0.080000
0.672500 0.330000 0.080000
0.760000 0.330000 0.080000
0.060000 0.420000 0.080000
0.147500 0.420000 0.080000
0.235000 0.420000 0.080000
0.322500 0.420000 0.080000
0.410000 0.420000 0.080000
0.497500 0.420000 0.080000
0.585000 0.420000 0.080000
0.672500 0.420000 0.080000
0.760000 0.420000 0.080000
0.060000 0.510000 0.080000
0.147500 0.510000 0.080000
0.235000 0.510000 0.080000
0.322500 0.510000 0.080000
0.410000 0.510000 0.080000
0.497500 0.510000 0.080000
0.585000 0.510000 0.080000
0.672500 0.510000 0.080000
0.760000 0.510000 0.080000
0.060000 0.600000 0.080000
0.147500 0.600000 0.080000
0.235000 0.600000 0.080000
0.322500 0.600000 0.080000
0.410000 0.600000 0.080000
0.497500 0.600000 0.080000
0.585000 0.600000 0.080000
0.672500 0.600000 0.080000
0.760000 0.600000 0.080000
0.060000 0.690000 0.080000
0.147500 0.690000 0.080000
0.235000 0.690000 0.080000
0.322500 0.690000 0.080000
0.410000 0.690000 0.080000
0.497500 0.690000 0.080000
0.585000 0.690000 0.080000
0.672500 0.690000 0.080000
0.760000 0.690000 0.080000
0.060000 0.780000 0.080000
0.147500 0.780000 0.080000
0.235000 0.780000 0.080000
0.322500 0.780000 0.080000
0.410000 0.780000 0.080000
0.497500 0.780000 0.080000
0.585000 0.780000 0.080000
0.672500 0.780000 0.080000
0.760000 0.780000 0.080000
0.060000 0.060000 0.171250
0.147500 0.060000 0.171250
0.235000 0.060000 0.171250
0.322500 0.060000 0.171250
0.410000 0.060000 0.171250
0.497500 0.060000 0.171250
0.585000 0.060000 0.171250
0.672500 0.060000 0.171250
0.760000 0.060000 0.171250
0.060000 0.150000 0.171250
0.147500 0.150000 0.171250
0.235000 0.150000 0.171250
0.322500 0.150000 0.171250
0.410000 0.150000 0.171250
0.497500 0.150000 0.171250
0.585000 0.150000 0.171250
0.672500 0.150000 0.171250
0.760000 0.150000 0.171250
0.060000 0.240000 0.171250
0.147500 0.240000 0.171250
0.235000 0.240000 0.171250
0.322500 0.240000 0.171250
0.410000 0.240000 0.171250
0.497500 0.240000 0.171250
0.585000 0.240000 0.171250
0.672500 0.240000 0.171250
0.760000 0.240000 0.171250
0.060000 0.330000 0.171250
0.147500 0.330000 0.171250
0.235000 0.330000 0.171250
0.322500 0.330000 0.171250
0.410000 0.330000 0.171250
0.497500 0.330000 0.171250
0.585000 0.330000 0.171250
0.672500 0.330000 0.171250
0.760000 0.330000 0.171250
0.060000 0.420000 0.171250
0.147500 0.420000 0.171250
0.235000 0.420000 0.171250
0.322500 0.420000 0.171250
0.410000 0.420000 0.171250
0.497500 0.420000 0.171250
0.585000 0.420000 0.171250
0.672500 0.420000 0.171250
0.760000 0.420000 0.171250
0.060000 0.510000 0.171250
0.147500 0.510000 0.171250
0.235000 0.510000 0.171250
0.322500 0.510000 0.171250
0.410000 0.510000 0.171250
0.497500 0.510000 0.171250
0.585000 0.510000 0.171250
0.672500 0.510000 0.171250
0.760000 0.510000 0.171250
0.060000 0.600000 0.171250
0.147500 0.600000 0.171250
0.235000 0.600000 0.171250
0.322500 0.600000 0.171250
0.410000 0.600000 0.171250
0.497500 0.600000 0.171250
0.585000 0.600000 0.171250
0.672500 0.600000 0.171250
0.760000 0.600000 0.171250
0.060000 0.690000 0.171250
0.147500 0.690000 0.171250
0.235000 0.690000 0.171250
0.322500 0.690000 0.171250
0.410000 0.690000 0.171250
0.497500 0.690000 0.171250
0.585000 0.690000 0.171250
0.672500 0.690000 0.171250
0.760000 0.690000 0.171250
0.060000 0.780000 0.171250
0.147500 0.780000 0.171250
0.235000 0.780000 0.171250
0.322500 0.780000 0.171250
0.410000 0.780000 0.171250
0.497500 0.780000 0.171250
0.585000 0.780000 0.171250
0.672500 0.780000 0.171250
0.760000 0.780000 0.171250
0.060000 0.060000 0.262500
0.147500 0.060000 0.262500
0.235000 0.060000 0.262500
0.322500 0.060000 0.262500
0.410000 0.060000 0.262500
0.497500 0.060000 0.262500
0.585000 0.060000 0.262500
0.672500 0.060000 0.262500
0.760000 0.060000 0.262500
0.060000 0.150000 0.262500
0.147500 0.150000 0.262500
0.235000 0.150000 0.262500
0.322500 0.150000 0.262500
0.410000 0.150000 0.262500
0.497500 0.150000 0.262500
0.585000 0.150000 0.262500
0.672500 0.150000 0.262500
0.760000 0.150000 0.262500
0.060000 0.240000 0.262500
0.147500 0.240000 0.262500
0.235000 0.240000 0.262500
0.322500 0.240000 0.262500
0.410000 0.240000 0.262500
0.497500 0.240000 0.262500
0.585000 0.240000 0.262500
0.672500 0.240000 0.262500
0.760000 0.240000 0.262500
0.060000 0.330000 0.262500
0.147500 0.330000 0.262500
0.235000 0.330000 0.262500
0.322500 0.330000 0.262500
0.410000 0.330000 0.262500
0.497500 0.330000 0.262500
0.585000 0.330000 0.262500
0.672500 0.330000 0.262500
0.760000 0.330000 0.262500
0.060000 0.420000 0.262500
0.147500 0.420000 0.262500
0.235000 0.420000 0.262500
0.322500 0.420000 0.262500
0.410000 0.420000 0.262500
0.497500 0.420000 0.262500
0.585000 0.420000 0.262500
0.672500 0.420000 0.262500
0.760000 0.420000 0.262500
0.060000 0.510000 0.262500
0.147500 0.510000 0.262500
0.235000 0.510000 0.262500
0.322500 0.510000 0.262500
0.410000 0.510000 0.262500
0.497500 0.510000 0.262500
0.585000 0.510000 0.262500
0.672500 0.510000 0.262500
0.760000 0.510000 0.262500
0.060000 0.600000 0.262500
0.147500 0.600000 0.262500
0.235000 0.600000 0.262500
0.322500 0.600000 0.262500
0.410000 0.600000 0.262500
0.497500 0.600000 0.262500
0.585000 0.600000 0.262500
0.672500 0.600000 0.262500
0.760000 0.600000 0.262500
0.060000 0.690000 0.262500
0.147500 0.690000 0.262500
0.235000 0.690000 0.262500
0.322500 0.690000 0.262500
0.410000 0.690000 0.262500
0.497500 0.690000 0.262500
0.585000 0.690000 0.262500
0.672500 0.690000 0.262500
0.760000 0.690000 0.262500
0.060000 0.780000 0.262500
0.147500 0.780000 0.262500
0.235000 0.780000 0.262500
0.322500 0.780000 0.262500
0.410000 0.780000 0.262500
0.497500 0.780000 0.262500
0.585000 0.780000 0.262500
0.672500 0.780000 0.262500
0.760000 0.780000 0.262500
0.060000 0.060000 0.353750
0.147500 0.060000 0.353750
0.235000 0.060000 0.353750
0.322500 0.060000 0.353750
0.410000 0.060000 0.353750
0.497500 0.060000 0.353750
0.585000 0.060000 0.353750
0.672500 0.060000 0.353750
0.760000 0.060000 0.353750
0.060000 0.150000 0.353750
0.147500 0.150000 0.353750
0.235000 0.150000 0.353750
0.322500 0.150000 0.353750
0.410000 0.150000 0.353750
0.497500 0.150000 0.353750
0.585000 0.150000 0.353750
0.672500 0.150000 0.353750
0.760000 0.150000 0.353750
0.060000 0.240000 0.353750
0.147500 0.240000 0.353750
0.235000 0.240000 0.353750
0.322500 0.240000 0.353750
0.410000 0.240000 0.353750
0.497500 0.240000 0.353750
0.585000 0.240000 0.353750
0.672500 0.240000 0.353750
0.760000 0.240000 0.353750
0.060000 0.330000 0.353750
0.147500 0.330000 0.353750
0.235000 0.330000 0.353750
0.322500 0.330000 0.353750
0.410000 0.330000 0.353750
0.497500 0.330000 0.353750
0.585000 0.330000 0.353750
0.672500 0.330000 0.353750
0.760000 0.330000 0.353750
0.060000 0.420000 0.353750
0.147500 0.420000 0.353750
0.235000 0.420000 0.353750
0.322500 0.420000 0.353750
0.410000 0.420000 0.353750
0.497500 0.420000 0.353750
0.585000 0.420000 0.353750
0.672500 0.420000 0.353750
0.760000 0.420000 0.353750
0.060000 0.510000 0.353750
0.147500 0.510000 0.353750
0.235000 0.510000 0.353750
0.322500 0.510000 0.353750
0.410000 0.510000 0.353750
0.497500 0.510000 0.353750
0.585000 0.510000 0.353750
0.672500 0.510000 0.353750
0.760000 0.510000 0.353750
0.060000 0.600000 0.353750
0.147500 0.600000 0.353750
0.235000 0.600000 0.353750
0.322500 0.600000 0.353750
0.410000 0.600000 0.353750
0.497500 0.600000 0.353750
0.585000 0.600000 0.353750
0.672500 0.600000 0.353750
0.760000 0.600000 0.353750
0.060000 0.690000 0.353750
0.147500 0.690000 0.353750
0.235000 0.690000 0.353750
0.322500 0.690000 0.353750
0.410000 0.690000 0.353750
0.497500 0.690000 0.353750
0.585000 0.690000 0.353750
0.672500 0.690000 0.353750
0.760000 0.690000 0.353750
0.060000 0.780000 0.353750
0.147500 0.780000 0.353750
0.235000 0.780000 0.353750
0.322500 0.780000 0.353750
0.410000 0.780000 0.353750
0.497500 0.780000 0.353750
0.585000 0.780000 0.353750
0.672500 0.780000 0.353750
0.760000 0.780000 0.353750
0.060000 0.060000 0.445000
0.147500 0.060000 0.445000
0.235000 0.060000 0.445000
0.322500 0.060000 0.445000
0.410000 0.060000 0.445000
0.497500 0.060000 0.445000
0.585000 0.060000 0.445000
0.672500 0.060000 0.445000
0.760000 0.060000 0.445000
0.060000 0.150000 0.445000
0.147500 0.150000 0.445000
0.235000 0.150000 0.445000
0.322500 0.150000 0.445000
0.410000 0.150000 0.445000
0.497500 0.150000 0.445000
0.585000 0.150000 0.445000
0.672500 0.150000 0.445000
0.760000 0.150000 0.445000
0.060000 0.240000 0.445000
0.147500 0.240000 0.445000
0.235000 0.240000 0.445000
0.322500 0.240000 0.445000
0.410000 0.240000 0.445000
0.497500 0.240000 0.445000
0.585000 0.240000 0.445000
0.672500 0.240000 0.445000
0.760000 0.240000 0.445000
0.060000 0.330000 0.445000
0.147500 0.330000 0.445000
0.235000 0.330000 0.445000
0.322500 0.330000 0.445000
0.410000 0.330000 0.445000
0.497500 0.330000 0.445000
0.585000 0.330000 0.445000
0.672500 0.330000 0.445000
0.760000 0.330000 0.445000
0.060000 0.420000 0.445000
0.147500 0.420000 0.445000
0.235000 0.420000 0.445000
0.322500 0.420000 0.445000
0.410000 0.420000 0.445000
0.497500 0.420000 0.445000
0.585000 0.420000 0.445000
0.672500 0.420000 0.445000
0.760000 0.420000 0.445000
0.060000 0.510000 0.445000
0.147500 0.510000 0.445000
0.235000 0.510000 0.445000
0.322500 0.510000 0.445000
0.410000 0.510000 0.445000
0.497500 0.510000 0.445000
0.585000 0.510000 0.445000
0.672500 0.510000 0.445000
0.760000 0.510000 0.445000
0.060000 0.600000 0.445000
0.147500 0.600000 0.445000
0.235000 0.600000 0.445000
0.322500 0.600000 0.445000
0.410000 0.600000 0.445000
0.497500 0.600000 0.445000
0.585000 0.600000 0.445000
0.672500 0.600000 0.445000
0.760000 0.600000 0.445000
0.060000 0.690000 0.445000
0.147500 0.690000 0.445000
0.235000 0.690000 0.445000
0.322500 0.690000 0.445000
0.410000 0.690000 0.445000
0.497500 0.690000 0.445000
0.585000 0.690000 0.445000
0.672500 0.690000 0.445000
0.760000 0.690000 0.445000
0.060000 0.780000 0.445000
0.147500 0.780000 0.445000
0.235000 0.780000 0.445000
0.322500 0.780000 0.445000
0.410000 0.780000 0.445000
0.497500 0.780000 0.445000
0.585000 0.780000 0.445000
0.672500 0.780000 0.445000
0.760000 0.780000 0.445000
0.060000 0.060000 0.536250
0.147500 0.060000 0.536250
0.235000 0.060000 0.536250
0.322500 0.060000 0.536250
0.410000 0.060000 0.536250
0.497500 0.060000 0.536250
0.585000 0.060000 0.536250
0.672500 0.060000 0.536250
0.760000 0.060000 0.536250
0.060000 0.150000 0.536250
0.147500 0.150000 0.536250
0.235000 0.150000 0.536250
0.322500 0.150000 0.536250
0.410000 0.150000 0.536250
0.497500 0.150000 0.536250
0.585000 0.150000 0.536250
0.672500 0.150000 0.536250
0.760000 0.150000 0.536250
0.060000 0.240000 0.536250
0.147500 0.240000 0.536250
0.235000 0.240000 0.536250
0.322500 0.240000 0.536250
0.410000 0.240000 0.536250
0.497500 0.240000 0.536250
0.585000 0.240000 0.536250
0.672500 0.240000 0.536250
0.760000 0.240000 0.536250
0.060000 0.330000 0.536250
0.147500 0.330000 0.536250
0.235000 0.330000 0.536250
0.322500 0.330000 0.536250
0.410000 0.330000 0.536250
0.497500 0.330000 0.536250
0.585000 0.330000 0.536250
0.672500 0.330000 0.536250
0.760000 0.330000 0.536250
0.060000 0.420000 0.536250
0.147500 0.420000 0.536250
0.235000 0.420000 0.536250
0.322500 0.420000 0.536250
0.410000 0.420000 0.536250
0.497500 0.420000 0.536250
0.585000 0.420000 0.536250
0.672500 0.420000 0.536250
0.760000 0.420000 0.536250
0.060000 0.510000 0.536250
0.147500 0.510000 0.536250
0.235000 0.510000 0.536250
0.322500 0.510000 0.536250
0.410000 0.510000 0.536250
0.497500 0.510000 0.536250
0.585000 0.510000 0.536250
0.672500 0.510000 0.536250
0.760000 0.510000 0.536250
0.060000 0.600000 0.536250
0.147500 0.600000 0.536250
0.235000 0.600000 0.536250
0.322500 0.600000 0.536250
0.410000 0.600000 0.536250
0.497500 0.600000 0.536250
0.585000 0.600000 0.536250
0.672500 0.600000 0.536250
0.760000 0.600000 0.536250
0.060000 0.690000 0.536250
0.147500 0.690000 0.536250
0.235000 0.690000 0.536250
0.322500 0.690000 0.536250
0.410000 0.690000 0.536250
0.497500 0.690000 0.536250
0.585000 0.690000 0.536250
0.672500 0.690000 0.536250
0.760000 0.690000 0.536250
0.060000 0.780000 0.536250
0.147500 0.780000 0.536250
0.235000 0.780000 0.536250
0.322500 0.780000 0.536250
0.410000 0.780000 0.536250
0.497500 0.780000 0.536250
0.585000 0.780000 0.536250
0.672500 0.780000 0.536250
0.760000 0.780000 0.536250
0.060000 0.060000 0.627500
0.147500 0.060000 0.627500
0.235000 0.060000 0.627500
0.322500 0.060000 0.627500
0.410000 0.060000 0.627500
0.497500 0.060000 0.627500
0.585000 0.060000 0.627500
0.672500 0.060000 0.627500
0.760000 0.060000 0.627500
0.060000 0.150000 0.627500
0.147500 0.150000 0.627500
0.235000 0.150000 0.627500
0.322500 0.150000 0.627500
0.410000 0.150000 0.627500
0.497500 0.150000 0.627500
0.585000 0.150000 0.627500
0.672500 0.150000 0.627500
0.760000 0.150000 0.627500
0.060000 0.240000 0.627500
0.147500 0.240000 0.627500
0.235000 0.240000 0.627500
0.322500 0.240000 0.627500
0.410000 0.240000 0.627500
0.497500 0.240000 0.627500
0.585000 0.240000 0.627500
0.672500 0.240000 0.627500
0.760000 0.240000 0.627500
0.060000 0.330000 0.627500
0.147500 0.330000 0.627500
0.235000 0.330000 0.627500
0.322500 0.330000 0.627500
0.410000 0.330000 0.627500
0.497500 0.330000 0.627500
0.585000 0.330000 0.627500
0.672500 0.330000 0.627500
0.760000 0.330000 0.627500
0.060000 0.420000 0.627500
0.147500 0.420000 0.627500
0.235000 0.420000 0.627500
0.322500 0.420000 0.627500
0.410000 0.420000 0.627500
0.497500 0.420000 0.627500
0.585000 0.420000 0.627500
0.672500 0.420000 0.627500
0.760000 0.420000 0.627500
0.060000 0.510000 0.627500
0.147500 0.510000 0.627500
0.235000 0.510000 0.627500
0.322500 0.510000 0.627500
0.410000 0.510000 0.627500
0.497500 0.510000 0.627500
0.585000 0.510000 0.627500
0.672500 0.510000 0.627500
0.760000 0.510000 0.627500
0.060000 0.600000 0.627500
0.147500 0.600000 0.627500
0.235000 0.600000 0.627500
0.322500 0.600000 0.627500
0.410000 0.600000 0.627500
0.497500 0.600000 0.627500
0.585000 0.600000 0.627500
0.672500 0.600000 0.627500
0.760000 0.600000 0.627500
0.060000 0.690000 0.627500
0.147500 0.690000 0.627500
0.235000 0.690000 0.627500
0.322500 0.690000 0.627500
0.410000 0.690000 0.627500
0.497500 0.690000 0.627500
0.585000 0.690000 0.627500
0.672500 0.690000 0.627500
0.760000 0.690000 0.627500
0.060000 0.780000 0.627500
0.147500 0.780000 0.627500
0.235000 0.780000 0.627500
0.322500 0.780000 0.627500
0.410000 0.780000 0.627500
0.497500 0.780000 0.627500
0.585000 0.780000 0.627500
0.672500 0.780000 0.627500
0.760000 0.780000 0.627500
0.060000 0.060000 0.718750
0.147500 0.060000 0.718750
0.235000 0.060000 0.718750
0.322500 0.060000 0.718750
0.410000 0.060000 0.718750
0.497500 0.060000 0.718750
0.585000 0.060000 0.718750
0.672500 0.060000 0.718750
0.760000 0.060000 0.718750
0.060000 0.150000 0.718750
0.147500 0.150000 0.718750
0.235000 0.150000 0.718750
0.322500 0.150000 0.718750
0.410000 0.150000 0.718750
0.497500 0.150000 0.718750
0.585000 0.150000 0.718750
0.672500 0.150000 0.718750
0.760000 0.150000 0.718750
0.060000 0.240000 0.718750
0.147500 0.240000 0.718750
0.235000 0.240000 0.718750
0.322500 0.240000 0.718750
0.410000 0.240000 0.718750
0.497500 0.240000 0.718750
0.585000 0.240000 0.718750
0.672500 0.240000 0.718750
0.760000 0.240000 0.718750
0.060000 0.330000 0.718750
0.147500 0.330000 0.718750
0.235000 0.330000 0.718750
0.322500 0.330000 0.718750
0.410000 0.330000 0.718750
0.497500 0.330000 0.718750
0.585000 0.330000 0.718750
0.672500 0.330000 0.718750
0.760000 0.330000 0.718750
0.060000 0.420000 0.718750
0.147500 0.420000 0.718750
0.235000 0.420000 0.718750
0.322500 0.420000 0.718750
0.410000 0.420000 0.718750
0.497500 0.420000 0.718750
0.585000 0.420000 0.718750
0.672500 0.420000 0.718750
0.760000 0.420000 0.718750
0.060000 0.510000 0.718750
0.147500 0.510000 0.718750
0.235000 0.510000 0.718750
0.322500 0.510000 0.718750
0.410000 0.510000 0.718750
0.497500 0.510000 0.718750
0.585000 0.510000 0.718750
0.672500 0.510000 0.718750
0.760000 0.510000 0.718750
0.060000 0.600000 0.718750
0.147500 0.600000 0.718750
0.235000 0.600000 0.718750
0.322500 0.600000 0.718750
0.410000 0.600000 0.718750
0.497500 0.600000 0.718750
0.585000 0.600000 0.718750
0.672500 0.600000 0.718750
0.760000 0.600000 0.718750
0.060000 0.690000 0.718750
0.147500 0.690000 0.718750
0.235000 0.690000 0.718750
0.322500 0.690000 0.718750
0.410000 0.690000 0.718750
0.497500 0.690000 0.718750
0.585000 0.690000 0.718750
0.672500 0.690000 0.718750
0.760000 0.690000 0.718750
0.060000 0.780000 0.718750
0.147500 0.780000 0.718750
0.235000 0.780000 0.718750
0.322500 0.780000 0.718750
0.410000 0.780000 0.718750
0.497500 0.780000 0.718750
0.585000 0.780000 0.718750
0.672500 0.780000 0.718750
0.760000 0.780000 0.718750
0.060000 0.060000 0.810000
0.147500 0.060000 0.810000
0.235000 0.060000 0.810000
0.322500 0.060000 0.810000
0.410000 0.060000 0.810000
0.497500 0.060000 0.810000
0.585000 0.060000 0.810000
0.672500 0.060000 0.810000
0.760000 0.060000 0.810000
0.060000 0.150000 0.810000
0.147500 0.150000 0.810000
0.235000 0.150000 0.810000
0.322500 0.150000 0.810000
0.410000 0.150000 0.810000
0.497500 0.150000 0.810000
0.585000 0.150000 0.810000
0.672500 0.150000 0.810000
0.760000 0.150000 0.810000
0.060000 0.240000 0.810000
0.147500 0.240000 0.810000
0.235000 0.240000 0.810000
0.322500 0.240000 0.810000
0.410000 0.240000 0.810000
0.497500 0.240000 0.810000
0.585000 0.240000 0.810000
0.672500 0.240000 0.810000
0.760000 0.240000 0.810000
0.060000 0.330000 0.810000
0.147500 0.330000 0.810000
0.235000 0.330000 0.810000
0.322500 0.330000 0.810000
0.410000 0.330000 0.810000
0.497500 0.330000 0.810000
0.585000 0.330000 0.810000
0.672500 0.330000 0.810000
0.760000 0.330000 0.810000
0.060000 0.420000 0.810000
0.147500 0.420000 0.810000
0.235000 0.420000 0.810000
0.322500 0.420000 0.810000
0.410000 0.420000 0.810000
0.497500 0.420000 0.810000
0.585000 0.420000 0.810000
0.672500 0.420000 0.810000
0.760000 0.420000 0.810000
0.060000 0.510000 0.810000
0.147500 0.510000 0.810000
0.235000 0.510000 0.810000
0.322500 0.510000 0.810000
0.410000 0.510000 0.810000
0.497500 0.510000 0.810000
0.585000 0.510000 0.810000
0.672500 0.510000 0.810000
0.760000 0.510000 0.810000
0.060000 0.600000 0.810000
0.147500 0.600000 0.810000
0.235000 0.600000 0.810000
0.322500 0.600000 0.810000
0.410000 0.600000 0.810000
0.497500 0.600000 0.810000
0.585000 0.600000 0.810000
0.672500 0.600000 0.810000
0.760000 0.600000 0.810000
0.060000 0.690000 0.810000
0.147500 0.690000 0.810000
0.235000 0.690000 0.810000
0.322500 0.690000 0.810000
0.410000 0.690000 0.810000
0.497500 0.690000 0.810000
0.585000 0.690000 0.810000
0.672500 0.690000 0.810000
0.760000 0.690000 0.810000
0.060000 0.780000 0.810000
0.147500 0.780000 0.810000
0.235000 0.780000 0.810000
0.322500 0.780000 0.810000
0.410000 0.780000 0.810000
0.497500 0.780000 0.810000
0.585000 0.780000 0.810000
0.672500 0.780000 0.810000
0.760000 0.780000 0.810000
