lut-visualizer/public/data/sample_luts/matte_look.cube
LUT_3D_SIZE 5
DOMAIN_MIN 0.0 0.0 0.0
DOMAIN_MAX 1.0 1.0 1.0
0.060000 0.060000 0.080000
0.235000 0.060000 0.080000
0.410000 0.060000 0.080000
0.585000 0.060000 0.080000
0.760000 0.060000 0.080000
0.060000 0.240000 0.080000
0.235000 0.240000 0.080000
0.410000 0.240000 0.080000
0.585000 0.240000 0.080000
0.760000 0.240000 0.080000
0.060000 0.420000 0.080000
0.235000 0.420000 0.080000
0.410000 0.420000 0.080000
0.585000 0.420000 0.080000
0.760000 0.420000 0.080000
0.060000 0.600000 0.080000
0.235000 0.600000 0.080000
0.410000 0.600000 0.080000
0.585000 0.600000 0.080000
0.760000 0.600000 0.080000
0.060000 0.780000 0.080000
0.235000 0.780000 0.080000
0.410000 0.780000 0.080000
0.585000 0.780000 0.080000
0.760000 0.780000 0.080000
0.060000 0.060000 0.262500
0.235000 0.060000 0.262500
0.410000 0.060000 0.262500
0.585000 0.060000 0.262500
0.760000 0.060000 0.262500
0.060000 0.240000 0.262500
0.235000 0.240000 0.262500
0.410000 0.240000 0.262500
0.585000 0.240000 0.262500
0.760000 0.240000 0.262500
0.060000 0.420000 0.262500
0.235000 0.420000 0.262500
0.410000 0.420000 0.262500
0.585000 0.420000 0.262500
0.760000 0.420000 0.262500
0.060000 0.600000 0.262500
0.235000 0.600000 0.262500
0.410000 0.600000 0.262500
0.585000 0.600000 0.262500
0.760000 0.600000 0.262500
0.060000 0.780000 0.262500
0.235000 0.780000 0.262500
0.410000 0.780000 0.262500
0.585000 0.780000 0.262500
0.760000 0.780000 0.262500
0.060000 0.060000 0.445000
0.235000 0.060000 0.445000
0.410000 0.060000 0.445000
0.585000 0.060000 0.445000
0.760000 0.060000 0.445000
0.060000 0.240000 0.445000
0.235000 0.240000 0.445000
0.410000 0.240000 0.445000
0.585000 0.240000 0.445000
0.760000 0.240000 0.445000
0.060000 0.420000 0.445000
0.235000 0.420000 0.445000
0.410000 0.420000 0.445000
0.585000 0.420000 0.445000
0.760000 0.420000 0.445000
0.060000 0.600000 0.445000
0.235000 0.600000 0.445000
0.410000 0.600000 0.445000
0.585000 0.600000 0.445000
0.760000 0.600000 0.445000
0.060000 0.780000 0.445000
0.235000 0.780000 0.445000
0.410000 0.780000 0.445000
0.585000 0.780000 0.445000
0.760000 0.780000 0.445000
0.060000 0.060000 0.627500
0.235000 0.060000 0.627500
0.410000 0.060000 0.627500
0.585000 0.060000 0.627500
0.760000 0.060000 0.627500
0.060000 0.240000 0.627500
0.235000 0.240000 0.627500
0.410000 0.240000 0.627500
0.585000 0.240000 0.627500
0.760000 0.240000 0.627500
0.060000 0.420000 0.627500
0.235000 0.420000 0.627500
0.410000 0.420000 0.627500
0.585000 0.420000 0.627500
0.760000 0.420000 0.627500
0.060000 0.600000 0.627500
0.235000 0.600000 0.627500
0.410000 0.600000 0.627500
0.585000 0.600000 0.627500
0.760000 0.600000 0.627500
0.060000 0.780000 0.627500
0.235000 0.780000 0.627500
0.410000 0.780000 0.627500
0.585000 0.780000 0.627500
0.760000 0.780000 0.627500
0.060000 0.060000 0.810000
0.235000 0.060000 0.810000
0.410000 0.060000 0.810000
0.585000 0.060000 0.810000
0.760000 0.060000 0.810000
0.060000 0.240000 0.810000
0.235000 0.240000 0.810000
0.410000 0.240000 0.810000
0.585000 0.240000 0.810000
0.760000 0.240000 0.810000
0.060000 0.420000 0.810000
0.235000 0.420000 0.810000
0.410000 0.420000 0.810000
0.585000 0.420000 0.810000
0.760000 0.420000 0.810000
0.060000 0.600000 0.810000
0.235000 0.600000 0.810000
0.410000 0.600000 0.810000
0.585000 0.600000 0.810000
0.760000 0.600000 0.810000
0.060000 0.780000 0.810000
0.235000 0.780000 0.810000
0.410000 0.780000 0.810000
0.585000 0.780000 0.810000
0.760000 0.780000 0.810000
