lut-visualizer/public/data/sample_luts/saturate_120.cube
LUT_3D_SIZE 5
DOMAIN_MIN 0.0 0.0 0.0
DOMAIN_MAX 1.0 1.0 1.0
0.000000 0.000000 0.000000
0.289370 0.000000 0.000000
0.578740 0.000000 0.000000
0.868110 0.000000 0.000000
1.000000 0.000000 0.000000
0.000000 0.264240 0.000000
0.253610 0.253610 0.000000
0.542980 0.242980 0.000000
0.832350 0.232350 0.000000
1.000000 0.221720 0.000000
0.000000 0.528480 0.000000
0.217850 0.517850 0.000000
0.507220 0.507220 0.000000
0.796590 0.496590 0.000000
1.000000 0.485960 0.000000
0.000000 0.792720 0.000000
0.182090 0.782090 0.000000
0.471460 0.771460 0.000000
0.760830 0.760830 0.000000
1.000000 0.750200 0.000000
0.000000 1.000000 0.000000
0.146330 1.000000 0.000000
0.435700 1.000000 0.000000
0.725070 1.000000 0.000000
1.000000 1.000000 0.000000
0.000000 0.000000 0.296390
0.285760 0.000000 0.285760
0.575130 0.000000 0.275130
0.864500 0.000000 0.264500
1.000000 0.000000 0.253870
0.000000 0.260630 0.260630
0.250000 0.250000 0.250000
0.539370 0.239370 0.239370
0.828740 0.228740 0.228740
1.000000 0.218110 0.218110
0.000000 0.524870 0.224870
0.214240 0.514240 0.214240
0.503610 0.503610 0.203610
0.792980 0.492980 0.192980
1.000000 0.482350 0.182350
0.000000 0.789110 0.189110
0.178480 0.778480 0.178480
0.467850 0.767850 0.167850
0.757220 0.757220 0.157220
1.000000 0.746590 0.146590
0.000000 1.000000 0.153350
0.142720 1.000000 0.142720
0.432090 1.000000 0.132090
0.721460 1.000000 0.121460
1.000000 1.000000 0.110830
0.000000 0.000000 0.592780
0.282150 0.000000 0.582150
0.571520 0.000000 0.571520
0.860890 0.000000 0.560890
1.000000 0.000000 0.550260
0.000000 0.257020 0.557020
0.246390 0.246390 0.546390
0.535760 0.235760 0.535760
0.825130 0.225130 0.525130
1.000000 0.214500 0.514500
0.000000 0.521260 0.521260
0.210630 0.510630 0.510630
0.500000 0.500000 0.500000
0.789370 0.489370 0.489370
1.000000 0.478740 0.478740
0.000000 0.785500 0.485500
0.174870 0.774870 0.474870
0.464240 0.764240 0.464240
0.753610 0.753610 0.453610
1.000000 0.742980 0.442980
0.000000 1.000000 0.449740
0.139110 1.000000 0.439110
0.428480 1.000000 0.428480
0.717850 1.000000 0.417850
1.000000 1.000000 0.407220
0.000000 0.000000 0.889170
0.278540 0.000000 0.878540
0.567910 0.000000 0.867910
0.857280 0.000000 0.857280
1.000000 0.000000 0.846650
0.000000 0.253410 0.853410
0.242780 0.242780 0.842780
0.532150 0.232150 0.832150
0.821520 0.221520 0.821520
1.000000 0.210890 0.810890
0.000000 0.517650 0.817650
0.207020 0.507020 0.807020
0.496390 0.496390 0.796390
0.785760 0.485760 0.785760
1.000000 0.475130 0.775130
0.000000 0.781890 0.781890
0.171260 0.771260 0.771260
0.460630 0.760630 0.760630
0.750000 0.750000 0.750000
1.000000 0.739370 0.739370
0.000000 1.000000 0.746130
0.135500 1.000000 0.735500
0.424870 1.000000 0.724870
0.714240 1.000000 0.714240
1.000000 1.000000 0.703610
0.000000 0.000000 1.000000
0.274930 0.000000 1.000000
0.564300 0.000000 1.000000
0.853670 0.000000 1.000000
1.000000 0.000000 1.000000
0.000000 0.249800 1.000000
0.239170 0.239170 1.000000
0.528540 0.228540 1.000000
0.817910 0.217910 1.000000
1.000000 0.207280 1.000000
0.000000 0.514040 1.000000
0.203410 0.503410 1.000000
0.492780 0.492780 1.000000
0.782150 0.482150 1.000000
1.000000 0.471520 1.000000
0.000000 0.778280 1.000000
0.167650 0.767650 1.000000
0.457020 0.757020 1.000000
0.746390 0.746390 1.000000
1.000000 0.735760 1.000000
0.000000 1.000000 1.000000
0.131890 1.000000 1.000000
0.421260 1.000000 1.000000
0.710630 1.000000 1.000000
1.000000 1.000000 1.000000
