lut-visualizer/public/data/sample_luts/saturate_120.cube
LUT_3D_SIZE 17
DOMAIN_MIN 0.0 0.0 0.0
DOMAIN_MAX 1.0 1.0 1.0
0.000000 0.000000 0.000000
0.072343 0.000000 0.000000
0.144685 0.000000 0.000000
0.217027 0.000000 0.000000
0.289370 0.000000 0.000000
0.361712 0.000000 0.000000
0.434055 0.000000 0.000000
0.506398 0.000000 0.000000
0.578740 0.000000 0.000000
0.651082 0.000000 0.000000
0.723425 0.000000 0.000000
0.795767 0.000000 0.000000
0.868110 0.000000 0.000000
0.940453 0.000000 0.000000
1.000000 0.000000 0.000000
1.000000 0.000000 0.000000
1.000000 0.000000 0.000000
0.000000 0.066060 0.000000
0.063403 0.063403 0.000000
0.135745 0.060745 0.000000
0.208087 0.058088 0.000000
0.280430 0.055430 0.000000
0.352772 0.052772 0.000000
0.425115 0.050115 0.000000
0.497457 0.047457 0.000000
0.569800 0.044800 0.000000
0.642142 0.042142 0.000000
0.714485 0.039485 0.000000
0.786828 0.036827 0.000000
0.859170 0.034170 0.000000
0.931512 0.031512 0.000000
1.000000 0.028855 0.000000
1.000000 0.026197 0.000000
1.000000 0.023540 0.000000
0.000000 0.132120 0.000000
0.054462 0.129462 0.000000
0.126805 0.126805 0.000000
0.199147 0.124147 0.000000
0.271490 0.121490 0.000000
0.343832 0.118832 0.000000
0.416175 0.116175 0.000000
0.488518 0.113517 0.000000
0.560860 0.110860 0.000000
0.633202 0.108202 0.000000
0.705545 0.105545 0.000000
0.777887 0.102887 0.000000
0.850230 0.100230 0.000000
0.922573 0.097572 0.000000
0.994915 0.094915 0.000000
1.000000 0.092257 0.000000
1.000000 0.089600 0.000000
0.000000 0.198180 0.000000
0.045522 0.195522 0.000000
0.117865 0.192865 0.000000
0.190207 0.190207 0.000000
0.262550 0.187550 0.000000
0.334892 0.184892 0.000000
0.407235 0.182235 0.000000
0.479577 0.179577 0.000000
0.551920 0.176920 0.000000
0.624262 0.174262 0.000000
0.696605 0.171605 0.000000
0.768948 0.168947 0.000000
0.841290 0.166290 0.000000
0.913632 0.163632 0.000000
0.985975 0.160975 0.000000
1.000000 0.158317 0.000000
1.000000 0.155660 0.000000
0.000000 0.264240 0.000000
0.036582 0.261582 0.000000
0.108925 0.258925 0.000000
0.181267 0.256267 0.000000
0.253610 0.253610 0.000000
0.325952 0.250952 0.000000
0.398295 0.248295 0.000000
0.470638 0.245637 0.000000
0.542980 0.242980 0.000000
0.615322 0.240322 0.000000
0.687665 0.237665 0.000000
0.760007 0.235007 0.000000
0.832350 0.232350 0.000000
0.904693 0.229692 0.000000
0.977035 0.227035 0.000000
1.000000 0.224378 0.000000
1.000000 0.221720 0.000000
0.000000 0.330300 0.000000
0.027643 0.327643 0.000000
0.099985 0.324985 0.000000
0.172327 0.322327 0.000000
0.244670 0.319670 0.000000
0.317013 0.317013 0.000000
0.389355 0.314355 0.000000
0.461698 0.311698 0.000000
0.534040 0.309040 0.000000
0.606382 0.306383 0.000000
0.678725 0.303725 0.000000
0.751067 0.301067 0.000000
0.823410 0.298410 0.000000
0.895752 0.295752 0.000000
0.968095 0.293095 0.000000
1.000000 0.290438 0.000000
1.000000 0.287780 0.000000
0.000000 0.396360 0.000000
0.018702 0.393702 0.000000
0.091045 0.391045 0.000000
0.163387 0.388387 0.000000
0.235730 0.385730 0.000000
0.308072 0.383072 0.000000
0.380415 0.380415 0.000000
0.452758 0.377757 0.000000
0.525100 0.375100 0.000000
0.597442 0.372442 0.000000
0.669785 0.369785 0.000000
0.742127 0.367127 0.000000
0.814470 0.364470 0.000000
0.886813 0.361812 0.000000
0.959155 0.359155 0.000000
1.000000 0.356497 0.000000
1.000000 0.353840 0.000000
0.000000 0.462420 0.000000
0.009763 0.459763 0.000000
0.082105 0.457105 0.000000
0.154447 0.454448 0.000000
0.226790 0.451790 0.000000
0.299133 0.449133 0.000000
0.371475 0.446475 0.000000
0.443818 0.443818 0.000000
0.516160 0.441160 0.000000
0.588502 0.438503 0.000000
0.660845 0.435845 0.000000
0.733187 0.433188 0.000000
0.805530 0.430530 0.000000
0.877872 0.427873 0.000000
0.950215 0.425215 0.000000
1.000000 0.422558 0.000000
1.000000 0.419900 0.000000
0.000000 0.528480 0.000000
0.000823 0.525822 0.000000
0.073165 0.523165 0.000000
0.145507 0.520508 0.000000
0.217850 0.517850 0.000000
0.290193 0.515192 0.000000
0.362535 0.512535 0.000000
0.434878 0.509877 0.000000
0.507220 0.507220 0.000000
0.579562 0.504563 0.000000
0.651905 0.501905 0.000000
0.724247 0.499247 0.000000
0.796590 0.496590 0.000000
0.868932 0.493932 0.000000
0.941275 0.491275 0.000000
1.000000 0.488617 0.000000
1.000000 0.485960 0.000000
0.000000 0.594540 0.000000
0.000000 0.591882 0.000000
0.064225 0.589225 0.000000
0.136567 0.586567 0.000000
0.208910 0.583910 0.000000
0.281253 0.581252 0.000000
0.353595 0.578595 0.000000
0.425938 0.575937 0.000000
0.498280 0.573280 0.000000
0.570622 0.570622 0.000000
0.642965 0.567965 0.000000
0.715307 0.565307 0.000000
0.787650 0.562650 0.000000
0.859992 0.559992 0.000000
0.932335 0.557335 0.000000
1.000000 0.554677 0.000000
1.000000 0.552020 0.000000
0.000000 0.660600 0.000000
0.000000 0.657942 0.000000
0.055285 0.655285 0.000000
0.127627 0.652628 0.000000
0.199970 0.649970 0.000000
0.272313 0.647312 0.000000
0.344655 0.644655 0.000000
0.416998 0.641997 0.000000
0.489340 0.639340 0.000000
0.561682 0.636683 0.000000
0.634025 0.634025 0.000000
0.706367 0.631367 0.000000
0.778710 0.628710 0.000000
0.851052 0.626053 0.000000
0.923395 0.623395 0.000000
0.995737 0.620737 0.000000
1.000000 0.618080 0.000000
0.000000 0.726660 0.000000
0.000000 0.724002 0.000000
0.046345 0.721345 0.000000
0.118687 0.718687 0.000000
0.191030 0.716030 0.000000
0.263373 0.713372 0.000000
0.335715 0.710715 0.000000
0.408058 0.708058 0.000000
0.480400 0.705400 0.000000
0.552742 0.702742 0.000000
0.625085 0.700085 0.000000
0.697427 0.697427 0.000000
0.769770 0.694770 0.000000
0.842112 0.692112 0.000000
0.914455 0.689455 0.000000
0.986797 0.686797 0.000000
1.000000 0.684140 0.000000
0.000000 0.792720 0.000000
0.000000 0.790062 0.000000
0.037405 0.787405 0.000000
0.109747 0.784747 0.000000
0.182090 0.782090 0.000000
0.254433 0.779432 0.000000
0.326775 0.776775 0.000000
0.399118 0.774117 0.000000
0.471460 0.771460 0.000000
0.543802 0.768802 0.000000
0.616145 0.766145 0.000000
0.688487 0.763487 0.000000
0.760830 0.760830 0.000000
0.833172 0.758172 0.000000
0.905515 0.755515 0.000000
0.977858 0.752857 0.000000
1.000000 0.750200 0.000000
0.000000 0.858780 0.000000
0.000000 0.856123 0.000000
0.028465 0.853465 0.000000
0.100807 0.850807 0.000000
0.173150 0.848150 0.000000
0.245493 0.845492 0.000000
0.317835 0.842835 0.000000
0.390178 0.840178 0.000000
0.462520 0.837520 0.000000
0.534862 0.834862 0.000000
0.607205 0.832205 0.000000
0.679547 0.829547 0.000000
0.751890 0.826890 0.000000
0.824232 0.824232 0.000000
0.896575 0.821575 0.000000
0.968917 0.818917 0.000000
1.000000 0.816260 0.000000
0.000000 0.924840 0.000000
0.000000 0.922183 0.000000
0.019525 0.919525 0.000000
0.091867 0.916868 0.000000
0.164210 0.914210 0.000000
0.236552 0.911552 0.000000
0.308895 0.908895 0.000000
0.381238 0.906238 0.000000
0.453580 0.903580 0.000000
0.525922 0.900923 0.000000
0.598265 0.898265 0.000000
0.670608 0.895608 0.000000
0.742950 0.892950 0.000000
0.815292 0.890293 0.000000
0.887635 0.887635 0.000000
0.959978 0.884978 0.000000
1.000000 0.882320 0.000000
0.000000 0.990900 0.000000
0.000000 0.988243 0.000000
0.010585 0.985585 0.000000
0.082927 0.982927 0.000000
0.155270 0.980270 0.000000
0.227612 0.977612 0.000000
0.299955 0.974955 0.000000
0.372298 0.972298 0.000000
0.444640 0.969640 0.000000
0.516982 0.966982 0.000000
0.589325 0.964325 0.000000
0.661667 0.961668 0.000000
0.734010 0.959010 0.000000
0.806353 0.956352 0.000000
0.878695 0.953695 0.000000
0.951037 0.951037 0.000000
1.000000 0.948380 0.000000
0.000000 1.000000 0.000000
0.000000 1.000000 0.000000
0.001645 1.000000 0.000000
0.073987 1.000000 0.000000
0.146330 1.000000 0.000000
0.218672 1.000000 0.000000
0.291015 1.000000 0.000000
0.363357 1.000000 0.000000
0.435700 1.000000 0.000000
0.508042 1.000000 0.000000
0.580385 1.000000 0.000000
0.652727 1.000000 0.000000
0.725070 1.000000 0.000000
0.797412 1.000000 0.000000
0.869755 1.000000 0.000000
0.942098 1.000000 0.000000
1.000000 1.000000 0.000000
0.000000 0.000000 0.074097
0.071440 0.000000 0.071440
0.143782 0.000000 0.068782
0.216125 0.000000 0.066125
0.288467 0.000000 0.063467
0.360810 0.000000 0.060810
0.433152 0.000000 0.058152
0.505495 0.000000 0.055495
0.577838 0.000000 0.052837
0.650180 0.000000 0.050180
0.722522 0.000000 0.047522
0.794865 0.000000 0.044865
0.867207 0.000000 0.042207
0.939550 0.000000 0.039550
1.000000 0.000000 0.036892
1.000000 0.000000 0.034235
1.000000 0.000000 0.031577
0.000000 0.065157 0.065157
0.062500 0.062500 0.062500
0.134843 0.059842 0.059842
0.207185 0.057185 0.057185
0.279527 0.054527 0.054527
0.351870 0.051870 0.051870
0.424212 0.049212 0.049212
0.496555 0.046555 0.046555
0.568897 0.043897 0.043897
0.641240 0.041240 0.041240
0.713583 0.038582 0.038582
0.785925 0.035925 0.035925
0.858267 0.033267 0.033267
0.930610 0.030610 0.030610
1.000000 0.027952 0.027952
1.000000 0.025295 0.025295
1.000000 0.022637 0.022637
0.000000 0.131217 0.056217
0.053560 0.128560 0.053560
0.125903 0.125903 0.050902
0.198245 0.123245 0.048245
0.270587 0.120587 0.045587
0.342930 0.117930 0.042930
0.415272 0.115272 0.040272
0.487615 0.112615 0.037615
0.559957 0.109957 0.034957
0.632300 0.107300 0.032300
0.704642 0.104642 0.029642
0.776985 0.101985 0.026985
0.849327 0.099327 0.024327
0.921670 0.096670 0.021670
0.994013 0.094012 0.019013
1.000000 0.091355 0.016355
1.000000 0.088697 0.013698
0.000000 0.197277 0.047278
0.044620 0.194620 0.044620
0.116962 0.191962 0.041962
0.189305 0.189305 0.039305
0.261647 0.186647 0.036647
0.333990 0.183990 0.033990
0.406332 0.181332 0.031332
0.478675 0.178675 0.028675
0.551017 0.176017 0.026017
0.623360 0.173360 0.023360
0.695703 0.170702 0.020702
0.768045 0.168045 0.018045
0.840387 0.165387 0.015388
0.912730 0.162730 0.012730
0.985073 0.160072 0.010072
1.000000 0.157415 0.007415
1.000000 0.154757 0.004757
0.000000 0.263338 0.038337
0.035680 0.260680 0.035680
0.108022 0.258022 0.033022
0.180365 0.255365 0.030365
0.252707 0.252707 0.027707
0.325050 0.250050 0.025050
0.397392 0.247392 0.022392
0.469735 0.244735 0.019735
0.542077 0.242078 0.017077
0.614420 0.239420 0.014420
0.686762 0.236762 0.011762
0.759105 0.234105 0.009105
0.831447 0.231447 0.006447
0.903790 0.228790 0.003790
0.976133 0.226133 0.001133
1.000000 0.223475 0.000000
1.000000 0.220817 0.000000
0.000000 0.329398 0.029398
0.026740 0.326740 0.026740
0.099082 0.324082 0.024082
0.171425 0.321425 0.021425
0.243767 0.318767 0.018768
0.316110 0.316110 0.016110
0.388452 0.313453 0.013453
0.460795 0.310795 0.010795
0.533138 0.308138 0.008138
0.605480 0.305480 0.005480
0.677822 0.302822 0.002823
0.750165 0.300165 0.000165
0.822507 0.297507 0.000000
0.894850 0.294850 0.000000
0.967193 0.292193 0.000000
1.000000 0.289535 0.000000
1.000000 0.286878 0.000000
0.000000 0.395457 0.020458
0.017800 0.392800 0.017800
0.090142 0.390142 0.015142
0.162485 0.387485 0.012485
0.234827 0.384827 0.009827
0.307170 0.382170 0.007170
0.379512 0.379512 0.004513
0.451855 0.376855 0.001855
0.524197 0.374197 0.000000
0.596540 0.371540 0.000000
0.668883 0.368882 0.000000
0.741225 0.366225 0.000000
0.813567 0.363567 0.000000
0.885910 0.360910 0.000000
0.958253 0.358252 0.000000
1.000000 0.355595 0.000000
1.000000 0.352937 0.000000
0.000000 0.461518 0.011518
0.008860 0.458860 0.008860
0.081202 0.456203 0.006202
0.153545 0.453545 0.003545
0.225887 0.450887 0.000887
0.298230 0.448230 0.000000
0.370572 0.445573 0.000000
0.442915 0.442915 0.000000
0.515257 0.440258 0.000000
0.587600 0.437600 0.000000
0.659942 0.434943 0.000000
0.732285 0.432285 0.000000
0.804627 0.429628 0.000000
0.876970 0.426970 0.000000
0.949313 0.424313 0.000000
1.000000 0.421655 0.000000
1.000000 0.418998 0.000000
0.000000 0.527578 0.002578
0.000000 0.524920 0.000000
0.072262 0.522262 0.000000
0.144605 0.519605 0.000000
0.216948 0.516948 0.000000
0.289290 0.514290 0.000000
0.361632 0.511632 0.000000
0.433975 0.508975 0.000000
0.506317 0.506317 0.000000
0.578660 0.503660 0.000000
0.651003 0.501003 0.000000
0.723345 0.498345 0.000000
0.795687 0.495687 0.000000
0.868030 0.493030 0.000000
0.940373 0.490372 0.000000
1.000000 0.487715 0.000000
1.000000 0.485057 0.000000
0.000000 0.593637 0.000000
0.000000 0.590980 0.000000
0.063322 0.588322 0.000000
0.135665 0.585665 0.000000
0.208007 0.583007 0.000000
0.280350 0.580350 0.000000
0.352692 0.577692 0.000000
0.425035 0.575035 0.000000
0.497377 0.572377 0.000000
0.569720 0.569720 0.000000
0.642062 0.567062 0.000000
0.714405 0.564405 0.000000
0.786747 0.561747 0.000000
0.859090 0.559090 0.000000
0.931432 0.556432 0.000000
1.000000 0.553775 0.000000
1.000000 0.551117 0.000000
0.000000 0.659698 0.000000
0.000000 0.657040 0.000000
0.054383 0.654382 0.000000
0.126725 0.651725 0.000000
0.199067 0.649068 0.000000
0.271410 0.646410 0.000000
0.343752 0.643752 0.000000
0.416095 0.641095 0.000000
0.488437 0.638437 0.000000
0.560780 0.635780 0.000000
0.633123 0.633123 0.000000
0.705465 0.630465 0.000000
0.777807 0.627807 0.000000
0.850150 0.625150 0.000000
0.922493 0.622493 0.000000
0.994835 0.619835 0.000000
1.000000 0.617177 0.000000
0.000000 0.725757 0.000000
0.000000 0.723100 0.000000
0.045442 0.720442 0.000000
0.117785 0.717785 0.000000
0.190128 0.715127 0.000000
0.262470 0.712470 0.000000
0.334812 0.709812 0.000000
0.407155 0.707155 0.000000
0.479497 0.704497 0.000000
0.551840 0.701840 0.000000
0.624182 0.699182 0.000000
0.696525 0.696525 0.000000
0.768867 0.693867 0.000000
0.841210 0.691210 0.000000
0.913552 0.688552 0.000000
0.985895 0.685895 0.000000
1.000000 0.683237 0.000000
0.000000 0.791817 0.000000
0.000000 0.789160 0.000000
0.036502 0.786502 0.000000
0.108845 0.783845 0.000000
0.181187 0.781187 0.000000
0.253530 0.778530 0.000000
0.325872 0.775872 0.000000
0.398215 0.773215 0.000000
0.470557 0.770557 0.000000
0.542900 0.767900 0.000000
0.615242 0.765242 0.000000
0.687585 0.762585 0.000000
0.759927 0.759927 0.000000
0.832270 0.757270 0.000000
0.904613 0.754612 0.000000
0.976955 0.751955 0.000000
1.000000 0.749297 0.000000
0.000000 0.857877 0.000000
0.000000 0.855220 0.000000
0.027562 0.852563 0.000000
0.099905 0.849905 0.000000
0.172247 0.847247 0.000000
0.244590 0.844590 0.000000
0.316932 0.841932 0.000000
0.389275 0.839275 0.000000
0.461617 0.836618 0.000000
0.533960 0.833960 0.000000
0.606302 0.831302 0.000000
0.678645 0.828645 0.000000
0.750987 0.825987 0.000000
0.823330 0.823330 0.000000
0.895673 0.820672 0.000000
0.968015 0.818015 0.000000
1.000000 0.815357 0.000000
0.000000 0.923938 0.000000
0.000000 0.921280 0.000000
0.018622 0.918623 0.000000
0.090965 0.915965 0.000000
0.163307 0.913308 0.000000
0.235650 0.910650 0.000000
0.307992 0.907992 0.000000
0.380335 0.905335 0.000000
0.452677 0.902678 0.000000
0.525020 0.900020 0.000000
0.597363 0.897363 0.000000
0.669705 0.894705 0.000000
0.742047 0.892048 0.000000
0.814390 0.889390 0.000000
0.886733 0.886733 0.000000
0.959075 0.884075 0.000000
1.000000 0.881418 0.000000
0.000000 0.989997 0.000000
0.000000 0.987340 0.000000
0.009682 0.984683 0.000000
0.082025 0.982025 0.000000
0.154367 0.979367 0.000000
0.226710 0.976710 0.000000
0.299052 0.974052 0.000000
0.371395 0.971395 0.000000
0.443738 0.968738 0.000000
0.516080 0.966080 0.000000
0.588422 0.963422 0.000000
0.660765 0.960765 0.000000
0.733107 0.958108 0.000000
0.805450 0.955450 0.000000
0.877792 0.952792 0.000000
0.950135 0.950135 0.000000
1.000000 0.947477 0.000000
0.000000 1.000000 0.000000
0.000000 1.000000 0.000000
0.000742 1.000000 0.000000
0.073085 1.000000 0.000000
0.145427 1.000000 0.000000
0.217770 1.000000 0.000000
0.290112 1.000000 0.000000
0.362455 1.000000 0.000000
0.434797 1.000000 0.000000
0.507140 1.000000 0.000000
0.579483 1.000000 0.000000
0.651825 1.000000 0.000000
0.724167 1.000000 0.000000
0.796510 1.000000 0.000000
0.868853 1.000000 0.000000
0.941195 1.000000 0.000000
1.000000 1.000000 0.000000
0.000000 0.000000 0.148195
0.070538 0.000000 0.145537
0.142880 0.000000 0.142880
0.215222 0.000000 0.140222
0.287565 0.000000 0.137565
0.359907 0.000000 0.134907
0.432250 0.000000 0.132250
0.504592 0.000000 0.129592
0.576935 0.000000 0.126935
0.649277 0.000000 0.124277
0.721620 0.000000 0.121620
0.793962 0.000000 0.118962
0.866305 0.000000 0.116305
0.938647 0.000000 0.113647
1.000000 0.000000 0.110990
1.000000 0.000000 0.108332
1.000000 0.000000 0.105675
0.000000 0.064255 0.139255
0.061597 0.061597 0.136597
0.133940 0.058940 0.133940
0.206282 0.056282 0.131282
0.278625 0.053625 0.128625
0.350967 0.050967 0.125967
0.423310 0.048310 0.123310
0.495653 0.045652 0.120652
0.567995 0.042995 0.117995
0.640337 0.040337 0.115337
0.712680 0.037680 0.112680
0.785022 0.035022 0.110022
0.857365 0.032365 0.107365
0.929708 0.029707 0.104707
1.000000 0.027050 0.102050
1.000000 0.024392 0.099392
1.000000 0.021735 0.096735
0.000000 0.130315 0.130315
0.052657 0.127657 0.127657
0.125000 0.125000 0.125000
0.197342 0.122342 0.122342
0.269685 0.119685 0.119685
0.342027 0.117027 0.117027
0.414370 0.114370 0.114370
0.486712 0.111712 0.111712
0.559055 0.109055 0.109055
0.631397 0.106397 0.106397
0.703740 0.103740 0.103740
0.776083 0.101082 0.101082
0.848425 0.098425 0.098425
0.920767 0.095767 0.095767
0.993110 0.093110 0.093110
1.000000 0.090452 0.090452
1.000000 0.087795 0.087795
0.000000 0.196375 0.121375
0.043717 0.193717 0.118717
0.116060 0.191060 0.116060
0.188402 0.188402 0.113402
0.260745 0.185745 0.110745
0.333087 0.183087 0.108087
0.405430 0.180430 0.105430
0.477773 0.177772 0.102772
0.550115 0.175115 0.100115
0.622457 0.172457 0.097457
0.694800 0.169800 0.094800
0.767142 0.167142 0.092142
0.839485 0.164485 0.089485
0.911828 0.161827 0.086827
0.984170 0.159170 0.084170
1.000000 0.156512 0.081512
1.000000 0.153855 0.078855
0.000000 0.262435 0.112435
0.034777 0.259777 0.109778
0.107120 0.257120 0.107120
0.179462 0.254462 0.104462
0.251805 0.251805 0.101805
0.324147 0.249147 0.099147
0.396490 0.246490 0.096490
0.468832 0.243832 0.093832
0.541175 0.241175 0.091175
0.613517 0.238517 0.088517
0.685860 0.235860 0.085860
0.758203 0.233202 0.083202
0.830545 0.230545 0.080545
0.902887 0.227887 0.077887
0.975230 0.225230 0.075230
1.000000 0.222573 0.072572
1.000000 0.219915 0.069915
0.000000 0.328495 0.103495
0.025837 0.325838 0.100837
0.098180 0.323180 0.098180
0.170522 0.320522 0.095522
0.242865 0.317865 0.092865
0.315207 0.315207 0.090207
0.387550 0.312550 0.087550
0.459893 0.309893 0.084892
0.532235 0.307235 0.082235
0.604577 0.304578 0.079577
0.676920 0.301920 0.076920
0.749262 0.299262 0.074262
0.821605 0.296605 0.071605
0.893948 0.293947 0.068947
0.966290 0.291290 0.066290
1.000000 0.288633 0.063632
1.000000 0.285975 0.060975
0.000000 0.394555 0.094555
0.016897 0.391897 0.091897
0.089240 0.389240 0.089240
0.161582 0.386582 0.086582
0.233925 0.383925 0.083925
0.306267 0.381267 0.081267
0.378610 0.378610 0.078610
0.450953 0.375952 0.075952
0.523295 0.373295 0.073295
0.595637 0.370637 0.070637
0.667980 0.367980 0.067980
0.740322 0.365322 0.065322
0.812665 0.362665 0.062665
0.885007 0.360007 0.060007
0.957350 0.357350 0.057350
1.000000 0.354692 0.054692
1.000000 0.352035 0.052035
0.000000 0.460615 0.085615
0.007958 0.457958 0.082958
0.080300 0.455300 0.080300
0.152642 0.452643 0.077642
0.224985 0.449985 0.074985
0.297327 0.447327 0.072327
0.369670 0.444670 0.069670
0.442013 0.442013 0.067013
0.514355 0.439355 0.064355
0.586697 0.436698 0.061697
0.659040 0.434040 0.059040
0.731382 0.431383 0.056383
0.803725 0.428725 0.053725
0.876067 0.426068 0.051068
0.948410 0.423410 0.048410
1.000000 0.420753 0.045753
1.000000 0.418095 0.043095
0.000000 0.526675 0.076675
0.000000 0.524018 0.074017
0.071360 0.521360 0.071360
0.143702 0.518702 0.068702
0.216045 0.516045 0.066045
0.288388 0.513387 0.063387
0.360730 0.510730 0.060730
0.433073 0.508072 0.058072
0.505415 0.505415 0.055415
0.577757 0.502757 0.052757
0.650100 0.500100 0.050100
0.722442 0.497443 0.047442
0.794785 0.494785 0.044785
0.867127 0.492127 0.042127
0.939470 0.489470 0.039470
1.000000 0.486812 0.036813
1.000000 0.484155 0.034155
0.000000 0.592735 0.067735
0.000000 0.590077 0.065077
0.062420 0.587420 0.062420
0.134762 0.584762 0.059762
0.207105 0.582105 0.057105
0.279447 0.579447 0.054447
0.351790 0.576790 0.051790
0.424133 0.574132 0.049132
0.496475 0.571475 0.046475
0.568817 0.568817 0.043817
0.641160 0.566160 0.041160
0.713502 0.563502 0.038503
0.785845 0.560845 0.035845
0.858187 0.558187 0.033188
0.930530 0.555530 0.030530
1.000000 0.552872 0.027872
1.000000 0.550215 0.025215
0.000000 0.658795 0.058795
0.000000 0.656138 0.056137
0.053480 0.653480 0.053480
0.125822 0.650822 0.050822
0.198165 0.648165 0.048165
0.270508 0.645508 0.045508
0.342850 0.642850 0.042850
0.415193 0.640192 0.040192
0.487535 0.637535 0.037535
0.559877 0.634877 0.034877
0.632220 0.632220 0.032220
0.704562 0.629563 0.029563
0.776905 0.626905 0.026905
0.849247 0.624248 0.024248
0.921590 0.621590 0.021590
0.993932 0.618932 0.018933
1.000000 0.616275 0.016275
0.000000 0.724855 0.049855
0.000000 0.722197 0.047198
0.044540 0.719540 0.044540
0.116883 0.716882 0.041883
0.189225 0.714225 0.039225
0.261568 0.711567 0.036568
0.333910 0.708910 0.033910
0.406253 0.706252 0.031253
0.478595 0.703595 0.028595
0.550937 0.700937 0.025938
0.623280 0.698280 0.023280
0.695622 0.695622 0.020622
0.767965 0.692965 0.017965
0.840307 0.690307 0.015308
0.912650 0.687650 0.012650
0.984992 0.684992 0.009992
1.000000 0.682335 0.007335
0.000000 0.790915 0.040915
0.000000 0.788257 0.038257
0.035600 0.785600 0.035600
0.107942 0.782942 0.032942
0.180285 0.780285 0.030285
0.252628 0.777627 0.027627
0.324970 0.774970 0.024970
0.397313 0.772312 0.022313
0.469655 0.769655 0.019655
0.541997 0.766997 0.016997
0.614340 0.764340 0.014340
0.686682 0.761682 0.011683
0.759025 0.759025 0.009025
0.831368 0.756367 0.006367
0.903710 0.753710 0.003710
0.976052 0.751052 0.001053
1.000000 0.748395 0.000000
0.000000 0.856975 0.031975
0.000000 0.854317 0.029318
0.026660 0.851660 0.026660
0.099002 0.849002 0.024003
0.171345 0.846345 0.021345
0.243688 0.843687 0.018687
0.316030 0.841030 0.016030
0.388373 0.838372 0.013373
0.460715 0.835715 0.010715
0.533057 0.833058 0.008058
0.605400 0.830400 0.005400
0.677742 0.827743 0.002743
0.750085 0.825085 0.000085
0.822427 0.822427 0.000000
0.894770 0.819770 0.000000
0.967113 0.817113 0.000000
1.000000 0.814455 0.000000
0.000000 0.923035 0.023035
0.000000 0.920378 0.020378
0.017720 0.917720 0.017720
0.090062 0.915063 0.015063
0.162405 0.912405 0.012405
0.234748 0.909748 0.009748
0.307090 0.907090 0.007090
0.379433 0.904433 0.004433
0.451775 0.901775 0.001775
0.524118 0.899118 0.000000
0.596460 0.896460 0.000000
0.668802 0.893803 0.000000
0.741145 0.891145 0.000000
0.813488 0.888488 0.000000
0.885830 0.885830 0.000000
0.958172 0.883173 0.000000
1.000000 0.880515 0.000000
0.000000 0.989095 0.014095
0.000000 0.986437 0.011437
0.008780 0.983780 0.008780
0.081122 0.981123 0.006123
0.153465 0.978465 0.003465
0.225807 0.975807 0.000807
0.298150 0.973150 0.000000
0.370493 0.970492 0.000000
0.442835 0.967835 0.000000
0.515177 0.965178 0.000000
0.587520 0.962520 0.000000
0.659863 0.959863 0.000000
0.732205 0.957205 0.000000
0.804547 0.954547 0.000000
0.876890 0.951890 0.000000
0.949233 0.949233 0.000000
1.000000 0.946575 0.000000
0.000000 1.000000 0.005155
0.000000 1.000000 0.002498
0.000000 1.000000 0.000000
0.072182 1.000000 0.000000
0.144525 1.000000 0.000000
0.216867 1.000000 0.000000
0.289210 1.000000 0.000000
0.361553 1.000000 0.000000
0.433895 1.000000 0.000000
0.506237 1.000000 0.000000
0.578580 1.000000 0.000000
0.650922 1.000000 0.000000
0.723265 1.000000 0.000000
0.795608 1.000000 0.000000
0.867950 1.000000 0.000000
0.940292 1.000000 0.000000
1.000000 1.000000 0.000000
0.000000 0.000000 0.222292
0.069635 0.000000 0.219635
0.141978 0.000000 0.216977
0.214320 0.000000 0.214320
0.286662 0.000000 0.211662
0.359005 0.000000 0.209005
0.431347 0.000000 0.206347
0.503690 0.000000 0.203690
0.576032 0.000000 0.201032
0.648375 0.000000 0.198375
0.720718 0.000000 0.195717
0.793060 0.000000 0.193060
0.865402 0.000000 0.190402
0.937745 0.000000 0.187745
1.000000 0.000000 0.185087
1.000000 0.000000 0.182430
1.000000 0.000000 0.179772
0.000000 0.063352 0.213352
0.060695 0.060695 0.210695
