lut-visualizer/public/data/sample_luts/saturate_120.cube
LUT_3D_SIZE 9
DOMAIN_MIN 0.0 0.0 0.0
DOMAIN_MAX 1.0 1.0 1.0
0.000000 0.000000 0.000000
0.144685 0.000000 0.000000
0.289370 0.000000 0.000000
0.434055 0.000000 0.000000
0.578740 0.000000 0.000000
0.723425 0.000000 0.000000
0.868110 0.000000 0.000000
1.000000 0.000000 0.000000
1.000000 0.000000 0.000000
0.000000 0.132120 0.000000
0.126805 0.126805 0.000000
0.271490 0.121490 0.000000
0.416175 0.116175 0.000000
0.560860 0.110860 0.000000
0.705545 0.105545 0.000000
0.850230 0.100230 0.000000
0.994915 0.094915 0.000000
1.000000 0.089600 0.000000
0.000000 0.264240 0.000000
0.108925 0.258925 0.000000
0.253610 0.253610 0.000000
0.398295 0.248295 0.000000
0.542980 0.242980 0.000000
0.687665 0.237665 0.000000
0.832350 0.232350 0.000000
0.977035 0.227035 0.000000
1.000000 0.221720 0.000000
0.000000 0.396360 0.000000
0.091045 0.391045 0.000000
0.235730 0.385730 0.000000
0.380415 0.380415 0.000000
0.525100 0.375100 0.000000
0.669785 0.369785 0.000000
0.814470 0.364470 0.000000
0.959155 0.359155 0.000000
1.000000 0.353840 0.000000
0.000000 0.528480 0.000000
0.073165 0.523165 0.000000
0.217850 0.517850 0.000000
0.362535 0.512535 0.000000
0.507220 0.507220 0.000000
0.651905 0.501905 0.000000
0.796590 0.496590 0.000000
0.941275 0.491275 0.000000
1.000000 0.485960 0.000000
0.000000 0.660600 0.000000
0.055285 0.655285 0.000000
0.199970 0.649970 0.000000
0.344655 0.644655 0.000000
0.489340 0.639340 0.000000
0.634025 0.634025 0.000000
0.778710 0.628710 0.000000
0.923395 0.623395 0.000000
1.000000 0.618080 0.000000
0.000000 0.792720 0.000000
0.037405 0.787405 0.000000
0.182090 0.782090 0.000000
0.326775 0.776775 0.000000
0.471460 0.771460 0.000000
0.616145 0.766145 0.000000
0.760830 0.760830 0.000000
0.905515 0.755515 0.000000
1.000000 0.750200 0.000000
0.000000 0.924840 0.000000
0.019525 0.919525 0.000000
0.164210 0.914210 0.000000
0.308895 0.908895 0.000000
0.453580 0.903580 0.000000
0.598265 0.898265 0.000000
0.742950 0.892950 0.000000
0.887635 0.887635 0.000000
1.000000 0.882320 0.000000
0.000000 1.000000 0.000000
0.001645 1.000000 0.000000
0.146330 1.000000 0.000000
0.291015 1.000000 0.000000
0.435700 1.000000 0.000000
0.580385 1.000000 0.000000
0.725070 1.000000 0.000000
0.869755 1.000000 0.000000
1.000000 1.000000 0.000000
0.000000 0.000000 0.148195
0.142880 0.000000 0.142880
0.287565 0.000000 0.137565
0.432250 0.000000 0.132250
0.576935 0.000000 0.126935
0.721620 0.000000 0.121620
0.866305 0.000000 0.116305
1.000000 0.000000 0.110990
1.000000 0.000000 0.105675
0.000000 0.130315 0.130315
0.125000 0.125000 0.125000
0.269685 0.119685 0.119685
0.414370 0.114370 0.114370
0.559055 0.109055 0.109055
0.703740 0.103740 0.103740
0.848425 0.098425 0.098425
0.993110 0.093110 0.093110
1.000000 0.087795 0.087795
0.000000 0.262435 0.112435
0.107120 0.257120 0.107120
0.251805 0.251805 0.101805
0.396490 0.246490 0.096490
0.541175 0.241175 0.091175
0.685860 0.235860 0.085860
0.830545 0.230545 0.080545
0.975230 0.225230 0.075230
1.000000 0.219915 0.069915
0.000000 0.394555 0.094555
0.089240 0.389240 0.089240
0.233925 0.383925 0.083925
0.378610 0.378610 0.078610
0.523295 0.373295 0.073295
0.667980 0.367980 0.067980
0.812665 0.362665 0.062665
0.957350 0.357350 0.057350
1.000000 0.352035 0.052035
0.000000 0.526675 0.076675
0.071360 0.521360 0.071360
0.216045 0.516045 0.066045
0.360730 0.510730 0.060730
0.505415 0.505415 0.055415
0.650100 0.500100 0.050100
0.794785 0.494785 0.044785
0.939470 0.489470 0.039470
1.000000 0.484155 0.034155
0.000000 0.658795 0.058795
0.053480 0.653480 0.053480
0.198165 0.648165 0.048165
0.342850 0.642850 0.042850
0.487535 0.637535 0.037535
0.632220 0.632220 0.032220
0.776905 0.626905 0.026905
0.921590 0.621590 0.021590
1.000000 0.616275 0.016275
0.000000 0.790915 0.040915
0.035600 0.785600 0.035600
0.180285 0.780285 0.030285
0.324970 0.774970 0.024970
0.469655 0.769655 0.019655
0.614340 0.764340 0.014340
0.759025 0.759025 0.009025
0.903710 0.753710 0.003710
1.000000 0.748395 0.000000
0.000000 0.923035 0.023035
0.017720 0.917720 0.017720
0.162405 0.912405 0.012405
0.307090 0.907090 0.007090
0.451775 0.901775 0.001775
0.596460 0.896460 0.000000
0.741145 0.891145 0.000000
0.885830 0.885830 0.000000
1.000000 0.880515 0.000000
0.000000 1.000000 0.005155
0.000000 1.000000 0.000000
0.144525 1.000000 0.000000
0.289210 1.000000 0.000000
0.433895 1.000000 0.000000
0.578580 1.000000 0.000000
0.723265 1.000000 0.000000
0.867950 1.000000 0.000000
1.000000 1.000000 0.000000
0.000000 0.000000 0.296390
0.141075 0.000000 0.291075
0.285760 0.000000 0.285760
0.430445 0.000000 0.280445
0.575130 0.000000 0.275130
0.719815 0.000000 0.269815
0.864500 0.000000 0.264500
1.000000 0.000000 0.259185
1.000000 0.000000 0.253870
0.000000 0.128510 0.278510
0.123195 0.123195 0.273195
0.267880 0.117880 0.267880
0.412565 0.112565 0.262565
0.557250 0.107250 0.257250
0.701935 0.101935 0.251935
0.846620 0.096620 0.246620
0.991305 0.091305 0.241305
1.000000 0.085990 0.235990
0.000000 0.260630 0.260630
0.105315 0.255315 0.255315
0.250000 0.250000 0.250000
0.394685 0.244685 0.244685
0.539370 0.239370 0.239370
0.684055 0.234055 0.234055
0.828740 0.228740 0.228740
0.973425 0.223425 0.223425
1.000000 0.218110 0.218110
0.000000 0.392750 0.242750
0.087435 0.387435 0.237435
0.232120 0.382120 0.232120
0.376805 0.376805 0.226805
0.521490 0.371490 0.221490
0.666175 0.366175 0.216175
0.810860 0.360860 0.210860
0.955545 0.355545 0.205545
1.000000 0.350230 0.200230
0.000000 0.524870 0.224870
0.069555 0.519555 0.219555
0.214240 0.514240 0.214240
0.358925 0.508925 0.208925
0.503610 0.503610 0.203610
0.648295 0.498295 0.198295
0.792980 0.492980 0.192980
0.937665 0.487665 0.187665
1.000000 0.482350 0.182350
0.000000 0.656990 0.206990
0.051675 0.651675 0.201675
0.196360 0.646360 0.196360
0.341045 0.641045 0.191045
0.485730 0.635730 0.185730
0.630415 0.630415 0.180415
0.775100 0.625100 0.175100
0.919785 0.619785 0.169785
1.000000 0.614470 0.164470
0.000000 0.789110 0.189110
0.033795 0.783795 0.183795
0.178480 0.778480 0.178480
0.323165 0.773165 0.173165
0.467850 0.767850 0.167850
0.612535 0.762535 0.162535
0.757220 0.757220 0.157220
0.901905 0.751905 0.151905
1.000000 0.746590 0.146590
0.000000 0.921230 0.171230
0.015915 0.915915 0.165915
0.160600 0.910600 0.160600
0.305285 0.905285 0.155285
0.449970 0.899970 0.149970
0.594655 0.894655 0.144655
0.739340 0.889340 0.139340
0.884025 0.884025 0.134025
1.000000 0.878710 0.128710
0.000000 1.000000 0.153350
0.000000 1.000000 0.148035
0.142720 1.000000 0.142720
0.287405 1.000000 0.137405
0.432090 1.000000 0.132090
0.576775 1.000000 0.126775
0.721460 1.000000 0.121460
0.866145 1.000000 0.116145
1.000000 1.000000 0.110830
0.000000 0.000000 0.444585
0.139270 0.000000 0.439270
0.283955 0.000000 0.433955
0.428640 0.000000 0.428640
0.573325 0.000000 0.423325
0.718010 0.000000 0.418010
0.862695 0.000000 0.412695
1.000000 0.000000 0.407380
1.000000 0.000000 0.402065
0.000000 0.126705 0.426705
0.121390 0.121390 0.421390
0.266075 0.116075 0.416075
0.410760 0.110760 0.410760
0.555445 0.105445 0.405445
0.700130 0.100130 0.400130
0.844815 0.094815 0.394815
0.989500 0.089500 0.389500
1.000000 0.084185 0.384185
0.000000 0.258825 0.408825
0.103510 0.253510 0.403510
0.248195 0.248195 0.398195
0.392880 0.242880 0.392880
0.537565 0.237565 0.387565
0.682250 0.232250 0.382250
0.826935 0.226935 0.376935
0.971620 0.221620 0.371620
1.000000 0.216305 0.366305
0.000000 0.390945 0.390945
0.085630 0.385630 0.385630
0.230315 0.380315 0.380315
0.375000 0.375000 0.375000
0.519685 0.369685 0.369685
0.664370 0.364370 0.364370
0.809055 0.359055 0.359055
0.953740 0.353740 0.353740
1.000000 0.348425 0.348425
0.000000 0.523065 0.373065
0.067750 0.517750 0.367750
0.212435 0.512435 0.362435
0.357120 0.507120 0.357120
0.501805 0.501805 0.351805
0.646490 0.496490 0.346490
0.791175 0.491175 0.341175
0.935860 0.485860 0.335860
1.000000 0.480545 0.330545
0.000000 0.655185 0.355185
0.049870 0.649870 0.349870
0.194555 0.644555 0.344555
0.339240 0.639240 0.339240
0.483925 0.633925 0.333925
0.628610 0.628610 0.328610
0.773295 0.623295 0.323295
0.917980 0.617980 0.317980
1.000000 0.612665 0.312665
0.000000 0.787305 0.337305
0.031990 0.781990 0.331990
0.176675 0.776675 0.326675
0.321360 0.771360 0.321360
0.466045 0.766045 0.316045
0.610730 0.760730 0.310730
0.755415 0.755415 0.305415
0.900100 0.750100 0.300100
1.000000 0.744785 0.294785
0.000000 0.919425 0.319425
0.014110 0.914110 0.314110
0.158795 0.908795 0.308795
0.303480 0.903480 0.303480
0.448165 0.898165 0.298165
0.592850 0.892850 0.292850
0.737535 0.887535 0.287535
0.882220 0.882220 0.282220
1.000000 0.876905 0.276905
0.000000 1.000000 0.301545
0.000000 1.000000 0.296230
0.140915 1.000000 0.290915
0.285600 1.000000 0.285600
0.430285 1.000000 0.280285
0.574970 1.000000 0.274970
0.719655 1.000000 0.269655
0.864340 1.000000 0.264340
1.000000 1.000000 0.259025
0.000000 0.000000 0.592780
0.137465 0.000000 0.587465
0.282150 0.000000 0.582150
0.426835 0.000000 0.576835
0.571520 0.000000 0.571520
0.716205 0.000000 0.566205
0.860890 0.000000 0.560890
1.000000 0.000000 0.555575
1.000000 0.000000 0.550260
0.000000 0.124900 0.574900
0.119585 0.119585 0.569585
0.264270 0.114270 0.564270
0.408955 0.108955 0.558955
0.553640 0.103640 0.553640
0.698325 0.098325 0.548325
0.843010 0.093010 0.543010
0.987695 0.087695 0.537695
1.000000 0.082380 0.532380
0.000000 0.257020 0.557020
0.101705 0.251705 0.551705
0.246390 0.246390 0.546390
0.391075 0.241075 0.541075
0.535760 0.235760 0.535760
0.680445 0.230445 0.530445
0.825130 0.225130 0.525130
0.969815 0.219815 0.519815
1.000000 0.214500 0.514500
0.000000 0.389140 0.539140
0.083825 0.383825 0.533825
0.228510 0.378510 0.528510
0.373195 0.373195 0.523195
0.517880 0.367880 0.517880
0.662565 0.362565 0.512565
0.807250 0.357250 0.507250
0.951935 0.351935 0.501935
1.000000 0.346620 0.496620
0.000000 0.521260 0.521260
0.065945 0.515945 0.515945
0.210630 0.510630 0.510630
0.355315 0.505315 0.505315
0.500000 0.500000 0.500000
0.644685 0.494685 0.494685
0.789370 0.489370 0.489370
0.934055 0.484055 0.484055
1.000000 0.478740 0.478740
0.000000 0.653380 0.503380
0.048065 0.648065 0.498065
0.192750 0.642750 0.492750
0.337435 0.637435 0.487435
0.482120 0.632120 0.482120
0.626805 0.626805 0.476805
0.771490 0.621490 0.471490
0.916175 0.616175 0.466175
1.000000 0.610860 0.460860
0.000000 0.785500 0.485500
0.030185 0.780185 0.480185
0.174870 0.774870 0.474870
0.319555 0.769555 0.469555
0.464240 0.764240 0.464240
0.608925 0.758925 0.458925
0.753610 0.753610 0.453610
0.898295 0.748295 0.448295
1.000000 0.742980 0.442980
0.000000 0.917620 0.467620
0.012305 0.912305 0.462305
0.156990 0.906990 0.456990
0.301675 0.901675 0.451675
0.446360 0.896360 0.446360
0.591045 0.891045 0.441045
0.735730 0.885730 0.435730
0.880415 0.880415 0.430415
1.000000 0.875100 0.425100
0.000000 1.000000 0.449740
0.000000 1.000000 0.444425
0.139110 1.000000 0.439110
0.283795 1.000000 0.433795
0.428480 1.000000 0.428480
0.573165 1.000000 0.423165
0.717850 1.000000 0.417850
0.862535 1.000000 0.412535
1.000000 1.000000 0.407220
0.000000 0.000000 0.740975
0.135660 0.000000 0.735660
0.280345 0.000000 0.730345
0.425030 0.000000 0.725030
0.569715 0.000000 0.719715
0.714400 0.000000 0.714400
0.859085 0.000000 0.709085
1.000000 0.000000 0.703770
1.000000 0.000000 0.698455
0.000000 0.123095 0.723095
0.117780 0.117780 0.717780
0.262465 0.112465 0.712465
0.407150 0.107150 0.707150
0.551835 0.101835 0.701835
0.696520 0.096520 0.696520
0.841205 0.091205 0.691205
0.985890 0.085890 0.685890
1.000000 0.080575 0.680575
0.000000 0.255215 0.705215
0.099900 0.249900 0.699900
0.244585 0.244585 0.694585
0.389270 0.239270 0.689270
0.533955 0.233955 0.683955
0.678640 0.228640 0.678640
0.823325 0.223325 0.673325
0.968010 0.218010 0.668010
1.000000 0.212695 0.662695
0.000000 0.387335 0.687335
0.082020 0.382020 0.682020
0.226705 0.376705 0.676705
0.371390 0.371390 0.671390
0.516075 0.366075 0.666075
0.660760 0.360760 0.660760
0.805445 0.355445 0.655445
0.950130 0.350130 0.650130
1.000000 0.344815 0.644815
0.000000 0.519455 0.669455
0.064140 0.514140 0.664140
0.208825 0.508825 0.658825
0.353510 0.503510 0.653510
0.498195 0.498195 0.648195
0.642880 0.492880 0.642880
0.787565 0.487565 0.637565
0.932250 0.482250 0.632250
1.000000 0.476935 0.626935
0.000000 0.651575 0.651575
0.046260 0.646260 0.646260
0.190945 0.640945 0.640945
0.335630 0.635630 0.635630
0.480315 0.630315 0.630315
0.625000 0.625000 0.625000
0.769685 0.619685 0.619685
0.914370 0.614370 0.614370
1.000000 0.609055 0.609055
0.000000 0.783695 0.633695
0.028380 0.778380 0.628380
0.173065 0.773065 0.623065
0.317750 0.767750 0.617750
0.462435 0.762435 0.612435
0.607120 0.757120 0.607120
0.751805 0.751805 0.601805
0.896490 0.746490 0.596490
1.000000 0.741175 0.591175
0.000000 0.915815 0.615815
0.010500 0.910500 0.610500
0.155185 0.905185 0.605185
0.299870 0.899870 0.599870
0.444555 0.894555 0.594555
0.589240 0.889240 0.589240
0.733925 0.883925 0.583925
0.878610 0.878610 0.578610
1.000000 0.873295 0.573295
0.000000 1.000000 0.597935
0.000000 1.000000 0.592620
0.137305 1.000000 0.587305
0.281990 1.000000 0.581990
0.426675 1.000000 0.576675
0.571360 1.000000 0.571360
0.716045 1.000000 0.566045
0.860730 1.000000 0.560730
1.000000 1.000000 0.555415
0.000000 0.000000 0.889170
0.133855 0.000000 0.883855
0.278540 0.000000 0.878540
0.423225 0.000000 0.873225
0.567910 0.000000 0.867910
0.712595 0.000000 0.862595
0.857280 0.000000 0.857280
1.000000 0.000000 0.851965
1.000000 0.000000 0.846650
0.000000 0.121290 0.871290
0.115975 0.115975 0.865975
0.260660 0.110660 0.860660
0.405345 0.105345 0.855345
0.550030 0.100030 0.850030
0.694715 0.094715 0.844715
0.839400 0.089400 0.839400
0.984085 0.084085 0.834085
1.000000 0.078770 0.828770
0.000000 0.253410 0.853410
0.098095 0.248095 0.848095
0.242780 0.242780 0.842780
0.387465 0.237465 0.837465
0.532150 0.232150 0.832150
0.676835 0.226835 0.826835
0.821520 0.221520 0.821520
0.966205 0.216205 0.816205
1.000000 0.210890 0.810890
0.000000 0.385530 0.835530
0.080215 0.380215 0.830215
0.224900 0.374900 0.824900
0.369585 0.369585 0.819585
0.514270 0.364270 0.814270
0.658955 0.358955 0.808955
0.803640 0.353640 0.803640
0.948325 0.348325 0.798325
1.000000 0.343010 0.793010
0.000000 0.517650 0.817650
0.062335 0.512335 0.812335
0.207020 0.507020 0.807020
0.351705 0.501705 0.801705
0.496390 0.496390 0.796390
0.641075 0.491075 0.791075
0.785760 0.485760 0.785760
0.930445 0.480445 0.780445
1.000000 0.475130 0.775130
0.000000 0.649770 0.799770
0.044455 0.644455 0.794455
0.189140 0.639140 0.789140
0.333825 0.633825 0.783825
0.478510 0.628510 0.778510
0.623195 0.623195 0.773195
0.767880 0.617880 0.767880
0.912565 0.612565 0.762565
1.000000 0.607250 0.757250
0.000000 0.781890 0.781890
0.026575 0.776575 0.776575
0.171260 0.771260 0.771260
0.315945 0.765945 0.765945
0.460630 0.760630 0.760630
0.605315 0.755315 0.755315
0.750000 0.750000 0.750000
0.894685 0.744685 0.744685
1.000000 0.739370 0.739370
0.000000 0.914010 0.764010
0.008695 0.908695 0.758695
0.153380 0.903380 0.753380
0.298065 0.898065 0.748065
0.442750 0.892750 0.742750
0.587435 0.887435 0.737435
0.732120 0.882120 0.732120
0.876805 0.876805 0.726805
1.000000 0.871490 0.721490
0.000000 1.000000 0.746130
0.000000 1.000000 0.740815
0.135500 1.000000 0.735500
0.280185 1.000000 0.730185
0.424870 1.000000 0.724870
0.569555 1.000000 0.719555
0.714240 1.000000 0.714240
0.858925 1.000000 0.708925
1.000000 1.000000 0.703610
0.000000 0.000000 1.000000
0.132050 0.000000 1.000000
0.276735 0.000000 1.000000
0.421420 0.000000 1.000000
0.566105 0.000000 1.000000
0.710790 0.000000 1.000000
0.855475 0.000000 1.000000
1.000000 0.000000 1.000000
1.000000 0.000000 0.994845
0.000000 0.119485 1.000000
0.114170 0.114170 1.000000
0.258855 0.108855 1.000000
0.403540 0.103540 1.000000
0.548225 0.098225 0.998225
0.692910 0.092910 0.992910
0.837595 0.087595 0.987595
0.982280 0.082280 0.982280
1.000000 0.076965 0.976965
0.000000 0.251605 1.000000
0.096290 0.246290 0.996290
0.240975 0.240975 0.990975
0.385660 0.235660 0.985660
0.530345 0.230345 0.980345
0.675030 0.225030 0.975030
0.819715 0.219715 0.969715
0.964400 0.214400 0.964400
1.000000 0.209085 0.959085
0.000000 0.383725 0.983725
0.078410 0.378410 0.978410
0.223095 0.373095 0.973095
0.367780 0.367780 0.967780
0.512465 0.362465 0.962465
0.657150 0.357150 0.957150
0.801835 0.351835 0.951835
0.946520 0.346520 0.946520
1.000000 0.341205 0.941205
0.000000 0.515845 0.965845
0.060530 0.510530 0.960530
0.205215 0.505215 0.955215
0.349900 0.499900 0.949900
0.494585 0.494585 0.944585
0.639270 0.489270 0.939270
0.783955 0.483955 0.933955
0.928640 0.478640 0.928640
1.000000 0.473325 0.923325
0.000000 0.647965 0.947965
0.042650 0.642650 0.942650
0.187335 0.637335 0.937335
0.332020 0.632020 0.932020
0.476705 0.626705 0.926705
0.621390 0.621390 0.921390
0.766075 0.616075 0.916075
0.910760 0.610760 0.910760
1.000000 0.605445 0.905445
0.000000 0.780085 0.930085
0.024770 0.774770 0.924770
0.169455 0.769455 0.919455
0.314140 0.764140 0.914140
0.458825 0.758825 0.908825
0.603510 0.753510 0.903510
0.748195 0.748195 0.898195
0.892880 0.742880 0.892880
1.000000 0.737565 0.887565
0.000000 0.912205 0.912205
0.006890 0.906890 0.906890
0.151575 0.901575 0.901575
0.296260 0.896260 0.896260
0.440945 0.890945 0.890945
0.585630 0.885630 0.885630
0.730315 0.880315 0.880315
0.875000 0.875000 0.875000
1.000000 0.869685 0.869685
0.000000 1.000000 0.894325
0.000000 1.000000 0.889010
0.133695 1.000000 0.883695
0.278380 1.000000 0.878380
0.423065 1.000000 0.873065
0.567750 1.000000 0.867750
0.712435 1.000000 0.862435
0.857120 1.000000 0.857120
1.000000 1.000000 0.851805
0.000000 0.000000 1.000000
0.130245 0.000000 1.000000
0.274930 0.000000 1.000000
0.419615 0.000000 1.000000
0.564300 0.000000 1.000000
0.708985 0.000000 1.000000
0.853670 0.000000 1.000000
0.998355 0.000000 1.000000
1.000000 0.000000 1.000000
0.000000 0.117680 1.000000
0.112365 0.112365 1.000000
0.257050 0.107050 1.000000
0.401735 0.101735 1.000000
0.546420 0.096420 1.000000
0.691105 0.091105 1.000000
0.835790 0.085790 1.000000
0.980475 0.080475 1.000000
1.000000 0.075160 1.000000
0.000000 0.249800 1.000000
0.094485 0.244485 1.000000
0.239170 0.239170 1.000000
0.383855 0.233855 1.000000
0.528540 0.228540 1.000000
0.673225 0.223225 1.000000
0.817910 0.217910 1.000000
0.962595 0.212595 1.000000
1.000000 0.207280 1.000000
0.000000 0.381920 1.000000
0.076605 0.376605 1.000000
0.221290 0.371290 1.000000
0.365975 0.365975 1.000000
0.510660 0.360660 1.000000
0.655345 0.355345 1.000000
0.800030 0.350030 1.000000
0.944715 0.344715 1.000000
1.000000 0.339400 1.000000
0.000000 0.514040 1.000000
0.058725 0.508725 1.000000
0.203410 0.503410 1.000000
0.348095 0.498095 1.000000
0.492780 0.492780 1.000000
0.637465 0.487465 1.000000
0.782150 0.482150 1.000000
0.926835 0.476835 1.000000
1.000000 0.471520 1.000000
0.000000 0.646160 1.000000
0.040845 0.640845 1.000000
0.185530 0.635530 1.000000
0.330215 0.630215 1.000000
0.474900 0.624900 1.000000
0.619585 0.619585 1.000000
0.764270 0.614270 1.000000
0.908955 0.608955 1.000000
1.000000 0.603640 1.000000
0.000000 0.778280 1.000000
0.022965 0.772965 1.000000
0.167650 0.767650 1.000000
0.312335 0.762335 1.000000
0.457020 0.757020 1.000000
0.601705 0.751705 1.000000
0.746390 0.746390 1.000000
0.891075 0.741075 1.000000
1.000000 0.735760 1.000000
0.000000 0.910400 1.000000
0.005085 0.905085 1.000000
0.149770 0.899770 1.000000
0.294455 0.894455 1.000000
0.439140 0.889140 1.000000
0.583825 0.883825 1.000000
0.728510 0.878510 1.000000
0.873195 0.873195 1.000000
1.000000 0.867880 1.000000
0.000000 1.000000 1.000000
0.000000 1.000000 1.000000
0.131890 1.000000 1.000000
0.276575 1.000000 1.000000
0.421260 1.000000 1.000000
0.565945 1.000000 1.000000
0.710630 1.000000 1.000000
0.855315 1.000000 1.000000
1.000000 1.000000 1.000000
