lut-visualizer/public/data/sample_luts/split_toning_blue_yellow.cube
LUT_3D_SIZE 5
DOMAIN_MIN 0.0 0.0 0.0
DOMAIN_MAX 1.0 1.0 1.0
0.000000 0.000000 0.070000
0.217701 0.000000 0.056522
0.474833 0.000000 0.044042
0.731346 0.000000 0.032645
0.987173 0.000000 0.022447
0.000000 0.241775 0.028786
0.239107 0.244554 0.019062
0.493842 0.246921 0.010777
0.747574 0.248787 0.004246
0.999874 0.249937 0.000221
0.000000 0.499310 0.002416
0.250000 0.500000 0.000000
0.500000 0.500000 0.000000
0.750000 0.500000 0.000000
1.000000 0.500000 0.000000
0.000000 0.750000 0.000000
0.250000 0.750000 0.000000
0.501395 0.750698 0.000000
0.754692 0.752346 0.000000
1.000000 0.754547 0.000000
0.006182 1.000000 0.000000
0.260922 1.000000 0.000000
0.516483 1.000000 0.000000
0.772758 1.000000 0.000000
1.000000 1.000000 0.000000
0.000000 0.000000 0.315316
0.220190 0.000000 0.302168
0.477117 0.000000 0.290045
0.733405 0.000000 0.279040
0.988981 0.000000 0.269283
0.000000 0.242761 0.275336
0.240814 0.245407 0.266075
0.495234 0.247617 0.258340
0.748556 0.249278 0.252528
1.000000 0.250000 0.250000
0.000000 0.499700 0.251051
0.250000 0.500000 0.250000
0.500000 0.500000 0.250000
0.750000 0.500000 0.250000
1.000000 0.500000 0.250000
0.000000 0.750000 0.250000
0.250105 0.750052 0.249817
0.502367 0.751184 0.245857
0.756078 0.753039 0.239364
1.000000 0.755398 0.231108
0.007691 1.000000 0.236541
0.262724 1.000000 0.227732
0.518538 1.000000 0.217558
0.775038 1.000000 0.206183
1.000000 1.000000 0.193722
0.000000 0.000000 0.560741
0.222610 0.000000 0.547932
0.479328 0.000000 0.536177
0.735383 0.000000 0.525579
0.990695 0.000000 0.516284
0.000000 0.243704 0.522035
0.242421 0.246211 0.513262
0.496502 0.248251 0.506121
0.749350 0.249675 0.501137
1.000000 0.250000 0.500000
0.000000 0.499960 0.500138
0.250000 0.500000 0.500000
0.500000 0.500000 0.500000
0.750000 0.500000 0.500000
1.000000 0.500040 0.499862
0.000000 0.750000 0.500000
0.250650 0.750325 0.498863
0.503498 0.751749 0.493879
0.757579 0.753789 0.486738
1.000000 0.756296 0.477965
0.009305 1.000000 0.483716
0.264617 1.000000 0.474421
0.520672 1.000000 0.463823
0.777390 1.000000 0.452068
1.000000 1.000000 0.439259
0.000000 0.000000 0.806278
0.224962 0.000000 0.793817
0.481462 0.000000 0.782442
0.737276 0.000000 0.772268
0.992309 0.000000 0.763459
0.000000 0.244602 0.768892
0.243922 0.246961 0.760636
0.497633 0.248816 0.754143
0.749895 0.249948 0.750183
1.000000 0.250000 0.750000
0.000000 0.500000 0.750000
0.250000 0.500000 0.750000
0.500000 0.500000 0.750000
0.750000 0.500000 0.750000
1.000000 0.500300 0.748949
0.000000 0.750000 0.750000
0.251444 0.750722 0.747472
0.504766 0.752383 0.741660
0.759186 0.754593 0.733925
1.000000 0.757239 0.724664
0.011019 1.000000 0.730717
0.266595 1.000000 0.720960
0.522883 1.000000 0.709955
0.779810 1.000000 0.697832
1.000000 1.000000 0.684684
0.000000 0.000000 1.000000
0.227242 0.000000 1.000000
0.483517 0.000000 1.000000
0.739078 0.000000 1.000000
0.993818 0.000000 1.000000
0.000000 0.245453 1.000000
0.245308 0.247654 1.000000
0.498605 0.249302 1.000000
0.750000 0.250000 1.000000
1.000000 0.250000 1.000000
0.000000 0.500000 1.000000
0.250000 0.500000 1.000000
0.500000 0.500000 1.000000
0.750000 0.500000 1.000000
1.000000 0.500690 0.997584
0.000126 0.750063 0.999779
0.252426 0.751213 0.995754
0.506158 0.753079 0.989223
0.760893 0.755446 0.980938
1.000000 0.758225 0.971214
0.012827 1.000000 0.977553
0.268654 1.000000 0.967355
0.525167 1.000000 0.955958
0.782299 1.000000 0.943478
1.000000 1.000000 0.930000
