lut-visualizer/public/data/sample_luts/split_toning_orange_teal.cube
LUT_3D_SIZE 17
DOMAIN_MIN 0.0 0.0 0.0
DOMAIN_MAX 1.0 1.0 1.0
0.050000 0.010000 0.000000
0.110029 0.009506 0.000000
0.170101 0.009020 0.000000
0.230215 0.008543 0.000000
0.290373 0.008075 0.000000
0.350576 0.007615 0.000000
0.410823 0.007165 0.000000
0.471117 0.006723 0.000000
0.531458 0.006292 0.000000
0.591848 0.005870 0.000000
0.652287 0.005457 0.000000
0.712776 0.005055 0.000000
0.773318 0.004664 0.000000
0.833913 0.004283 0.000000
0.894563 0.003913 0.000000
0.955269 0.003554 0.000000
1.000000 0.003207 0.000000
0.041857 0.070871 0.000000
0.102031 0.070406 0.000000
0.162250 0.069950 0.000000
0.222515 0.069503 0.000000
0.282826 0.069065 0.000000
0.343184 0.068637 0.000000
0.403592 0.068218 0.000000
0.464049 0.067810 0.000000
0.524557 0.067411 0.000000
0.585118 0.067024 0.000000
0.645733 0.066647 0.000000
0.706403 0.066281 0.000000
0.767130 0.065926 0.000000
0.827917 0.065583 0.000000
0.888765 0.065253 0.000000
0.949676 0.064935 0.000000
1.000000 0.064631 0.000000
0.034212 0.131842 0.000000
0.094541 0.131408 0.000000
0.154917 0.130983 0.000000
0.215342 0.130568 0.000000
0.275818 0.130164 0.000000
0.336345 0.129769 0.000000
0.396925 0.129385 0.000000
0.457560 0.129012 0.000000
0.518251 0.128650 0.000000
0.579000 0.128300 0.000000
0.639808 0.127962 0.000000
0.700679 0.127636 0.000000
0.761614 0.127323 0.000000
0.822617 0.127023 0.000000
0.883690 0.126738 0.000000
0.944838 0.126468 0.000000
1.000000 0.126213 0.000000
0.027099 0.192920 0.000000
0.087594 0.192519 0.000000
0.148140 0.192128 0.000000
0.208740 0.191748 0.000000
0.269395 0.191379 0.000000
0.330106 0.191021 0.000000
0.390877 0.190675 0.000000
0.451708 0.190342 0.000000
0.512602 0.190020 0.000000
0.573561 0.189712 0.000000
0.634589 0.189418 0.000000
0.695689 0.189138 0.000000
0.756864 0.188873 0.000000
0.818120 0.188624 0.000000
0.879462 0.188392 0.000000
0.940896 0.188179 0.000000
1.000000 0.187986 0.000000
0.020562 0.254112 0.000000
0.081237 0.253747 0.000000
0.141970 0.253394 0.000000
0.202762 0.253052 0.000000
0.263616 0.252723 0.000000
0.324533 0.252407 0.000000
0.385517 0.252103 0.000000
0.446571 0.251814 0.000000
0.507698 0.251540 0.000000
0.568902 0.251280 0.000000
0.630188 0.251038 0.000000
0.691563 0.250813 0.000000
0.753033 0.250607 0.000000
0.814609 0.250422 0.000000
0.876304 0.250261 0.000000
0.938140 0.250128 0.000000
1.000000 0.250032 0.000000
0.014655 0.315431 0.000000
0.075532 0.315106 0.000000
0.136473 0.314795 0.000000
0.197482 0.314496 0.000000
0.258562 0.314212 0.000000
0.319717 0.313943 0.000000
0.380950 0.313690 0.000000
0.442268 0.313454 0.000000
0.503676 0.313235 0.000000
0.565183 0.313037 0.000000
0.626801 0.312860 0.000000
0.688544 0.312709 0.000000
0.750440 0.312588 0.000000
0.812546 0.312509 0.000000
0.875000 0.312500 0.000000
0.937500 0.312500 0.000000
1.000000 0.312500 0.000000
0.009457 0.376891 0.000000
0.070564 0.376613 0.000000
0.131746 0.376349 0.000000
0.193010 0.376102 0.000000
0.254359 0.375872 0.000000
0.315803 0.375661 0.000000
0.377349 0.375470 0.000000
0.439010 0.375302 0.000000
0.500805 0.375161 0.000000
0.562767 0.375053 0.000000
0.625000 0.375000 0.000000
0.687500 0.375000 0.000000
0.750000 0.375000 0.000000
0.812500 0.375000 0.000000
0.875000 0.375000 0.000000
0.937500 0.375000 0.000000
1.000000 0.375000 0.000000
0.005081 0.438516 0.000000
0.066463 0.438293 0.000000
0.127943 0.438089 0.000000
0.189529 0.437906 0.000000
0.251236 0.437747 0.000000
0.313087 0.437617 0.000000
0.375125 0.437525 0.000000
0.437500 0.437500 0.000000
0.500000 0.437500 0.000000
0.562500 0.437500 0.000000
0.625000 0.437500 0.000000
0.687500 0.437500 0.000000
0.750000 0.437500 0.000000
0.812500 0.437500 0.000000
0.875000 0.437500 0.000000
0.937500 0.437500 0.000000
1.000000 0.437500 0.000000
0.001726 0.500345 0.000000
0.063482 0.500196 0.000000
0.125393 0.500079 0.000000
0.187525 0.500005 0.000000
0.250000 0.500000 0.000000
0.312500 0.500000 0.000000
0.375000 0.500000 0.000000
0.437500 0.500000 0.000000
0.500000 0.500000 0.000000
0.562500 0.500000 0.000000
0.625000 0.500000 0.000000
0.687500 0.500000 0.000000
0.750000 0.500000 0.000000
0.812500 0.500000 0.000000
0.875000 0.500000 0.000000
0.937500 0.500000 0.000000
1.000000 0.500000 0.000000
0.000000 0.562500 0.000000
0.062500 0.562500 0.000000
0.125000 0.562500 0.000000
0.187500 0.562500 0.000000
0.250000 0.562500 0.000000
0.312500 0.562500 0.000000
0.375000 0.562500 0.000000
0.437500 0.562500 0.000000
0.500000 0.562500 0.000000
0.562500 0.562500 0.000000
0.625000 0.562500 0.000000
0.687500 0.562500 0.000000
0.750000 0.562500 0.000000
0.812500 0.562500 0.000000
0.875000 0.562500 0.000000
0.937492 0.562505 0.000010
0.999784 0.562644 0.000288
0.000000 0.625000 0.000000
0.062500 0.625000 0.000000
0.125000 0.625000 0.000000
0.187500 0.625000 0.000000
0.250000 0.625000 0.000000
0.312500 0.625000 0.000000
0.375000 0.625000 0.000000
0.437500 0.625000 0.000000
0.500000 0.625000 0.000000
0.562500 0.625000 0.000000
0.625000 0.625000 0.000000
0.687500 0.625000 0.000000
0.749939 0.625041 0.000082
0.812171 0.625219 0.000438
0.874288 0.625474 0.000949
0.936318 0.625788 0.001576
0.998275 0.626150 0.002301
0.000000 0.687500 0.000000
0.062500 0.687500 0.000000
0.125000 0.687500 0.000000
0.187500 0.687500 0.000000
0.250000 0.687500 0.000000
0.312500 0.687500 0.000000
0.375000 0.687500 0.000000
0.437500 0.687500 0.000000
0.500000 0.687500 0.000000
0.562358 0.687595 0.000190
0.624543 0.687805 0.000609
0.686626 0.688082 0.001165
0.748628 0.688415 0.001829
0.810560 0.688793 0.002586
0.872430 0.689213 0.003426
0.934244 0.689671 0.004341
0.996006 0.690163 0.005326
0.000000 0.750000 0.000000
0.062500 0.750000 0.000000
0.125000 0.750000 0.000000
0.187500 0.750000 0.000000
0.250000 0.750000 0.000000
0.312482 0.750012 0.000024
0.374757 0.750162 0.000324
0.436902 0.750399 0.000798
0.498954 0.750698 0.001395
0.560929 0.751047 0.002095
0.622838 0.751441 0.002883
0.684687 0.751875 0.003751
0.746481 0.752346 0.004692
0.808224 0.752850 0.005701
0.869920 0.753386 0.006773
0.931571 0.753952 0.007905
0.993180 0.754547 0.009094
0.000000 0.812500 0.000000
0.062500 0.812500 0.000000
0.124920 0.812553 0.000106
0.187140 0.812740 0.000480
0.249248 0.813001 0.001002
0.311271 0.813319 0.001639
0.373221 0.813686 0.002372
0.435107 0.814095 0.003190
0.496936 0.814543 0.004085
0.558711 0.815026 0.005052
0.620437 0.815542 0.006084
0.682116 0.816089 0.007178
0.743751 0.816666 0.008331
0.805345 0.817270 0.009540
0.866898 0.817901 0.010803
0.928413 0.818558 0.012116
0.989891 0.819240 0.013479
0.000000 0.875328 0.000655
0.061584 0.875611 0.001222
0.123579 0.875948 0.001895
0.185505 0.876330 0.002660
0.247369 0.876754 0.003508
0.309178 0.877215 0.004429
0.370935 0.877710 0.005420
0.432643 0.878238 0.006475
0.494306 0.878796 0.007591
0.555926 0.879383 0.008765
0.617505 0.879997 0.009994
0.679044 0.880638 0.011275
0.740545 0.881303 0.012607
0.802010 0.881994 0.013987
0.863439 0.882707 0.015415
0.924834 0.883444 0.016888
0.986196 0.884202 0.018405
0.000000 0.938980 0.002960
0.059624 0.939417 0.003835
0.121413 0.939891 0.004782
0.183152 0.940398 0.005797
0.244844 0.940937 0.006875
0.306491 0.941506 0.008012
0.368095 0.942103 0.009206
0.429659 0.942727 0.010454
0.491184 0.943377 0.011754
0.552672 0.944052 0.013104
0.614124 0.944751 0.014502
0.675541 0.945473 0.015946
0.736924 0.946217 0.017435
0.798274 0.946984 0.018968
0.859593 0.947772 0.020543
0.920880 0.948580 0.022160
0.982138 0.949408 0.023817
0.000000 1.000000 0.006182
0.057038 1.000000 0.007282
0.118670 1.000000 0.008441
0.180259 1.000000 0.009655
0.241809 1.000000 0.010922
0.303320 1.000000 0.012240
0.364795 1.000000 0.013607
0.426233 1.000000 0.015022
0.487638 1.000000 0.016483
0.549009 1.000000 0.017988
0.610348 1.000000 0.019536
0.671655 1.000000 0.021127
0.732931 1.000000 0.022758
0.794178 1.000000 0.024430
0.855395 1.000000 0.026140
0.916584 1.000000 0.027889
0.977744 1.000000 0.029675
0.049156 0.009831 0.003512
0.109200 0.009340 0.006460
0.169286 0.008857 0.009357
0.229415 0.008383 0.012202
0.289588 0.007918 0.014995
0.349805 0.007461 0.017733
0.410069 0.007014 0.020417
0.470379 0.006576 0.023046
0.530736 0.006147 0.025617
0.591142 0.005728 0.028129
0.651598 0.005320 0.030582
0.712105 0.004921 0.032974
0.772665 0.004533 0.035302
0.833278 0.004156 0.037566
0.893947 0.003789 0.039764
0.954673 0.003435 0.041892
1.000000 0.003092 0.043950
0.041063 0.070713 0.013225
0.101252 0.070250 0.015998
0.161486 0.069797 0.018717
0.221766 0.069353 0.021381
0.282093 0.068919 0.023988
0.342468 0.068494 0.026538
0.402892 0.068078 0.029029
0.463367 0.067673 0.031460
0.523893 0.067279 0.033829
0.584472 0.066894 0.036134
0.645105 0.066521 0.038374
0.705794 0.066159 0.040547
0.766542 0.065808 0.042650
0.827349 0.065470 0.044681
0.888218 0.065144 0.046638
0.949152 0.064830 0.048518
1.000000 0.064531 0.050317
0.033469 0.131694 0.022337
0.093814 0.131263 0.024923
0.154207 0.130841 0.027452
0.214649 0.130430 0.029921
0.275142 0.130028 0.032330
0.335687 0.129637 0.034675
0.396286 0.129257 0.036957
0.456939 0.128888 0.039173
0.517650 0.128530 0.041321
0.578418 0.128184 0.043398
0.639248 0.127850 0.045403
0.700140 0.127528 0.047332
0.761098 0.127220 0.049182
0.822124 0.126925 0.050951
0.883222 0.126644 0.052633
0.944396 0.126379 0.054225
1.000000 0.126130 0.055721
0.026412 0.192782 0.030805
0.086924 0.192385 0.033191
0.147489 0.191998 0.035514
0.208107 0.191621 0.037772
0.268781 0.191256 0.039963
0.329512 0.190902 0.042085
0.390303 0.190561 0.044136
0.451155 0.190231 0.046114
0.512071 0.189914 0.048015
0.573053 0.189611 0.049836
0.634105 0.189321 0.051574
0.695230 0.189046 0.053224
0.756433 0.188787 0.054781
0.817717 0.188543 0.056240
0.879089 0.188318 0.057593
0.940557 0.188111 0.058832
1.000000 0.187926 0.059944
0.019936 0.253987 0.038577
0.080630 0.253626 0.040744
0.141383 0.253277 0.042840
0.202196 0.252939 0.044865
0.263071 0.252614 0.046815
0.324011 0.252302 0.048687
0.385018 0.252004 0.050478
0.446096 0.251719 0.052185
0.507249 0.251450 0.053802
0.568480 0.251196 0.055324
0.629796 0.250959 0.056745
0.691202 0.250740 0.058058
0.752706 0.250541 0.059252
0.814321 0.250364 0.060315
0.876061 0.250212 0.061227
0.937953 0.250091 0.061957
1.000000 0.250010 0.062438
0.014097 0.315319 0.045584
0.074995 0.314999 0.047506
0.135959 0.314692 0.049349
0.196992 0.314398 0.051110
0.258097 0.314119 0.052784
0.319277 0.313855 0.054367
0.380539 0.313608 0.055853
0.441886 0.313377 0.057236
0.503327 0.313165 0.058507
0.564871 0.312974 0.059655
0.626529 0.312806 0.060665
0.688320 0.312664 0.061516
0.750277 0.312555 0.062167
0.812500 0.312500 0.062500
0.875000 0.312500 0.062500
0.937500 0.312500 0.062500
1.000000 0.312500 0.062500
0.008976 0.376795 0.051729
0.070107 0.376521 0.053371
0.131317 0.376263 0.054920
0.192609 0.376022 0.056369
0.253990 0.375798 0.057712
0.315467 0.375593 0.058940
0.377050 0.375410 0.060040
0.438754 0.375251 0.060995
0.500601 0.375120 0.061779
0.562634 0.375027 0.062340
0.625000 0.375000 0.062500
0.687500 0.375000 0.062500
0.750000 0.375000 0.062500
0.812500 0.375000 0.062500
0.875000 0.375000 0.062500
0.937500 0.375000 0.062500
1.000000 0.375000 0.062500
0.004691 0.438438 0.056871
0.066106 0.438221 0.058173
0.127620 0.438024 0.059356
0.189245 0.437849 0.060405
0.250998 0.437700 0.061302
0.312906 0.437581 0.062013
0.375030 0.437506 0.062464
0.437500 0.437500 0.062500
0.500000 0.437500 0.062500
0.562500 0.437500 0.062500
0.625000 0.437500 0.062500
0.687500 0.437500 0.062500
0.750000 0.437500 0.062500
0.812500 0.437500 0.062500
0.875000 0.437500 0.062500
0.937500 0.437500 0.062500
1.000000 0.437500 0.062500
0.001458 0.500292 0.060751
0.063263 0.500153 0.061585
0.125238 0.500048 0.062215
0.187500 0.500000 0.062500
0.250000 0.500000 0.062500
0.312500 0.500000 0.062500
0.375000 0.500000 0.062500
0.437500 0.500000 0.062500
0.500000 0.500000 0.062500
0.562500 0.500000 0.062500
0.625000 0.500000 0.062500
0.687500 0.500000 0.062500
0.750000 0.500000 0.062500
0.812500 0.500000 0.062500
0.875000 0.500000 0.062500
0.937500 0.500000 0.062500
1.000000 0.500000 0.062500
0.000000 0.562500 0.062500
0.062500 0.562500 0.062500
0.125000 0.562500 0.062500
0.187500 0.562500 0.062500
0.250000 0.562500 0.062500
0.312500 0.562500 0.062500
0.375000 0.562500 0.062500
0.437500 0.562500 0.062500
0.500000 0.562500 0.062500
0.562500 0.562500 0.062500
0.625000 0.562500 0.062500
0.687500 0.562500 0.062500
0.750000 0.562500 0.062500
0.812500 0.562500 0.062500
0.875000 0.562500 0.062500
0.937443 0.562538 0.062576
0.999679 0.562714 0.062928
0.000000 0.625000 0.062500
0.062500 0.625000 0.062500
0.125000 0.625000 0.062500
0.187500 0.625000 0.062500
0.250000 0.625000 0.062500
0.312500 0.625000 0.062500
0.375000 0.625000 0.062500
0.437500 0.625000 0.062500
0.500000 0.625000 0.062500
0.562500 0.625000 0.062500
0.625000 0.625000 0.062500
0.687500 0.625000 0.062500
0.749864 0.625091 0.062681
0.812052 0.625299 0.063097
0.874138 0.625575 0.063650
0.936141 0.625906 0.064312
0.998075 0.626283 0.065067
0.000000 0.687500 0.062500
0.062500 0.687500 0.062500
0.125000 0.687500 0.062500
0.187500 0.687500 0.062500
0.250000 0.687500 0.062500
0.312500 0.687500 0.062500
0.375000 0.687500 0.062500
0.437500 0.687500 0.062500
0.499985 0.687510 0.062520
0.562264 0.687657 0.062814
0.624412 0.687892 0.063284
0.686466 0.688190 0.063879
0.748443 0.688538 0.064576
0.810353 0.688931 0.065363
0.872203 0.689364 0.066229
0.933999 0.689834 0.067168
0.995744 0.690338 0.068175
0.000000 0.750000 0.062500
0.062500 0.750000 0.062500
0.125000 0.750000 0.062500
0.187500 0.750000 0.062500
0.250000 0.750000 0.062500
0.312425 0.750050 0.062600
0.374648 0.750234 0.062969
0.436759 0.750494 0.063488
0.498783 0.750811 0.064122
0.560735 0.751176 0.064853
0.622623 0.751585 0.065669
0.684453 0.752031 0.066563
0.746230 0.752514 0.067527
0.807957 0.753029 0.068558
0.869637 0.753575 0.069651
0.931273 0.754151 0.070802
0.992867 0.754755 0.072010
0.000000 0.812500 0.062500
0.062500 0.812500 0.062500
0.124840 0.812606 0.062713
0.187018 0.812821 0.063143
0.249095 0.813103 0.063707
0.311092 0.813439 0.064378
0.373019 0.813820 0.065141
0.434886 0.814243 0.065986
0.496696 0.814703 0.066906
0.558454 0.815198 0.067895
0.620163 0.815724 0.068949
0.681827 0.816282 0.070063
0.743448 0.816868 0.071236
0.805028 0.817482 0.072463
0.866568 0.818122 0.073743
0.928070 0.818787 0.075074
0.989535 0.819476 0.076453
0.000000 0.875417 0.063334
0.061420 0.875720 0.063939
0.123391 0.876073 0.064645
0.185296 0.876470 0.065439
0.247141 0.876906 0.066312
0.308931 0.877379 0.067258
0.370671 0.877886 0.068271
0.432364 0.878424 0.069348
0.494012 0.878992 0.070484
0.555618 0.879588 0.071676
0.617183 0.880212 0.072923
0.678709 0.880861 0.074222
0.740197 0.881535 0.075570
0.801650 0.882233 0.076967
0.863068 0.882955 0.078410
0.924452 0.883699 0.079898
0.985803 0.884465 0.081430
0.000000 0.939124 0.065748
0.059388 0.939574 0.066649
0.121160 0.940060 0.067620
0.182883 0.940578 0.068656
0.244559 0.941127 0.069755
0.306191 0.941706 0.070912
0.367782 0.942312 0.072124
0.429332 0.942945 0.073390
0.490845 0.943604 0.074707
0.552320 0.944287 0.076073
0.613760 0.944993 0.077487
0.675165 0.945723 0.078947
0.736537 0.946475 0.080451
0.797876 0.947249 0.081998
0.859184 0.948044 0.083587
0.920462 0.948859 0.085218
0.981709 0.949694 0.086888
0.000000 1.000000 0.069049
0.056748 1.000000 0.070169
0.118365 1.000000 0.071347
0.179941 1.000000 0.072579
0.241477 1.000000 0.073864
0.302976 1.000000 0.075199
0.364438 1.000000 0.076583
0.425865 1.000000 0.078013
0.487258 1.000000 0.079489
0.548618 1.000000 0.081009
0.609946 1.000000 0.082572
0.671243 1.000000 0.084176
0.732509 1.000000 0.085821
0.793745 1.000000 0.087506
0.854953 1.000000 0.089230
0.916132 1.000000 0.090991
0.977283 1.000000 0.092789
0.048317 0.009663 0.067019
0.108375 0.009175 0.069950
0.168476 0.008695 0.072829
0.228620 0.008224 0.075656
0.288808 0.007762 0.078431
0.349041 0.007308 0.081151
0.409320 0.006864 0.083816
0.469646 0.006429 0.086425
0.530020 0.006004 0.088977
0.590442 0.005588 0.091469
0.650916 0.005183 0.093901
0.711440 0.004788 0.096272
0.772018 0.004404 0.098578
0.832650 0.004030 0.100820
0.893338 0.003668 0.102994
0.954084 0.003317 0.105099
1.000000 0.002978 0.107133
0.040273 0.070555 0.076673
0.100477 0.070095 0.079427
0.160727 0.069645 0.082128
0.221023 0.069205 0.084773
0.281366 0.068773 0.087361
0.341758 0.068352 0.089891
0.402199 0.067940 0.092362
0.462690 0.067538 0.094771
0.523234 0.067147 0.097119
0.583831 0.066766 0.099402
0.644484 0.066397 0.101620
0.705193 0.066039 0.103769
0.765960 0.065692 0.105848
0.826788 0.065358 0.107854
0.887679 0.065036 0.109785
0.948635 0.064727 0.111638
1.000000 0.064432 0.113409
0.032732 0.131546 0.085722
0.093093 0.131119 0.088289
0.153502 0.130700 0.090797
0.213962 0.130292 0.093246
0.274472 0.129894 0.095633
0.335035 0.129507 0.097958
0.395652 0.129130 0.100217
0.456325 0.128765 0.102410
0.517055 0.128411 0.104534
0.577844 0.128069 0.106587
0.638695 0.127739 0.108566
0.699609 0.127422 0.110469
0.760590 0.127118 0.112292
0.821640 0.126828 0.114032
0.882763 0.126553 0.115684
0.943963 0.126293 0.117244
1.000000 0.126049 0.118705
0.025731 0.192646 0.094122
0.086261 0.192252 0.096487
0.146843 0.191869 0.098788
0.207481 0.191496 0.101023
0.268174 0.191135 0.103191
0.328925 0.190785 0.105290
0.389736 0.190447 0.107316
0.450610 0.190122 0.109268
0.511548 0.189810 0.111142
0.572554 0.189511 0.112936
0.633630 0.189226 0.114644
0.694781 0.188956 0.116263
0.756010 0.188702 0.117788
0.817324 0.188465 0.119212
0.878727 0.188245 0.120527
0.940230 0.188046 0.121725
1.000000 0.187868 0.122790
0.019316 0.253863 0.101821
0.080030 0.253506 0.103964
0.140803 0.253161 0.106036
0.201637 0.252827 0.108036
0.262534 0.252507 0.109960
0.323496 0.252199 0.111805
0.384527 0.251905 0.113568
0.445630 0.251626 0.115244
0.506809 0.251362 0.116829
0.568068 0.251114 0.118318
0.629414 0.250883 0.119704
0.690852 0.250670 0.120977
0.752393 0.250479 0.122129
0.814048 0.250310 0.123143
0.875836 0.250167 0.123997
0.937788 0.250058 0.124654
1.000000 0.250000 0.125000
0.013546 0.315209 0.108745
0.074466 0.314893 0.110641
0.135453 0.314591 0.112456
0.196510 0.314302 0.114188
0.257640 0.314028 0.115832
0.318848 0.313770 0.117383
0.380137 0.313527 0.118835
0.441516 0.313303 0.120181
0.502990 0.313098 0.121411
0.564571 0.312914 0.122515
0.626272 0.312754 0.123474
0.688115 0.312623 0.124262
0.750142 0.312528 0.124829
0.812500 0.312500 0.125000
0.875000 0.312500 0.125000
0.937500 0.312500 0.125000
1.000000 0.312500 0.125000
0.008502 0.376700 0.114797
0.069660 0.376432 0.116408
0.130897 0.376179 0.117923
0.192219 0.375944 0.119338
0.253631 0.375726 0.120643
0.315143 0.375529 0.121829
0.376765 0.375353 0.122882
0.438515 0.375203 0.123782
0.500418 0.375084 0.124498
0.562536 0.375007 0.124957
0.625000 0.375000 0.125000
0.687500 0.375000 0.125000
0.750000 0.375000 0.125000
0.812500 0.375000 0.125000
0.875000 0.375000 0.125000
0.937500 0.375000 0.125000
1.000000 0.375000 0.125000
0.004312 0.438362 0.119826
0.065759 0.438152 0.121089
0.127310 0.437962 0.122228
0.188976 0.437795 0.123228
0.250778 0.437656 0.124067
0.312748 0.437550 0.124702
0.375000 0.437500 0.125000
0.437500 0.437500 0.125000
0.500000 0.437500 0.125000
0.562500 0.437500 0.125000
0.625000 0.437500 0.125000
0.687500 0.437500 0.125000
0.750000 0.437500 0.125000
0.812500 0.437500 0.125000
0.875000 0.437500 0.125000
0.937500 0.437500 0.125000
1.000000 0.437500 0.125000
0.001205 0.500241 0.123554
0.063063 0.500113 0.124325
0.125111 0.500022 0.124867
0.187500 0.500000 0.125000
0.250000 0.500000 0.125000
0.312500 0.500000 0.125000
0.375000 0.500000 0.125000
0.437500 0.500000 0.125000
0.500000 0.500000 0.125000
0.562500 0.500000 0.125000
0.625000 0.500000 0.125000
0.687500 0.500000 0.125000
0.750000 0.500000 0.125000
0.812500 0.500000 0.125000
0.875000 0.500000 0.125000
0.937500 0.500000 0.125000
1.000000 0.500000 0.125000
0.000000 0.562500 0.125000
0.062500 0.562500 0.125000
0.125000 0.562500 0.125000
0.187500 0.562500 0.125000
0.250000 0.562500 0.125000
0.312500 0.562500 0.125000
0.375000 0.562500 0.125000
0.437500 0.562500 0.125000
0.500000 0.562500 0.125000
0.562500 0.562500 0.125000
0.625000 0.562500 0.125000
0.687500 0.562500 0.125000
0.750000 0.562500 0.125000
0.812500 0.562500 0.125000
0.875000 0.562500 0.125000
0.937370 0.562587 0.125173
0.999561 0.562793 0.125585
0.000000 0.625000 0.125000
0.062500 0.625000 0.125000
0.125000 0.625000 0.125000
0.187500 0.625000 0.125000
0.250000 0.625000 0.125000
0.312500 0.625000 0.125000
0.375000 0.625000 0.125000
0.437500 0.625000 0.125000
0.500000 0.625000 0.125000
0.562500 0.625000 0.125000
0.625000 0.625000 0.125000
0.687488 0.625008 0.125016
0.749772 0.625152 0.125304
0.811922 0.625386 0.125771
0.873977 0.625682 0.126363
0.935956 0.626029 0.127058
0.997868 0.626421 0.127842
0.000000 0.687500 0.125000
0.062500 0.687500 0.125000
0.125000 0.687500 0.125000
0.187500 0.687500 0.125000
0.250000 0.687500 0.125000
0.312500 0.687500 0.125000
0.375000 0.687500 0.125000
0.437500 0.687500 0.125000
0.499930 0.687547 0.125093
0.562157 0.687729 0.125458
0.624270 0.687987 0.125974
0.686296 0.688303 0.126605
0.748250 0.688667 0.127334
0.810139 0.689074 0.128148
0.871970 0.689520 0.129040
0.933748 0.690001 0.130003
0.995476 0.690516 0.131032
0.000000 0.750000 0.125000
0.062500 0.750000 0.125000
0.125000 0.750000 0.125000
0.187500 0.750000 0.125000
0.250000 0.750000 0.125000
0.312347 0.750102 0.125204
0.374527 0.750315 0.125631
0.436606 0.750596 0.126192
0.498605 0.750930 0.126860
0.560534 0.751310 0.127621
0.622402 0.751732 0.128464
0.684213 0.752191 0.129383
0.745972 0.752685 0.130370
0.807683 0.753211 0.131422
0.869348 0.753768 0.132535
0.930970 0.754353 0.133706
0.992551 0.754966 0.134933
0.000000 0.812500 0.125000
0.062476 0.812516 0.125032
0.124744 0.812671 0.125341
0.186884 0.812911 0.125821
0.248932 0.813212 0.126423
0.310905 0.813563 0.127127
0.372811 0.813959 0.127919
0.434657 0.814395 0.128790
0.496449 0.814867 0.129734
0.558191 0.815373 0.130746
0.619884 0.815910 0.131821
0.681534 0.816478 0.132955
0.743140 0.817073 0.134147
0.804706 0.817696 0.135392
0.866233 0.818345 0.136689
0.927722 0.819018 0.138037
0.989176 0.819716 0.139432
0.000000 0.875514 0.126028
0.061249 0.875834 0.126669
0.123196 0.876203 0.127406
0.185080 0.876614 0.128227
0.246906 0.877063 0.129126
0.308679 0.877547 0.130095
0.370402 0.878065 0.131130
0.432080 0.878613 0.132227
0.493713 0.879191 0.133383
0.555305 0.879797 0.134594
0.616856 0.880429 0.135858
0.678369 0.881087 0.137174
0.739846 0.881770 0.138539
0.801286 0.882476 0.139952
0.862692 0.883205 0.141410
0.924065 0.883957 0.142913
0.985405 0.884730 0.144460
0.000000 0.939273 0.128546
0.059147 0.939735 0.129471
0.120902 0.940232 0.130464
0.182608 0.940761 0.131522
0.244269 0.941321 0.132641
0.305887 0.941909 0.133817
0.367464 0.942524 0.135048
0.429001 0.943166 0.136332
0.490501 0.943833 0.137666
0.551964 0.944524 0.139048
0.613392 0.945239 0.140478
0.674786 0.945976 0.141952
0.736146 0.946736 0.143471
0.797475 0.947517 0.145033
0.858773 0.948318 0.146637
0.920039 0.949140 0.148281
0.981277 0.949982 0.149965
0.000000 1.000000 0.131923
0.056453 1.000000 0.133063
0.118056 1.000000 0.134259
0.179618 1.000000 0.135510
0.241141 1.000000 0.136812
0.302627 1.000000 0.138163
0.364078 1.000000 0.139563
0.425493 1.000000 0.141009
0.486875 1.000000 0.142500
0.548224 1.000000 0.144035
0.609541 1.000000 0.145612
0.670827 1.000000 0.147231
0.732083 1.000000 0.148889
0.793310 1.000000 0.150587
0.854507 1.000000 0.152324
0.915677 1.000000 0.154098
0.976819 1.000000 0.155908
0.047483 0.009497 0.130520
0.107556 0.009011 0.133433
0.167671 0.008534 0.136295
0.227830 0.008066 0.139105
0.288033 0.007607 0.141861
0.348281 0.007156 0.144562
0.408576 0.006715 0.147209
0.468918 0.006284 0.149798
0.529309 0.005862 0.152330
0.589748 0.005450 0.154802
0.650239 0.005048 0.157213
0.710781 0.004656 0.159562
0.771377 0.004275 0.161847
0.832028 0.003906 0.164066
0.892736 0.003547 0.166217
0.953502 0.003200 0.168298
1.000000 0.002866 0.170306
0.039488 0.070398 0.140114
0.099708 0.069942 0.142851
