lut-visualizer/public/data/sample_luts/split_toning_blue_yellow.cube
LUT_3D_SIZE 17
DOMAIN_MIN 0.0 0.0 0.0
DOMAIN_MAX 1.0 1.0 1.0
0.000000 0.000000 0.070000
0.024476 0.000000 0.066541
0.088919 0.000000 0.063141
0.153328 0.000000 0.059801
0.217701 0.000000 0.056522
0.282040 0.000000 0.053306
0.346341 0.000000 0.050153
0.410606 0.000000 0.047064
0.474833 0.000000 0.044042
0.539022 0.000000 0.041087
0.603171 0.000000 0.038201
0.667279 0.000000 0.035387
0.731346 0.000000 0.032645
0.795370 0.000000 0.029978
0.859350 0.000000 0.027388
0.923285 0.000000 0.024876
0.987173 0.000000 0.022447
0.000000 0.045757 0.058600
0.030875 0.046687 0.055344
0.095200 0.047600 0.052150
0.159488 0.048494 0.049021
0.223739 0.049370 0.045956
0.287953 0.050226 0.042958
0.352127 0.051063 0.040028
0.416261 0.051880 0.037168
0.480354 0.052677 0.034380
0.544406 0.053453 0.031665
0.608414 0.054207 0.029026
0.672378 0.054939 0.026464
0.736296 0.055648 0.023982
0.800166 0.056333 0.021584
0.863988 0.056994 0.019271
0.927759 0.057629 0.017047
0.991477 0.058238 0.014916
0.000000 0.111315 0.047897
0.036868 0.112184 0.044857
0.101067 0.113033 0.041883
0.165226 0.113863 0.038979
0.229346 0.114673 0.036145
0.293424 0.115462 0.033383
0.357460 0.116230 0.030695
0.421452 0.116976 0.028084
0.485399 0.117700 0.025551
0.549300 0.118400 0.023099
0.613153 0.119077 0.020732
0.676957 0.119728 0.018451
0.740709 0.120354 0.016260
0.804406 0.120953 0.014164
0.868048 0.121524 0.012166
0.931630 0.122065 0.010273
0.995149 0.122575 0.008489
0.000000 0.176660 0.037939
0.042425 0.177463 0.035131
0.106488 0.178244 0.032396
0.170508 0.179004 0.029736
0.234484 0.179742 0.027153
0.298415 0.180457 0.024649
0.362299 0.181149 0.022227
0.426134 0.181817 0.019891
0.489919 0.182459 0.017642
0.553651 0.183076 0.015486
0.617329 0.183664 0.013425
0.680949 0.184224 0.011464
0.744509 0.184754 0.009610
0.808004 0.185252 0.007868
0.871431 0.185715 0.006246
0.934783 0.186142 0.004754
0.998054 0.186527 0.003405
0.000000 0.241775 0.028786
0.047510 0.242505 0.026232
0.111424 0.243212 0.023758
0.175290 0.243895 0.021367
0.239107 0.244554 0.019062
0.302873 0.245187 0.016846
0.366586 0.245793 0.014724
0.430243 0.246372 0.012699
0.493842 0.246921 0.010777
0.557379 0.247439 0.008962
0.620850 0.247925 0.007263
0.684250 0.248375 0.005688
0.747574 0.248787 0.004246
0.810813 0.249157 0.002952
0.873957 0.249478 0.001825
0.936988 0.249744 0.000896
0.999874 0.249937 0.000221
0.000000 0.306638 0.020518
0.052074 0.307287 0.018245
0.115821 0.307911 0.016063
0.179514 0.308507 0.013975
0.243150 0.309075 0.011987
0.306727 0.309613 0.010103
0.370240 0.310120 0.008330
0.433686 0.310593 0.006675
0.497059 0.311030 0.005147
0.560353 0.311427 0.003757
0.623559 0.311780 0.002521
0.686665 0.312082 0.001462
0.749648 0.312324 0.000616
0.812464 0.312482 0.000064
0.875000 0.312500 0.000000
0.937500 0.312500 0.000000
1.000000 0.312500 0.000000
0.000000 0.371217 0.013240
0.056049 0.371775 0.011289
0.119603 0.372302 0.009445
0.183092 0.372796 0.007713
0.246512 0.373256 0.006103
0.309858 0.373679 0.004624
0.373121 0.374061 0.003288
0.436292 0.374396 0.002114
0.499356 0.374678 0.001127
0.562287 0.374893 0.000373
0.625000 0.375000 0.000000
0.687500 0.375000 0.000000
0.750000 0.375000 0.000000
0.812500 0.375000 0.000000
0.875000 0.375000 0.000000
0.937500 0.375000 0.000000
1.000000 0.375000 0.000000
0.000000 0.435468 0.007113
0.059329 0.435915 0.005549
0.122646 0.436323 0.004120
0.185877 0.436688 0.002841
0.249011 0.437005 0.001731
0.312030 0.437265 0.000822
0.374900 0.437450 0.000175
0.437500 0.437500 0.000000
0.500000 0.437500 0.000000
0.562500 0.437500 0.000000
0.625000 0.437500 0.000000
0.687500 0.437500 0.000000
0.750000 0.437500 0.000000
0.812500 0.437500 0.000000
0.875000 0.437500 0.000000
0.937500 0.437500 0.000000
1.000000 0.437500 0.000000
0.000000 0.499310 0.002416
0.061715 0.499607 0.001374
0.124685 0.499843 0.000551
0.187480 0.499990 0.000035
0.250000 0.500000 0.000000
0.312500 0.500000 0.000000
0.375000 0.500000 0.000000
0.437500 0.500000 0.000000
0.500000 0.500000 0.000000
0.562500 0.500000 0.000000
0.625000 0.500000 0.000000
0.687500 0.500000 0.000000
0.750000 0.500000 0.000000
0.812500 0.500000 0.000000
0.875000 0.500000 0.000000
0.937500 0.500000 0.000000
1.000000 0.500000 0.000000
0.000000 0.562500 0.000000
0.062500 0.562500 0.000000
0.125000 0.562500 0.000000
0.187500 0.562500 0.000000
0.250000 0.562500 0.000000
0.312500 0.562500 0.000000
0.375000 0.562500 0.000000
0.437500 0.562500 0.000000
0.500000 0.562500 0.000000
0.562500 0.562500 0.000000
0.625000 0.562500 0.000000
0.687500 0.562500 0.000000
0.750000 0.562500 0.000000
0.812500 0.562500 0.000000
0.875000 0.562500 0.000000
0.937510 0.562505 0.000000
1.000000 0.562644 0.000000
0.000000 0.625000 0.000000
0.062500 0.625000 0.000000
0.125000 0.625000 0.000000
0.187500 0.625000 0.000000
0.250000 0.625000 0.000000
0.312500 0.625000 0.000000
0.375000 0.625000 0.000000
0.437500 0.625000 0.000000
0.500000 0.625000 0.000000
0.562500 0.625000 0.000000
0.625000 0.625000 0.000000
0.687500 0.625000 0.000000
0.750082 0.625041 0.000000
0.812938 0.625219 0.000000
0.875949 0.625474 0.000000
0.939076 0.625788 0.000000
1.000000 0.626150 0.000000
0.000000 0.687500 0.000000
0.062500 0.687500 0.000000
0.125000 0.687500 0.000000
0.187500 0.687500 0.000000
0.250000 0.687500 0.000000
0.312500 0.687500 0.000000
0.375000 0.687500 0.000000
0.437500 0.687500 0.000000
0.500000 0.687500 0.000000
0.562690 0.687595 0.000000
0.625609 0.687805 0.000000
0.688665 0.688082 0.000000
0.751829 0.688415 0.000000
0.815086 0.688793 0.000000
0.878426 0.689213 0.000000
0.941841 0.689671 0.000000
1.000000 0.690163 0.000000
0.000000 0.750000 0.000000
0.062500 0.750000 0.000000
0.125000 0.750000 0.000000
0.187500 0.750000 0.000000
0.250000 0.750000 0.000000
0.312524 0.750012 0.000000
0.375324 0.750162 0.000000
0.438298 0.750399 0.000000
0.501395 0.750698 0.000000
0.564595 0.751047 0.000000
0.627883 0.751441 0.000000
0.691251 0.751875 0.000000
0.754692 0.752346 0.000000
0.818201 0.752850 0.000000
0.881773 0.753386 0.000000
0.945405 0.753952 0.000000
1.000000 0.754547 0.000000
0.000000 0.812500 0.000000
0.062500 0.812500 0.000000
0.125106 0.812553 0.000000
0.187980 0.812740 0.000000
0.251002 0.813001 0.000000
0.314139 0.813319 0.000000
0.377372 0.813686 0.000000
0.440690 0.814095 0.000000
0.504085 0.814543 0.000000
0.567552 0.815026 0.000000
0.631084 0.815542 0.000000
0.694678 0.816089 0.000000
0.758331 0.816666 0.000000
0.822040 0.817270 0.000000
0.885803 0.817901 0.000000
0.949616 0.818558 0.000000
1.000000 0.819240 0.000000
0.000655 0.875328 0.000000
0.063722 0.875611 0.000000
0.126895 0.875948 0.000000
0.190160 0.876330 0.000000
0.253508 0.876754 0.000000
0.316929 0.877215 0.000000
0.380420 0.877710 0.000000
0.443975 0.878238 0.000000
0.507591 0.878796 0.000000
0.571265 0.879383 0.000000
0.634994 0.879997 0.000000
0.698775 0.880638 0.000000
0.762607 0.881303 0.000000
0.826487 0.881994 0.000000
0.890415 0.882707 0.000000
0.954388 0.883444 0.000000
1.000000 0.884202 0.000000
0.002960 0.938980 0.000000
0.066335 0.939417 0.000000
0.129782 0.939891 0.000000
0.193297 0.940398 0.000000
0.256875 0.940937 0.000000
0.320512 0.941506 0.000000
0.384206 0.942103 0.000000
0.447954 0.942727 0.000000
0.511754 0.943377 0.000000
0.575604 0.944052 0.000000
0.639502 0.944751 0.000000
0.703446 0.945473 0.000000
0.767435 0.946217 0.000000
0.831468 0.946984 0.000000
0.895543 0.947772 0.000000
0.959660 0.948580 0.000000
1.000000 0.949408 0.000000
0.006182 1.000000 0.000000
0.069782 1.000000 0.000000
0.133441 1.000000 0.000000
0.197155 1.000000 0.000000
0.260922 1.000000 0.000000
0.324740 1.000000 0.000000
0.388607 1.000000 0.000000
0.452522 1.000000 0.000000
0.516483 1.000000 0.000000
0.580488 1.000000 0.000000
0.644536 1.000000 0.000000
0.708627 1.000000 0.000000
0.772758 1.000000 0.000000
0.836930 1.000000 0.000000
0.901140 1.000000 0.000000
0.965389 1.000000 0.000000
1.000000 1.000000 0.000000
0.000000 0.000000 0.131319
0.025140 0.000000 0.127880
0.089571 0.000000 0.124500
0.153968 0.000000 0.121181
0.218330 0.000000 0.117923
0.282656 0.000000 0.114728
0.346945 0.000000 0.111596
0.411197 0.000000 0.108530
0.475411 0.000000 0.105531
0.539586 0.000000 0.102599
0.603721 0.000000 0.099738
0.667816 0.000000 0.096947
0.731868 0.000000 0.094231
0.795877 0.000000 0.091589
0.859842 0.000000 0.089026
0.923762 0.000000 0.086542
0.987634 0.000000 0.084141
0.000000 0.046075 0.119988
0.031499 0.046999 0.116752
0.095811 0.047906 0.113580
0.160087 0.048794 0.110472
0.224326 0.049663 0.107430
0.288525 0.050513 0.104455
0.352686 0.051343 0.101549
0.416807 0.052153 0.098713
0.480886 0.052943 0.095950
0.544923 0.053711 0.093260
0.608916 0.054458 0.090647
0.672864 0.055182 0.088112
0.736767 0.055883 0.085658
0.800621 0.056560 0.083288
0.864426 0.057213 0.081005
0.928179 0.057839 0.078812
0.991878 0.058439 0.076714
0.000000 0.111612 0.109357
0.037449 0.112474 0.106339
0.101635 0.113317 0.103389
0.165781 0.114140 0.100509
0.229886 0.114943 0.097699
0.293950 0.115725 0.094962
0.357971 0.116486 0.092300
0.421949 0.117224 0.089715
0.485880 0.117940 0.087209
0.549765 0.118633 0.084786
0.613602 0.119301 0.082447
0.677388 0.119944 0.080196
0.741122 0.120561 0.078037
0.804801 0.121150 0.075974
0.868422 0.121711 0.074011
0.931983 0.122242 0.072154
0.995480 0.122740 0.070409
0.000000 0.176935 0.099477
0.042961 0.177730 0.096694
0.107009 0.178505 0.093984
0.171014 0.179257 0.091350
0.234975 0.179988 0.088793
0.298890 0.180695 0.086317
0.362758 0.181379 0.083924
0.426576 0.182038 0.081617
0.490343 0.182672 0.079399
0.554057 0.183279 0.077275
0.617716 0.183858 0.075248
0.681316 0.184408 0.073323
0.744854 0.184927 0.071506
0.808327 0.185413 0.069803
0.871729 0.185864 0.068225
0.935055 0.186277 0.066779
0.998296 0.186648 0.065482
0.000000 0.242026 0.090410
0.047996 0.242748 0.087883
0.111894 0.243447 0.085436
0.175743 0.244122 0.083074
0.239543 0.244772 0.080799
0.303291 0.245396 0.078615
0.366986 0.245993 0.076525
0.430623 0.246562 0.074535
0.494201 0.247101 0.072648
0.557716 0.247608 0.070872
0.621164 0.248082 0.069214
0.684539 0.248519 0.067682
0.747835 0.248917 0.066289
0.811043 0.249272 0.065049
0.874151 0.249576 0.063986
0.937138 0.249819 0.063134
0.999959 0.249979 0.062572
0.000000 0.306861 0.082236
0.052504 0.307502 0.079993
0.116233 0.308116 0.077843
0.179906 0.308703 0.075789
0.243523 0.309261 0.073835
0.307078 0.309789 0.071988
0.370569 0.310284 0.070254
0.433991 0.310745 0.068641
0.497338 0.311169 0.067158
0.560603 0.311552 0.065819
0.623777 0.311888 0.064640
0.686844 0.312172 0.063648
0.749778 0.312389 0.062888
0.812500 0.312500 0.062500
0.875000 0.312500 0.062500
0.937500 0.312500 0.062500
1.000000 0.312500 0.062500
0.000000 0.371410 0.075066
0.056414 0.371957 0.073150
0.119946 0.372473 0.071344
0.183413 0.372956 0.069653
0.246808 0.373404 0.068086
0.310127 0.373813 0.066653
0.373360 0.374180 0.065370
0.436497 0.374498 0.064256
0.499519 0.374760 0.063341
0.562393 0.374947 0.062687
0.625000 0.375000 0.062500
0.687500 0.375000 0.062500
0.750000 0.375000 0.062500
0.812500 0.375000 0.062500
0.875000 0.375000 0.062500
0.937500 0.375000 0.062500
1.000000 0.375000 0.062500
0.000000 0.435624 0.069067
0.059616 0.436058 0.067548
0.122904 0.436452 0.066168
0.186104 0.436802 0.064944
0.249201 0.437101 0.063898
0.312175 0.437338 0.063068
0.374976 0.437488 0.062542
0.437500 0.437500 0.062500
0.500000 0.437500 0.062500
0.562500 0.437500 0.062500
0.625000 0.437500 0.062500
0.687500 0.437500 0.062500
0.750000 0.437500 0.062500
0.812500 0.437500 0.062500
0.875000 0.437500 0.062500
0.937500 0.437500 0.062500
1.000000 0.437500 0.062500
0.000000 0.499417 0.064541
0.061890 0.499695 0.063568
0.124810 0.499905 0.062833
0.187500 0.500000 0.062500
0.250000 0.500000 0.062500
0.312500 0.500000 0.062500
0.375000 0.500000 0.062500
0.437500 0.500000 0.062500
0.500000 0.500000 0.062500
0.562500 0.500000 0.062500
0.625000 0.500000 0.062500
0.687500 0.500000 0.062500
0.750000 0.500000 0.062500
0.812500 0.500000 0.062500
0.875000 0.500000 0.062500
0.937500 0.500000 0.062500
1.000000 0.500000 0.062500
0.000000 0.562500 0.062500
0.062500 0.562500 0.062500
0.125000 0.562500 0.062500
0.187500 0.562500 0.062500
0.250000 0.562500 0.062500
0.312500 0.562500 0.062500
0.375000 0.562500 0.062500
0.437500 0.562500 0.062500
0.500000 0.562500 0.062500
0.562500 0.562500 0.062500
0.625000 0.562500 0.062500
0.687500 0.562500 0.062500
0.750000 0.562500 0.062500
0.812500 0.562500 0.062500
0.875000 0.562500 0.062500
0.937576 0.562538 0.062367
1.000000 0.562714 0.061752
0.000000 0.625000 0.062500
0.062500 0.625000 0.062500
0.125000 0.625000 0.062500
0.187500 0.625000 0.062500
0.250000 0.625000 0.062500
0.312500 0.625000 0.062500
0.375000 0.625000 0.062500
0.437500 0.625000 0.062500
0.500000 0.625000 0.062500
0.562500 0.625000 0.062500
0.625000 0.625000 0.062500
0.687500 0.625000 0.062500
0.750181 0.625091 0.062182
0.813097 0.625299 0.061455
0.876150 0.625575 0.060488
0.939312 0.625906 0.059330
1.000000 0.626283 0.058008
0.000000 0.687500 0.062500
0.062500 0.687500 0.062500
0.125000 0.687500 0.062500
0.187500 0.687500 0.062500
0.250000 0.687500 0.062500
0.312500 0.687500 0.062500
0.375000 0.687500 0.062500
0.437500 0.687500 0.062500
0.500020 0.687510 0.062465
0.562814 0.687657 0.061950
0.625784 0.687892 0.061127
0.688879 0.688190 0.060086
0.752076 0.688538 0.058866
0.815363 0.688931 0.057490
0.878729 0.689364 0.055975
0.942168 0.689834 0.054331
1.000000 0.690338 0.052568
0.000000 0.750000 0.062500
0.062500 0.750000 0.062500
0.125000 0.750000 0.062500
0.187500 0.750000 0.062500
0.250000 0.750000 0.062500
0.312600 0.750050 0.062326
0.375469 0.750234 0.061680
0.438488 0.750494 0.060771
0.501622 0.750811 0.059661
0.564853 0.751176 0.058382
0.628169 0.751585 0.056954
0.691563 0.752031 0.055390
0.755027 0.752514 0.053702
0.818558 0.753029 0.051899
0.882151 0.753575 0.049986
0.945802 0.754151 0.047971
1.000000 0.754755 0.045857
0.000000 0.812500 0.062500
0.062500 0.812500 0.062500
0.125213 0.812606 0.062128
0.188143 0.812821 0.061375
0.251207 0.813103 0.060388
0.314378 0.813439 0.059214
0.377641 0.813820 0.057879
0.440986 0.814243 0.056400
0.504406 0.814703 0.054790
0.567895 0.815198 0.053059
0.631449 0.815724 0.051215
0.695063 0.816282 0.049264
0.758736 0.816868 0.047212
0.822463 0.817482 0.045064
0.886243 0.818122 0.042824
0.950074 0.818787 0.040496
1.000000 0.819476 0.038082
0.000834 0.875417 0.061040
0.063939 0.875720 0.059981
0.127145 0.876073 0.058746
0.190439 0.876470 0.057356
0.253812 0.876906 0.055828
0.317258 0.877379 0.054173
0.380771 0.877886 0.052400
0.444348 0.878424 0.050516
0.507984 0.878992 0.048528
0.571676 0.879588 0.046441
0.635423 0.880212 0.044259
0.699222 0.880861 0.041987
0.763070 0.881535 0.039627
0.826967 0.882233 0.037183
0.890910 0.882955 0.034658
0.954898 0.883699 0.032054
1.000000 0.884465 0.029373
0.003248 0.939124 0.056815
0.066649 0.939574 0.055240
0.130120 0.940060 0.053541
0.193656 0.940578 0.051727
0.257255 0.941127 0.049805
0.320912 0.941706 0.047780
0.384624 0.942312 0.045658
0.448390 0.942945 0.043442
0.512207 0.943604 0.041138
0.576073 0.944287 0.038747
0.639987 0.944993 0.036273
0.703947 0.945723 0.033719
0.767951 0.946475 0.031086
0.831998 0.947249 0.028378
0.896087 0.948044 0.025597
0.960218 0.948859 0.022744
1.000000 0.949694 0.019820
0.006549 1.000000 0.051039
0.070169 1.000000 0.049079
0.133847 1.000000 0.047018
0.197579 1.000000 0.044862
0.261364 1.000000 0.042613
0.325199 1.000000 0.040277
0.389083 1.000000 0.037856
0.453013 1.000000 0.035352
0.516989 1.000000 0.032769
0.581009 1.000000 0.030109
0.645072 1.000000 0.027374
0.709176 1.000000 0.024566
0.773321 1.000000 0.021687
0.837506 1.000000 0.018739
0.901730 1.000000 0.015723
0.965991 1.000000 0.012641
1.000000 1.000000 0.009494
0.000000 0.000000 0.192644
0.025800 0.000000 0.189225
0.090219 0.000000 0.185866
0.154604 0.000000 0.182568
0.218954 0.000000 0.179331
0.283267 0.000000 0.176157
0.347544 0.000000 0.173048
0.411783 0.000000 0.170004
0.475984 0.000000 0.167027
0.540146 0.000000 0.164119
0.604267 0.000000 0.161282
0.668348 0.000000 0.158516
0.732386 0.000000 0.155825
0.796380 0.000000 0.153210
0.860330 0.000000 0.150673
0.924233 0.000000 0.148217
0.988088 0.000000 0.145845
0.000000 0.046391 0.181382
0.032118 0.047309 0.178168
0.096419 0.048209 0.175018
0.160682 0.049091 0.171932
0.224907 0.049954 0.168912
0.289094 0.050797 0.165961
0.353241 0.051621 0.163078
0.417348 0.052424 0.160267
0.481413 0.053206 0.157528
0.545435 0.053967 0.154864
0.609413 0.054707 0.152277
0.673346 0.055423 0.149770
0.737232 0.056116 0.147344
0.801070 0.056785 0.145003
0.864857 0.057428 0.142750
0.928592 0.058046 0.140589
0.992272 0.058636 0.138523
0.000000 0.111907 0.170825
0.038026 0.112763 0.167830
0.102198 0.113599 0.164903
0.166331 0.114415 0.162046
0.230422 0.115211 0.159261
0.294472 0.115986 0.156549
0.358478 0.116739 0.153913
0.422440 0.117470 0.151355
0.486356 0.118178 0.148877
0.550225 0.118862 0.146482
0.614044 0.119522 0.144173
0.677813 0.120156 0.141953
0.741528 0.120764 0.139826
0.805188 0.121344 0.137796
0.868790 0.121895 0.135868
0.932329 0.122415 0.134049
0.995804 0.122902 0.132344
0.000000 0.177207 0.161024
0.043491 0.177996 0.158265
0.107525 0.178763 0.155581
0.171516 0.179508 0.152973
0.235461 0.180230 0.150443
0.299360 0.180930 0.147995
0.363211 0.181605 0.145631
0.427012 0.182256 0.143354
0.490762 0.182881 0.141167
0.554457 0.183479 0.139075
0.618096 0.184048 0.137082
0.681675 0.184588 0.135193
0.745192 0.185096 0.133414
0.808641 0.185571 0.131753
0.872018 0.186009 0.130218
0.935316 0.186408 0.128821
0.998527 0.186763 0.127578
0.000000 0.242274 0.152043
0.048476 0.242988 0.149543
0.112357 0.243679 0.147125
0.176190 0.244345 0.144792
0.239973 0.244987 0.142547
0.303703 0.245602 0.140394
0.367378 0.246189 0.138338
0.430996 0.246748 0.136382
0.494553 0.247276 0.134532
0.558046 0.247773 0.132795
0.621469 0.248235 0.131179
0.684818 0.248659 0.129693
0.748086 0.249043 0.128350
0.811262 0.249381 0.127167
0.874331 0.249666 0.126170
0.937269 0.249885 0.125404
1.000000 0.250000 0.125000
0.000000 0.307082 0.143964
0.052927 0.307714 0.141753
0.116637 0.308319 0.139634
0.180292 0.308896 0.137614
0.243888 0.309444 0.135696
0.307422 0.309961 0.133887
0.370890 0.310445 0.132192
0.434287 0.310894 0.130622
0.497608 0.311304 0.129187
0.560843 0.311672 0.127900
0.623982 0.311991 0.126781
0.687008 0.312254 0.125861
0.749886 0.312443 0.125199
0.812500 0.312500 0.125000
0.875000 0.312500 0.125000
0.937500 0.312500 0.125000
1.000000 0.312500 0.125000
0.000000 0.371599 0.136903
0.056772 0.372136 0.135024
0.120282 0.372641 0.133256
0.183725 0.373113 0.131606
0.247095 0.373548 0.130083
0.310386 0.373943 0.128700
0.373588 0.374294 0.127472
0.436688 0.374594 0.126421
0.499666 0.374833 0.125585
0.562472 0.374986 0.125050
0.625000 0.375000 0.125000
0.687500 0.375000 0.125000
0.750000 0.375000 0.125000
0.812500 0.375000 0.125000
0.875000 0.375000 0.125000
0.937500 0.375000 0.125000
1.000000 0.375000 0.125000
0.000000 0.435775 0.131036
0.059893 0.436196 0.129563
0.123152 0.436576 0.128234
0.186319 0.436909 0.127067
0.249378 0.437189 0.126089
0.312302 0.437401 0.125347
0.375000 0.437500 0.125000
0.437500 0.437500 0.125000
0.500000 0.437500 0.125000
0.562500 0.437500 0.125000
0.625000 0.437500 0.125000
0.687500 0.437500 0.125000
0.750000 0.437500 0.125000
0.812500 0.437500 0.125000
0.875000 0.437500 0.125000
0.937500 0.437500 0.125000
1.000000 0.437500 0.125000
0.000000 0.499518 0.126687
0.062050 0.499775 0.125788
0.124911 0.499956 0.125155
0.187500 0.500000 0.125000
0.250000 0.500000 0.125000
0.312500 0.500000 0.125000
0.375000 0.500000 0.125000
0.437500 0.500000 0.125000
0.500000 0.500000 0.125000
0.562500 0.500000 0.125000
0.625000 0.500000 0.125000
0.687500 0.500000 0.125000
0.750000 0.500000 0.125000
0.812500 0.500000 0.125000
0.875000 0.500000 0.125000
0.937500 0.500000 0.125000
1.000000 0.500000 0.125000
0.000000 0.562500 0.125000
0.062500 0.562500 0.125000
0.125000 0.562500 0.125000
0.187500 0.562500 0.125000
0.250000 0.562500 0.125000
0.312500 0.562500 0.125000
0.375000 0.562500 0.125000
0.437500 0.562500 0.125000
0.500000 0.562500 0.125000
0.562500 0.562500 0.125000
0.625000 0.562500 0.125000
0.687500 0.562500 0.125000
0.750000 0.562500 0.125000
0.812500 0.562500 0.125000
0.875000 0.562500 0.125000
0.937673 0.562587 0.124696
1.000000 0.562793 0.123976
0.000000 0.625000 0.125000
0.062500 0.625000 0.125000
0.125000 0.625000 0.125000
0.187500 0.625000 0.125000
0.250000 0.625000 0.125000
0.312500 0.625000 0.125000
0.375000 0.625000 0.125000
0.437500 0.625000 0.125000
0.500000 0.625000 0.125000
0.562500 0.625000 0.125000
0.625000 0.625000 0.125000
0.687516 0.625008 0.124972
0.750304 0.625152 0.124467
0.813271 0.625386 0.123650
0.876363 0.625682 0.122614
0.939558 0.626029 0.121398
1.000000 0.626421 0.120026
0.000000 0.687500 0.125000
0.062500 0.687500 0.125000
0.125000 0.687500 0.125000
0.187500 0.687500 0.125000
0.250000 0.687500 0.125000
0.312500 0.687500 0.125000
0.375000 0.687500 0.125000
0.437500 0.687500 0.125000
0.500093 0.687547 0.124837
0.562958 0.687729 0.124199
0.625974 0.687987 0.123296
0.689105 0.688303 0.122191
0.752334 0.688667 0.120916
0.815648 0.689074 0.119491
0.879040 0.689520 0.117930
0.942503 0.690001 0.116245
1.000000 0.690516 0.114444
0.000000 0.750000 0.125000
0.062500 0.750000 0.125000
0.125000 0.750000 0.125000
0.187500 0.750000 0.125000
0.250000 0.750000 0.125000
0.312704 0.750102 0.124643
0.375631 0.750315 0.123896
0.438692 0.750596 0.122915
0.501860 0.750930 0.121745
0.565121 0.751310 0.120413
0.628464 0.751732 0.118938
0.691883 0.752191 0.117331
0.755370 0.752685 0.115602
0.818922 0.753211 0.113761
0.882535 0.753768 0.111813
0.946206 0.754353 0.109764
1.000000 0.754966 0.107618
0.000000 0.812500 0.125000
0.062532 0.812516 0.124945
0.125341 0.812671 0.124403
0.188321 0.812911 0.123563
0.251423 0.813212 0.122509
0.314627 0.813563 0.121278
0.377919 0.813959 0.119892
0.441290 0.814395 0.118367
0.504734 0.814867 0.116715
0.568246 0.815373 0.114945
0.631821 0.815910 0.113064
0.695455 0.816478 0.111078
0.759147 0.817073 0.108993
0.822892 0.817696 0.106814
0.886689 0.818345 0.104543
0.950537 0.819018 0.102186
1.000000 0.819716 0.099744
0.001028 0.875514 0.123202
0.064169 0.875834 0.122080
0.127406 0.876203 0.120790
0.190727 0.876614 0.119352
0.254126 0.877063 0.117780
0.317595 0.877547 0.116084
0.381130 0.878065 0.114272
0.444727 0.878613 0.112353
0.508383 0.879191 0.110331
0.572094 0.879797 0.108211
0.635858 0.880429 0.105998
0.699674 0.881087 0.103695
0.763539 0.881770 0.101306
0.827452 0.882476 0.098834
0.891410 0.883205 0.096282
0.955413 0.883957 0.093652
1.000000 0.884730 0.090946
0.003546 0.939273 0.118795
0.066971 0.939735 0.117176
0.130464 0.940232 0.115437
0.194022 0.940761 0.113586
0.257641 0.941321 0.111628
0.321317 0.941909 0.109570
0.385048 0.942524 0.107416
0.448832 0.943166 0.105170
0.512666 0.943833 0.102835
0.576548 0.944524 0.100416
0.640478 0.945239 0.097914
0.704452 0.945976 0.095333
0.768471 0.946736 0.092675
0.832533 0.947517 0.089942
0.896637 0.948318 0.087136
0.960781 0.949140 0.084259
1.000000 0.949982 0.081312
0.006923 1.000000 0.112885
0.070563 1.000000 0.110890
0.134259 1.000000 0.108796
0.198010 1.000000 0.106608
0.261812 1.000000 0.104330
0.325663 1.000000 0.101964
0.389563 1.000000 0.099514
0.453509 1.000000 0.096984
0.517500 1.000000 0.094374
0.581535 1.000000 0.091689
0.645612 1.000000 0.088929
0.709731 1.000000 0.086097
0.773889 1.000000 0.083194
0.838087 1.000000 0.080222
0.902324 1.000000 0.077184
0.966598 1.000000 0.074079
1.000000 1.000000 0.070910
0.000000 0.000000 0.253977
0.026456 0.000000 0.250578
0.090863 0.000000 0.247239
0.155236 0.000000 0.243961
0.219574 0.000000 0.240746
0.283875 0.000000 0.237594
0.348139 0.000000 0.234507
0.412365 0.000000 0.231485
0.476553 0.000000 0.228532
0.540701 0.000000 0.225648
0.604809 0.000000 0.222835
0.668875 0.000000 0.220094
0.732898 0.000000 0.217428
0.796877 0.000000 0.214840
0.860811 0.000000 0.212330
0.924699 0.000000 0.209902
0.988538 0.000000 0.207559
0.000000 0.046705 0.242783
0.032734 0.047617 0.239591
