lut-visualizer/public/data/sample_luts/split_toning_orange_teal.cube
LUT_3D_SIZE 9
DOMAIN_MIN 0.0 0.0 0.0
DOMAIN_MAX 1.0 1.0 1.0
0.050000 0.010000 0.000000
0.170101 0.009020 0.000000
0.290373 0.008075 0.000000
0.410823 0.007165 0.000000
0.531458 0.006292 0.000000
0.652287 0.005457 0.000000
0.773318 0.004664 0.000000
0.894563 0.003913 0.000000
1.000000 0.003207 0.000000
0.034212 0.131842 0.000000
0.154917 0.130983 0.000000
0.275818 0.130164 0.000000
0.396925 0.129385 0.000000
0.518251 0.128650 0.000000
0.639808 0.127962 0.000000
0.761614 0.127323 0.000000
0.883690 0.126738 0.000000
1.000000 0.126213 0.000000
0.020562 0.254112 0.000000
0.141970 0.253394 0.000000
0.263616 0.252723 0.000000
0.385517 0.252103 0.000000
0.507698 0.251540 0.000000
0.630188 0.251038 0.000000
0.753033 0.250607 0.000000
0.876304 0.250261 0.000000
1.000000 0.250032 0.000000
0.009457 0.376891 0.000000
0.131746 0.376349 0.000000
0.254359 0.375872 0.000000
0.377349 0.375470 0.000000
0.500805 0.375161 0.000000
0.625000 0.375000 0.000000
0.750000 0.375000 0.000000
0.875000 0.375000 0.000000
1.000000 0.375000 0.000000
0.001726 0.500345 0.000000
0.125393 0.500079 0.000000
0.250000 0.500000 0.000000
0.375000 0.500000 0.000000
0.500000 0.500000 0.000000
0.625000 0.500000 0.000000
0.750000 0.500000 0.000000
0.875000 0.500000 0.000000
1.000000 0.500000 0.000000
0.000000 0.625000 0.000000
0.125000 0.625000 0.000000
0.250000 0.625000 0.000000
0.375000 0.625000 0.000000
0.500000 0.625000 0.000000
0.625000 0.625000 0.000000
0.749939 0.625041 0.000082
0.874288 0.625474 0.000949
0.998275 0.626150 0.002301
0.000000 0.750000 0.000000
0.125000 0.750000 0.000000
0.250000 0.750000 0.000000
0.374757 0.750162 0.000324
0.498954 0.750698 0.001395
0.622838 0.751441 0.002883
0.746481 0.752346 0.004692
0.869920 0.753386 0.006773
0.993180 0.754547 0.009094
0.000000 0.875328 0.000655
0.123579 0.875948 0.001895
0.247369 0.876754 0.003508
0.370935 0.877710 0.005420
0.494306 0.878796 0.007591
0.617505 0.879997 0.009994
0.740545 0.881303 0.012607
0.863439 0.882707 0.015415
0.986196 0.884202 0.018405
0.000000 1.000000 0.006182
0.118670 1.000000 0.008441
0.241809 1.000000 0.010922
0.364795 1.000000 0.013607
0.487638 1.000000 0.016483
0.610348 1.000000 0.019536
0.732931 1.000000 0.022758
0.855395 1.000000 0.026140
0.977744 1.000000 0.029675
0.048317 0.009663 0.067019
0.168476 0.008695 0.072829
0.288808 0.007762 0.078431
0.409320 0.006864 0.083816
0.530020 0.006004 0.088977
0.650916 0.005183 0.093901
0.772018 0.004404 0.098578
0.893338 0.003668 0.102994
1.000000 0.002978 0.107133
0.032732 0.131546 0.085722
0.153502 0.130700 0.090797
0.274472 0.129894 0.095633
0.395652 0.129130 0.100217
0.517055 0.128411 0.104534
0.638695 0.127739 0.108566
0.760590 0.127118 0.112292
0.882763 0.126553 0.115684
1.000000 0.126049 0.118705
0.019316 0.253863 0.101821
0.140803 0.253161 0.106036
0.262534 0.252507 0.109960
0.384527 0.251905 0.113568
0.506809 0.251362 0.116829
0.629414 0.250883 0.119704
0.752393 0.250479 0.122129
0.875836 0.250167 0.123997
1.000000 0.250000 0.125000
0.008502 0.376700 0.114797
0.130897 0.376179 0.117923
0.253631 0.375726 0.120643
0.376765 0.375353 0.122882
0.500418 0.375084 0.124498
0.625000 0.375000 0.125000
0.750000 0.375000 0.125000
0.875000 0.375000 0.125000
1.000000 0.375000 0.125000
0.001205 0.500241 0.123554
0.125111 0.500022 0.124867
0.250000 0.500000 0.125000
0.375000 0.500000 0.125000
0.500000 0.500000 0.125000
0.625000 0.500000 0.125000
0.750000 0.500000 0.125000
0.875000 0.500000 0.125000
1.000000 0.500000 0.125000
0.000000 0.625000 0.125000
0.125000 0.625000 0.125000
0.250000 0.625000 0.125000
0.375000 0.625000 0.125000
0.500000 0.625000 0.125000
0.625000 0.625000 0.125000
0.749772 0.625152 0.125304
0.873977 0.625682 0.126363
0.997868 0.626421 0.127842
0.000000 0.750000 0.125000
0.125000 0.750000 0.125000
0.250000 0.750000 0.125000
0.374527 0.750315 0.125631
0.498605 0.750930 0.126860
0.622402 0.751732 0.128464
0.745972 0.752685 0.130370
0.869348 0.753768 0.132535
0.992551 0.754966 0.134933
0.000000 0.875514 0.126028
0.123196 0.876203 0.127406
0.246906 0.877063 0.129126
0.370402 0.878065 0.131130
0.493713 0.879191 0.133383
0.616856 0.880429 0.135858
0.739846 0.881770 0.138539
0.862692 0.883205 0.141410
0.985405 0.884730 0.144460
0.000000 1.000000 0.131923
0.118056 1.000000 0.134259
0.241141 1.000000 0.136812
0.364078 1.000000 0.139563
0.486875 1.000000 0.142500
0.609541 1.000000 0.145612
0.732083 1.000000 0.148889
0.854507 1.000000 0.152324
0.976819 1.000000 0.155908
0.046654 0.009331 0.194015
0.166871 0.008374 0.199755
0.287263 0.007453 0.205284
0.407838 0.006568 0.210594
0.528603 0.005721 0.215676
0.649568 0.004914 0.220518
0.770743 0.004149 0.225108
0.892140 0.003428 0.229432
1.000000 0.002755 0.233471
0.031274 0.131255 0.212471
0.152111 0.130422 0.217467
0.273151 0.129630 0.222219
0.394405 0.128881 0.226714
0.515886 0.128177 0.230936
0.637611 0.127522 0.234867
0.759597 0.126919 0.238483
0.881872 0.126374 0.241754
1.000000 0.125894 0.244638
0.018097 0.253619 0.228284
0.139665 0.252933 0.232402
0.261482 0.252296 0.236222
0.383570 0.251714 0.239716
0.505957 0.251191 0.242852
0.628682 0.250736 0.245582
0.751806 0.250361 0.247833
0.875443 0.250089 0.249468
1.000000 0.250000 0.250000
0.007582 0.376516 0.240901
0.130087 0.376017 0.243896
0.252948 0.375590 0.246462
0.376240 0.375248 0.248511
0.500127 0.375025 0.249847
0.625000 0.375000 0.250000
0.750000 0.375000 0.250000
0.875000 0.375000 0.250000
1.000000 0.375000 0.250000
0.000751 0.500150 0.249099
0.125000 0.500000 0.250000
0.250000 0.500000 0.250000
0.375000 0.500000 0.250000
0.500000 0.500000 0.250000
0.625000 0.500000 0.250000
0.750000 0.500000 0.250000
0.875000 0.500000 0.250000
1.000000 0.500000 0.250000
0.000000 0.625000 0.250000
0.125000 0.625000 0.250000
0.250000 0.625000 0.250000
0.375000 0.625000 0.250000
0.500000 0.625000 0.250000
0.625000 0.625000 0.250000
0.749545 0.625303 0.250606
0.873631 0.625913 0.251825
0.997434 0.626711 0.253421
0.000000 0.750000 0.250000
0.125000 0.750000 0.250000
0.249921 0.750052 0.250105
0.374251 0.750499 0.250999
0.498224 0.751184 0.252367
0.621940 0.752040 0.254080
0.745442 0.753039 0.256078
0.868756 0.754162 0.258325
0.991903 0.755398 0.260795
0.000000 0.875726 0.251452
0.122784 0.876478 0.252955
0.246417 0.877388 0.254777
0.369849 0.878434 0.256869
0.493100 0.879600 0.259199
0.616190 0.880873 0.261747
0.739130 0.882247 0.264494
0.861930 0.883713 0.267426
0.984599 0.885267 0.270534
0.000000 1.000000 0.257691
0.117423 1.000000 0.260103
0.240457 1.000000 0.262724
0.363345 1.000000 0.265540
0.486096 1.000000 0.268538
0.608720 1.000000 0.271707
0.731221 1.000000 0.275038
0.853607 1.000000 0.278524
0.975881 1.000000 0.282159
0.045010 0.009002 0.320988
0.165286 0.008057 0.326657
0.285739 0.007148 0.332113
0.406378 0.006276 0.337346
0.527210 0.005442 0.342348
0.648245 0.004649 0.347106
0.769494 0.003899 0.351607
0.890970 0.003194 0.355836
1.000000 0.002538 0.359775
0.029838 0.130968 0.339195
0.150743 0.130149 0.344109
0.271854 0.129371 0.348775
0.393184 0.128637 0.353179
0.514746 0.127949 0.357305
0.636557 0.127311 0.361132
0.758638 0.126728 0.364635
0.881017 0.126203 0.367779
1.000000 0.125747 0.370520
0.016904 0.253381 0.354715
0.138555 0.252711 0.358734
0.260461 0.252092 0.362446
0.382647 0.251529 0.365823
0.505144 0.251029 0.368827
0.627996 0.250599 0.371405
0.751276 0.250255 0.373469
0.875144 0.250029 0.374827
1.000000 0.250000 0.375000
0.006698 0.376340 0.366962
0.129318 0.375864 0.369819
0.252315 0.375463 0.372222
0.375781 0.375156 0.374063
0.500000 0.375000 0.375000
0.625000 0.375000 0.375000
0.750000 0.375000 0.375000
0.875000 0.375000 0.375000
1.000000 0.375000 0.375000
0.000375 0.500075 0.374550
0.125000 0.500000 0.375000
0.250000 0.500000 0.375000
0.375000 0.500000 0.375000
0.500000 0.500000 0.375000
0.625000 0.500000 0.375000
0.750000 0.500000 0.375000
0.875000 0.500000 0.375000
1.000000 0.500000 0.375000
0.000000 0.625000 0.375000
0.125000 0.625000 0.375000
0.250000 0.625000 0.375000
0.375000 0.625000 0.375000
0.500000 0.625000 0.375000
0.624931 0.625046 0.375092
0.749272 0.625485 0.375971
0.873253 0.626165 0.377330
0.996974 0.627017 0.379035
0.000000 0.750000 0.375000
0.125000 0.750000 0.375000
0.249746 0.750169 0.375339
0.373935 0.750710 0.376420
0.497814 0.751457 0.377914
0.621453 0.752364 0.379729
0.744889 0.753407 0.381814
0.868145 0.754570 0.384140
0.991239 0.755841 0.386682
0.000000 0.875961 0.376922
0.122344 0.876770 0.378541
0.245906 0.877729 0.380459
0.369274 0.878817 0.382635
0.492469 0.880021 0.385041
0.615507 0.881329 0.387658
0.738398 0.882735 0.390469
0.861153 0.884231 0.393463
0.983779 0.885814 0.396627
0.000000 1.000000 0.383485
0.116772 1.000000 0.385970
0.239755 1.000000 0.388660
0.362596 1.000000 0.391539
0.485303 1.000000 0.394595
0.607885 1.000000 0.397820
0.730346 1.000000 0.401205
0.852693 1.000000 0.404742
0.974931 1.000000 0.408426
0.043386 0.008677 0.447936
0.163722 0.007744 0.453534
0.284237 0.006847 0.458916
0.404940 0.005988 0.464071
0.525840 0.005168 0.468992
0.646947 0.004389 0.473664
0.768271 0.003654 0.478075
0.889827 0.002965 0.482208
1.000000 0.002326 0.486042
0.028425 0.130685 0.465891
0.149398 0.129880 0.470722
0.270583 0.129117 0.475301
0.391989 0.128398 0.479613
0.513634 0.127727 0.483639
0.635534 0.127107 0.487359
0.757713 0.126543 0.490745
0.880201 0.126040 0.493758
1.000000 0.125609 0.496347
0.015739 0.253148 0.481113
0.137475 0.252495 0.485030
0.259473 0.251895 0.488632
0.381761 0.251352 0.491887
0.504372 0.250874 0.494754
0.627359 0.250472 0.497169
0.750812 0.250162 0.499026
0.875000 0.250000 0.500000
1.000000 0.250000 0.500000
0.005851 0.376170 0.492979
0.128592 0.375718 0.495690
0.251735 0.375347 0.497918
0.375399 0.375080 0.499521
0.500000 0.375000 0.500000
0.625000 0.375000 0.500000
0.750000 0.375000 0.500000
0.875000 0.375000 0.500000
1.000000 0.375000 0.500000
0.000099 0.500020 0.499881
0.125000 0.500000 0.500000
0.250000 0.500000 0.500000
0.375000 0.500000 0.500000
0.500000 0.500000 0.500000
0.625000 0.500000 0.500000
0.750000 0.500000 0.500000
0.875000 0.500000 0.500000
0.999941 0.500040 0.500079
0.000000 0.625000 0.500000
0.125000 0.625000 0.500000
0.250000 0.625000 0.500000
0.375000 0.625000 0.500000
0.500000 0.625000 0.500000
0.624761 0.625160 0.500319
0.748959 0.625694 0.501388
0.872845 0.626437 0.502874
0.996489 0.627340 0.504681
0.000000 0.750000 0.500000
0.125000 0.750000 0.500000
0.249513 0.750325 0.500650
0.373585 0.750944 0.501887
0.497377 0.751749 0.503498
0.620944 0.752704 0.505408
0.744316 0.753789 0.507579
0.867515 0.754990 0.509980
0.990556 0.756296 0.512592
0.000000 0.876218 0.502435
0.121879 0.877081 0.504161
0.245372 0.878085 0.506170
0.368680 0.879214 0.508427
0.491820 0.880454 0.510907
0.614806 0.881796 0.513592
0.737650 0.883233 0.516466
0.860361 0.884759 0.519519
0.982945 0.886370 0.522740
0.000000 1.000000 0.509305
0.116104 1.000000 0.511862
0.239037 1.000000 0.514617
0.361832 1.000000 0.517557
0.484496 1.000000 0.520672
0.607036 1.000000 0.523952
0.729458 1.000000 0.527390
0.851767 1.000000 0.530977
0.973968 1.000000 0.534709
0.041782 0.008356 0.574861
0.162178 0.007436 0.580386
0.282756 0.006551 0.585692
0.403526 0.005705 0.590769
0.524494 0.004899 0.595607
0.645673 0.004135 0.600192
0.767075 0.003415 0.604510
0.888713 0.002743 0.608544
1.000000 0.002121 0.612272
0.027034 0.130407 0.592559
0.148078 0.129616 0.597306
0.269337 0.128867 0.601796
0.390822 0.128164 0.606013
0.512551 0.127510 0.609938
0.634543 0.126909 0.613548
0.756823 0.126365 0.616812
0.879426 0.125885 0.619689
1.000000 0.125481 0.622116
0.014602 0.252920 0.607477
0.136425 0.252285 0.611290
0.258518 0.251704 0.614778
0.380911 0.251182 0.617907
0.503643 0.250729 0.620629
0.626775 0.250355 0.622870
0.750424 0.250085 0.624492
0.875000 0.250000 0.625000
1.000000 0.250000 0.625000
0.005043 0.376009 0.618948
0.127912 0.375582 0.621506
0.251213 0.375243 0.623544
0.375115 0.375023 0.624863
0.500000 0.375000 0.625000
0.625000 0.375000 0.625000
0.750000 0.375000 0.625000
0.875000 0.375000 0.625000
1.000000 0.375000 0.625000
0.000000 0.500000 0.625000
0.125000 0.500000 0.625000
0.250000 0.500000 0.625000
0.375000 0.500000 0.625000
0.500000 0.500000 0.625000
0.625000 0.500000 0.625000
0.750000 0.500000 0.625000
0.875000 0.500000 0.625000
0.999775 0.500150 0.625300
0.000000 0.625000 0.625000
0.125000 0.625000 0.625000
0.250000 0.625000 0.625000
0.375000 0.625000 0.625000
0.500000 0.625000 0.625000
0.624531 0.625313 0.625625
0.748611 0.625926 0.626852
0.872409 0.626727 0.628454
0.995981 0.627679 0.630359
0.000000 0.750000 0.625000
0.124914 0.750058 0.625115
0.249234 0.750510 0.626021
0.373202 0.751198 0.627397
0.496914 0.752058 0.629115
0.620412 0.753059 0.631118
0.743723 0.754185 0.633369
0.866867 0.755422 0.635844
0.989857 0.756762 0.638524
0.000000 0.876493 0.627987
0.121390 0.877407 0.629814
0.244817 0.878455 0.631910
0.368066 0.879623 0.634245
0.491153 0.880898 0.636797
0.614090 0.882274 0.639547
0.736888 0.883742 0.642483
0.859554 0.885297 0.645594
0.982097 0.886935 0.648870
0.000000 1.000000 0.635150
0.115418 1.000000 0.637776
0.238304 1.000000 0.640595
0.361053 1.000000 0.643596
0.483674 1.000000 0.646768
0.606173 1.000000 0.650102
0.728556 1.000000 0.653591
0.850828 1.000000 0.657229
0.972994 1.000000 0.661008
0.040199 0.008040 0.701762
0.160656 0.007131 0.707213
0.281298 0.006260 0.712443
0.402134 0.005427 0.717440
0.523173 0.004635 0.722193
0.644426 0.003885 0.726689
0.765906 0.003181 0.730913
0.887628 0.002526 0.734846
1.000000 0.001923 0.738464
0.025668 0.130134 0.719199
0.146783 0.129357 0.723860
0.268117 0.128623 0.728260
0.389683 0.127937 0.732380
0.511499 0.127300 0.736201
0.633586 0.126717 0.739697
0.755971 0.126194 0.742835
0.878694 0.125739 0.745567
1.000000 0.125363 0.747822
0.013494 0.252699 0.733807
0.135406 0.252081 0.737513
0.257597 0.251519 0.740883
0.380100 0.251020 0.743880
0.502959 0.250592 0.746449
0.626249 0.250250 0.748502
0.750131 0.250026 0.749843
0.875000 0.250000 0.750000
1.000000 0.250000 0.750000
0.004277 0.375855 0.744868
0.127281 0.375456 0.747262
0.250758 0.375152 0.749090
0.375000 0.375000 0.750000
0.500000 0.375000 0.750000
0.625000 0.375000 0.750000
0.750000 0.375000 0.750000
0.875000 0.375000 0.750000
1.000000 0.375000 0.750000
0.000000 0.500000 0.750000
0.125000 0.500000 0.750000
0.250000 0.500000 0.750000
0.375000 0.500000 0.750000
0.500000 0.500000 0.750000
0.625000 0.500000 0.750000
0.750000 0.500000 0.750000
0.875000 0.500000 0.750000
0.999549 0.500300 0.750601
0.000000 0.625000 0.750000
0.125000 0.625000 0.750000
0.250000 0.625000 0.750000
0.375000 0.625000 0.750000
0.499924 0.625051 0.750102
0.624256 0.625496 0.750992
0.748231 0.626179 0.752359
0.871948 0.627035 0.754070
0.995451 0.628033 0.756066
0.000000 0.750000 0.750000
0.124734 0.750177 0.750354
0.248917 0.750722 0.751444
0.372791 0.751473 0.752946
0.496426 0.752383 0.754766
0.619858 0.753428 0.756856
0.743111 0.754593 0.759186
0.866201 0.755866 0.761732
0.989142 0.757239 0.764478
0.000000 0.876787 0.753574
0.120877 0.877749 0.755497
0.244242 0.878839 0.757678
0.367434 0.880044 0.760088
0.490468 0.881355 0.762709
0.613357 0.882762 0.765524
0.736110 0.884260 0.768521
0.858734 0.885844 0.771689
0.981236 0.887510 0.775019
0.000000 1.000000 0.761019
0.114716 1.000000 0.763712
0.237554 1.000000 0.766595
0.360259 1.000000 0.769655
0.482838 1.000000 0.772883
0.605297 1.000000 0.776270
0.727642 1.000000 0.779810
0.849878 1.000000 0.783497
0.972008 1.000000 0.787323
0.038635 0.007727 0.828637
0.159154 0.006831 0.834015
0.279861 0.005972 0.839166
0.400765 0.005153 0.844082
0.521875 0.004375 0.848749
0.643204 0.003641 0.853155
0.764764 0.002953 0.857283
0.886574 0.002315 0.861111
1.000000 0.001731 0.864616
0.024325 0.129865 0.845811
0.145513 0.129103 0.850385
0.266924 0.128385 0.854691
0.388573 0.127715 0.858712
0.510478 0.127096 0.862426
0.632663 0.126533 0.865805
0.755157 0.126031 0.868811
0.878007 0.125601 0.871392
1.000000 0.125257 0.873459
0.012416 0.252483 0.860101
0.134419 0.251884 0.863697
0.256713 0.251343 0.866945
0.379330 0.250866 0.869804
0.502325 0.250465 0.872210
0.625788 0.250158 0.874054
0.750000 0.250000 0.875000
0.875000 0.250000 0.875000
1.000000 0.250000 0.875000
0.003553 0.375711 0.870736
0.126704 0.375341 0.872955
0.250380 0.375076 0.874543
0.375000 0.375000 0.875000
0.500000 0.375000 0.875000
0.625000 0.375000 0.875000
0.750000 0.375000 0.875000
0.875000 0.375000 0.875000
1.000000 0.375000 0.875000
0.000000 0.500000 0.875000
0.125000 0.500000 0.875000
0.250000 0.500000 0.875000
0.375000 0.500000 0.875000
0.500000 0.500000 0.875000
0.625000 0.500000 0.875000
0.750000 0.500000 0.875000
0.874934 0.500044 0.875089
0.999277 0.500482 0.875964
0.000000 0.625000 0.875000
0.125000 0.625000 0.875000
0.250000 0.625000 0.875000
0.375000 0.625000 0.875000
0.499749 0.625167 0.875334
0.623941 0.625706 0.876412
0.747821 0.626452 0.877905
0.871462 0.627359 0.879718
0.994899 0.628401 0.881802
0.000000 0.750000 0.875000
0.124499 0.750334 0.875669
0.248564 0.750957 0.876914
0.372352 0.751765 0.878531
0.495915 0.752724 0.880447
0.619284 0.753811 0.882622
0.742480 0.755013 0.885027
0.865518 0.756321 0.887643
0.988410 0.757726 0.890453
0.000000 0.877098 0.879196
0.120342 0.878105 0.881210
0.243646 0.879236 0.883472
0.366783 0.880478 0.885956
0.489767 0.881822 0.888644
0.612609 0.883261 0.891522
0.735317 0.884789 0.894578
0.857899 0.886401 0.897802
0.980361 0.888093 0.901186
0.000000 1.000000 0.886912
0.113997 1.000000 0.889670
0.236789 1.000000 0.892614
0.359451 1.000000 0.895733
0.481988 1.000000 0.899016
0.604408 1.000000 0.902456
0.726715 1.000000 0.906046
0.848915 1.000000 0.909781
0.971010 1.000000 0.913654
0.037093 0.007419 0.955488
0.157675 0.006535 0.960790
0.278448 0.005690 0.965863
0.399420 0.004884 0.970695
0.520603 0.004121 0.975276
0.642009 0.003402 0.979589
0.763652 0.002730 0.983617
0.885551 0.002110 0.987339
1.000000 0.001546 0.990727
0.023006 0.129601 0.972393
0.144268 0.128854 0.976878
0.265759 0.128152 0.981090
0.387492 0.127498 0.985009
0.509489 0.126898 0.988613
0.631775 0.126355 0.991870
0.754384 0.125877 0.994739
0.877369 0.125474 0.997157
1.000000 0.125164 0.999017
0.011367 0.252273 0.986359
0.133466 0.251693 0.989841
0.255865 0.251173 0.992962
0.378604 0.250721 0.995676
0.501744 0.250349 0.997907
0.625405 0.250081 0.999514
0.750000 0.250000 1.000000
0.875000 0.250000 1.000000
1.000000 0.250000 1.000000
0.002876 0.375575 0.996549
0.126186 0.375237 0.998577
0.250102 0.375020 0.999877
0.375000 0.375000 1.000000
0.500000 0.375000 1.000000
0.625000 0.375000 1.000000
0.750000 0.375000 1.000000
0.875000 0.375000 1.000000
1.000000 0.375000 1.000000
0.000000 0.500000 1.000000
0.125000 0.500000 1.000000
0.250000 0.500000 1.000000
0.375000 0.500000 1.000000
0.500000 0.500000 1.000000
0.625000 0.500000 1.000000
0.750000 0.500000 1.000000
0.874764 0.500157 1.000000
0.998965 0.500690 1.000000
0.000000 0.625000 1.000000
0.125000 0.625000 1.000000
0.250000 0.625000 1.000000
0.375000 0.625000 1.000000
0.499517 0.625322 1.000000
0.623591 0.625939 1.000000
0.747384 0.626744 1.000000
0.870952 0.627698 1.000000
0.994326 0.628783 1.000000
0.000000 0.750063 1.000000
0.124218 0.750522 1.000000
0.248180 0.751213 1.000000
0.371887 0.752075 1.000000
0.495381 0.753079 1.000000
0.618690 0.754207 1.000000
0.741831 0.755446 1.000000
0.864818 0.756788 1.000000
0.987663 0.758225 1.000000
0.000000 0.877425 1.000000
0.119786 0.878476 1.000000
0.243031 0.879646 1.000000
0.366115 0.880923 1.000000
0.489050 0.882300 1.000000
0.611845 0.883770 1.000000
0.734509 0.885327 1.000000
0.857050 0.886967 1.000000
0.979473 0.888685 1.000000
0.000000 1.000000 1.000000
0.113262 1.000000 1.000000
0.236009 1.000000 1.000000
0.358628 1.000000 1.000000
0.481125 1.000000 1.000000
0.603506 1.000000 1.000000
0.725776 1.000000 1.000000
0.847939 1.000000 1.000000
0.970000 1.000000 1.000000
