lut-visualizer/public/data/sample_luts/split_toning_orange_teal.cube
LUT_3D_SIZE 5
DOMAIN_MIN 0.0 0.0 0.0
DOMAIN_MAX 1.0 1.0 1.0
0.050000 0.010000 0.000000
0.290373 0.008075 0.000000
0.531458 0.006292 0.000000
0.773318 0.004664 0.000000
1.000000 0.003207 0.000000
0.020562 0.254112 0.000000
0.263616 0.252723 0.000000
0.507698 0.251540 0.000000
0.753033 0.250607 0.000000
1.000000 0.250032 0.000000
0.001726 0.500345 0.000000
0.250000 0.500000 0.000000
0.500000 0.500000 0.000000
0.750000 0.500000 0.000000
1.000000 0.500000 0.000000
0.000000 0.750000 0.000000
0.250000 0.750000 0.000000
0.498954 0.750698 0.001395
0.746481 0.752346 0.004692
0.993180 0.754547 0.009094
0.000000 1.000000 0.006182
0.241809 1.000000 0.010922
0.487638 1.000000 0.016483
0.732931 1.000000 0.022758
0.977744 1.000000 0.029675
0.046654 0.009331 0.194015
0.287263 0.007453 0.205284
0.528603 0.005721 0.215676
0.770743 0.004149 0.225108
1.000000 0.002755 0.233471
0.018097 0.253619 0.228284
0.261482 0.252296 0.236222
0.505957 0.251191 0.242852
0.751806 0.250361 0.247833
1.000000 0.250000 0.250000
0.000751 0.500150 0.249099
0.250000 0.500000 0.250000
0.500000 0.500000 0.250000
0.750000 0.500000 0.250000
1.000000 0.500000 0.250000
0.000000 0.750000 0.250000
0.249921 0.750052 0.250105
0.498224 0.751184 0.252367
0.745442 0.753039 0.256078
0.991903 0.755398 0.260795
0.000000 1.000000 0.257691
0.240457 1.000000 0.262724
0.486096 1.000000 0.268538
0.731221 1.000000 0.275038
0.975881 1.000000 0.282159
0.043386 0.008677 0.447936
0.284237 0.006847 0.458916
0.525840 0.005168 0.468992
0.768271 0.003654 0.478075
1.000000 0.002326 0.486042
0.015739 0.253148 0.481113
0.259473 0.251895 0.488632
0.504372 0.250874 0.494754
0.750812 0.250162 0.499026
1.000000 0.250000 0.500000
0.000099 0.500020 0.499881
0.250000 0.500000 0.500000
0.500000 0.500000 0.500000
0.750000 0.500000 0.500000
0.999941 0.500040 0.500079
0.000000 0.750000 0.500000
0.249513 0.750325 0.500650
0.497377 0.751749 0.503498
0.744316 0.753789 0.507579
0.990556 0.756296 0.512592
0.000000 1.000000 0.509305
0.239037 1.000000 0.514617
0.484496 1.000000 0.520672
0.729458 1.000000 0.527390
0.973968 1.000000 0.534709
0.040199 0.008040 0.701762
0.281298 0.006260 0.712443
0.523173 0.004635 0.722193
0.765906 0.003181 0.730913
1.000000 0.001923 0.738464
0.013494 0.252699 0.733807
0.257597 0.251519 0.740883
0.502959 0.250592 0.746449
0.750131 0.250026 0.749843
1.000000 0.250000 0.750000
0.000000 0.500000 0.750000
0.250000 0.500000 0.750000
0.500000 0.500000 0.750000
0.750000 0.500000 0.750000
0.999549 0.500300 0.750601
0.000000 0.750000 0.750000
0.248917 0.750722 0.751444
0.496426 0.752383 0.754766
0.743111 0.754593 0.759186
0.989142 0.757239 0.764478
0.000000 1.000000 0.761019
0.237554 1.000000 0.766595
0.482838 1.000000 0.772883
0.727642 1.000000 0.779810
0.972008 1.000000 0.787323
0.037093 0.007419 0.955488
0.278448 0.005690 0.965863
0.520603 0.004121 0.975276
0.763652 0.002730 0.983617
1.000000 0.001546 0.990727
0.011367 0.252273 0.986359
0.255865 0.251173 0.992962
0.501744 0.250349 0.997907
0.750000 0.250000 1.000000
1.000000 0.250000 1.000000
0.000000 0.500000 1.000000
0.250000 0.500000 1.000000
0.500000 0.500000 1.000000
0.750000 0.500000 1.000000
0.998965 0.500690 1.000000
0.000000 0.750063 1.000000
0.248180 0.751213 1.000000
0.495381 0.753079 1.000000
0.741831 0.755446 1.000000
0.987663 0.758225 1.000000
0.000000 1.000000 1.000000
0.236009 1.000000 1.000000
0.481125 1.000000 1.000000
0.725776 1.000000 1.000000
0.970000 1.000000 1.000000
