lut-visualizer/public/data/sample_luts/split_toning_blue_yellow.cube
LUT_3D_SIZE 9
DOMAIN_MIN 0.0 0.0 0.0
DOMAIN_MAX 1.0 1.0 1.0
0.000000 0.000000 0.070000
0.088919 0.000000 0.063141
0.217701 0.000000 0.056522
0.346341 0.000000 0.050153
0.474833 0.000000 0.044042
0.603171 0.000000 0.038201
0.731346 0.000000 0.032645
0.859350 0.000000 0.027388
0.987173 0.000000 0.022447
0.000000 0.111315 0.047897
0.101067 0.113033 0.041883
0.229346 0.114673 0.036145
0.357460 0.116230 0.030695
0.485399 0.117700 0.025551
0.613153 0.119077 0.020732
0.740709 0.120354 0.016260
0.868048 0.121524 0.012166
0.995149 0.122575 0.008489
0.000000 0.241775 0.028786
0.111424 0.243212 0.023758
0.239107 0.244554 0.019062
0.366586 0.245793 0.014724
0.493842 0.246921 0.010777
0.620850 0.247925 0.007263
0.747574 0.248787 0.004246
0.873957 0.249478 0.001825
0.999874 0.249937 0.000221
0.000000 0.371217 0.013240
0.119603 0.372302 0.009445
0.246512 0.373256 0.006103
0.373121 0.374061 0.003288
0.499356 0.374678 0.001127
0.625000 0.375000 0.000000
0.750000 0.375000 0.000000
0.875000 0.375000 0.000000
1.000000 0.375000 0.000000
0.000000 0.499310 0.002416
0.124685 0.499843 0.000551
0.250000 0.500000 0.000000
0.375000 0.500000 0.000000
0.500000 0.500000 0.000000
0.625000 0.500000 0.000000
0.750000 0.500000 0.000000
0.875000 0.500000 0.000000
1.000000 0.500000 0.000000
0.000000 0.625000 0.000000
0.125000 0.625000 0.000000
0.250000 0.625000 0.000000
0.375000 0.625000 0.000000
0.500000 0.625000 0.000000
0.625000 0.625000 0.000000
0.750082 0.625041 0.000000
0.875949 0.625474 0.000000
1.000000 0.626150 0.000000
0.000000 0.750000 0.000000
0.125000 0.750000 0.000000
0.250000 0.750000 0.000000
0.375324 0.750162 0.000000
0.501395 0.750698 0.000000
0.627883 0.751441 0.000000
0.754692 0.752346 0.000000
0.881773 0.753386 0.000000
1.000000 0.754547 0.000000
0.000655 0.875328 0.000000
0.126895 0.875948 0.000000
0.253508 0.876754 0.000000
0.380420 0.877710 0.000000
0.507591 0.878796 0.000000
0.634994 0.879997 0.000000
0.762607 0.881303 0.000000
0.890415 0.882707 0.000000
1.000000 0.884202 0.000000
0.006182 1.000000 0.000000
0.133441 1.000000 0.000000
0.260922 1.000000 0.000000
0.388607 1.000000 0.000000
0.516483 1.000000 0.000000
0.644536 1.000000 0.000000
0.772758 1.000000 0.000000
0.901140 1.000000 0.000000
1.000000 1.000000 0.000000
0.000000 0.000000 0.192644
0.090219 0.000000 0.185866
0.218954 0.000000 0.179331
0.347544 0.000000 0.173048
0.475984 0.000000 0.167027
0.604267 0.000000 0.161282
0.732386 0.000000 0.155825
0.860330 0.000000 0.150673
0.988088 0.000000 0.145845
0.000000 0.111907 0.170825
0.102198 0.113599 0.164903
0.230422 0.115211 0.159261
0.358478 0.116739 0.153913
0.486356 0.118178 0.148877
0.614044 0.119522 0.144173
0.741528 0.120764 0.139826
0.868790 0.121895 0.135868
0.995804 0.122902 0.132344
0.000000 0.242274 0.152043
0.112357 0.243679 0.147125
0.239973 0.244987 0.142547
0.367378 0.246189 0.138338
0.494553 0.247276 0.134532
0.621469 0.248235 0.131179
0.748086 0.249043 0.128350
0.874331 0.249666 0.126170
1.000000 0.250000 0.125000
0.000000 0.371599 0.136903
0.120282 0.372641 0.133256
0.247095 0.373548 0.130083
0.373588 0.374294 0.127472
0.499666 0.374833 0.125585
0.625000 0.375000 0.125000
0.750000 0.375000 0.125000
0.875000 0.375000 0.125000
1.000000 0.375000 0.125000
0.000000 0.499518 0.126687
0.124911 0.499956 0.125155
0.250000 0.500000 0.125000
0.375000 0.500000 0.125000
0.500000 0.500000 0.125000
0.625000 0.500000 0.125000
0.750000 0.500000 0.125000
0.875000 0.500000 0.125000
1.000000 0.500000 0.125000
0.000000 0.625000 0.125000
0.125000 0.625000 0.125000
0.250000 0.625000 0.125000
0.375000 0.625000 0.125000
0.500000 0.625000 0.125000
0.625000 0.625000 0.125000
0.750304 0.625152 0.124467
0.876363 0.625682 0.122614
1.000000 0.626421 0.120026
0.000000 0.750000 0.125000
0.125000 0.750000 0.125000
0.250000 0.750000 0.125000
0.375631 0.750315 0.123896
0.501860 0.750930 0.121745
0.628464 0.751732 0.118938
0.755370 0.752685 0.115602
0.882535 0.753768 0.111813
1.000000 0.754966 0.107618
0.001028 0.875514 0.123202
0.127406 0.876203 0.120790
0.254126 0.877063 0.117780
0.381130 0.878065 0.114272
0.508383 0.879191 0.110331
0.635858 0.880429 0.105998
0.763539 0.881770 0.101306
0.891410 0.883205 0.096282
1.000000 0.884730 0.090946
0.006923 1.000000 0.112885
0.134259 1.000000 0.108796
0.261812 1.000000 0.104330
0.389563 1.000000 0.099514
0.517500 1.000000 0.094374
0.645612 1.000000 0.088929
0.773889 1.000000 0.083194
0.902324 1.000000 0.077184
1.000000 1.000000 0.070910
0.000000 0.000000 0.315316
0.091503 0.000000 0.308619
0.220190 0.000000 0.302168
0.348730 0.000000 0.295973
0.477117 0.000000 0.290045
0.605345 0.000000 0.284396
0.733405 0.000000 0.279040
0.861288 0.000000 0.273996
0.988981 0.000000 0.269283
0.000000 0.112490 0.293783
0.103311 0.114156 0.287955
0.231479 0.115740 0.282411
0.359476 0.117238 0.277167
0.487291 0.118645 0.272241
0.614912 0.119956 0.267655
0.742322 0.121161 0.263436
0.869503 0.122251 0.259620
0.996426 0.123213 0.256255
0.000000 0.242761 0.275336
0.113268 0.244134 0.270531
0.240814 0.245407 0.266075
0.368144 0.246572 0.261998
0.495234 0.247617 0.258340
0.622054 0.248527 0.255155
0.748556 0.249278 0.252528
0.874646 0.249823 0.250620
1.000000 0.250000 0.250000
0.000000 0.371967 0.260615
0.120930 0.372965 0.257122
0.247641 0.373821 0.254128
0.374008 0.374504 0.251737
0.499898 0.374949 0.250178
0.625000 0.375000 0.250000
0.750000 0.375000 0.250000
0.875000 0.375000 0.250000
1.000000 0.375000 0.250000
0.000000 0.499700 0.251051
0.125000 0.500000 0.250000
0.250000 0.500000 0.250000
0.375000 0.500000 0.250000
0.500000 0.500000 0.250000
0.625000 0.500000 0.250000
0.750000 0.500000 0.250000
0.875000 0.500000 0.250000
1.000000 0.500000 0.250000
0.000000 0.625000 0.250000
0.125000 0.625000 0.250000
0.250000 0.625000 0.250000
0.375000 0.625000 0.250000
0.500000 0.625000 0.250000
0.625000 0.625000 0.250000
0.750606 0.625303 0.248939
0.876825 0.625913 0.246806
1.000000 0.626711 0.244013
0.000000 0.750000 0.250000
0.125000 0.750000 0.250000
0.250105 0.750052 0.249817
0.375999 0.750499 0.248252
0.502367 0.751184 0.245857
0.629080 0.752040 0.242860
0.756078 0.753039 0.239364
0.883325 0.754162 0.235432
1.000000 0.755398 0.231108
0.001452 0.875726 0.247459
0.127955 0.876478 0.244829
0.254777 0.877388 0.241641
0.381869 0.878434 0.237980
0.509199 0.879600 0.233901
0.636747 0.880873 0.229443
0.764494 0.882247 0.224636
0.892426 0.883713 0.219504
1.000000 0.885267 0.214065
0.007691 1.000000 0.236541
0.135103 1.000000 0.232320
0.262724 1.000000 0.227732
0.390540 1.000000 0.222804
0.518538 1.000000 0.217558
0.646707 1.000000 0.212013
0.775038 1.000000 0.206183
0.903524 1.000000 0.200082
1.000000 1.000000 0.193722
0.000000 0.000000 0.438014
0.092771 0.000000 0.431400
0.221409 0.000000 0.425035
0.349898 0.000000 0.418929
0.478232 0.000000 0.413094
0.606404 0.000000 0.407543
0.734405 0.000000 0.402292
0.862224 0.000000 0.397357
0.989850 0.000000 0.392763
0.000000 0.113065 0.416773
0.104406 0.114703 0.411040
0.232517 0.116258 0.405596
0.360453 0.117726 0.400457
0.488203 0.119102 0.395644
0.615755 0.120377 0.391179
0.743090 0.121545 0.387093
0.870186 0.122593 0.383424
0.997013 0.123507 0.380226
0.000000 0.243238 0.398666
0.114156 0.244578 0.393977
0.241631 0.245815 0.389646
0.368882 0.246941 0.385706
0.495885 0.247942 0.382202
0.622603 0.248802 0.379194
0.748979 0.249490 0.376787
0.874885 0.249942 0.375202
1.000000 0.250000 0.375000
0.000000 0.372321 0.384377
0.121546 0.373273 0.381045
0.248148 0.374074 0.378241
0.374375 0.374688 0.376094
0.500000 0.375000 0.375000
0.625000 0.375000 0.375000
0.750000 0.375000 0.375000
0.875000 0.375000 0.375000
1.000000 0.375000 0.375000
0.000000 0.499850 0.375525
0.125000 0.500000 0.375000
0.250000 0.500000 0.375000
0.375000 0.500000 0.375000
0.500000 0.500000 0.375000
0.625000 0.500000 0.375000
0.750000 0.500000 0.375000
0.875000 0.500000 0.375000
1.000000 0.500000 0.375000
0.000000 0.625000 0.375000
0.125000 0.625000 0.375000
0.250000 0.625000 0.375000
0.375000 0.625000 0.375000
0.500000 0.625000 0.375000
0.625092 0.625046 0.374840
0.750971 0.625485 0.373302
0.877330 0.626165 0.370923
1.000000 0.627017 0.367939
0.000000 0.750000 0.375000
0.125000 0.750000 0.375000
0.250339 0.750169 0.374407
0.376420 0.750710 0.372516
0.502914 0.751457 0.369900
0.629729 0.752364 0.366725
0.756814 0.753407 0.363075
0.884140 0.754570 0.359006
1.000000 0.755841 0.354557
0.001922 0.875961 0.371636
0.128541 0.876770 0.368803
0.255459 0.877729 0.365447
0.382635 0.878817 0.361639
0.510041 0.880021 0.357428
0.637658 0.881329 0.352849
0.765469 0.882735 0.347929
0.893463 0.884231 0.342690
1.000000 0.885814 0.337152
0.008485 1.000000 0.360151
0.135970 1.000000 0.355802
0.263660 1.000000 0.351096
0.391539 1.000000 0.346057
0.519595 1.000000 0.340708
0.647820 1.000000 0.335064
0.776205 1.000000 0.329141
0.904742 1.000000 0.322951
1.000000 1.000000 0.316505
0.000000 0.000000 0.560741
0.094023 0.000000 0.554210
0.222610 0.000000 0.547932
0.351048 0.000000 0.541917
0.479328 0.000000 0.536177
0.607443 0.000000 0.530725
0.735383 0.000000 0.525579
0.863138 0.000000 0.520758
0.990695 0.000000 0.516284
0.000000 0.113630 0.539794
0.105481 0.115241 0.534158
0.233534 0.116767 0.528816
0.361408 0.118204 0.523785
0.489093 0.119546 0.519087
0.616573 0.120786 0.514747
0.743830 0.121915 0.510798
0.870839 0.122919 0.507282
0.997565 0.123782 0.504261
0.000000 0.243704 0.522035
0.115020 0.245010 0.517464
0.242421 0.246211 0.513262
0.369592 0.247296 0.509465
0.496502 0.248251 0.506121
0.623113 0.249056 0.503302
0.749350 0.249675 0.501137
0.875000 0.250000 0.500000
1.000000 0.250000 0.500000
0.000000 0.372660 0.508192
0.122126 0.373563 0.505029
0.248612 0.374306 0.502429
0.374681 0.374840 0.500559
0.500000 0.375000 0.500000
0.625000 0.375000 0.500000
0.750000 0.375000 0.500000
0.875000 0.375000 0.500000
1.000000 0.375000 0.500000
0.000000 0.499960 0.500138
0.125000 0.500000 0.500000
0.250000 0.500000 0.500000
0.375000 0.500000 0.500000
0.500000 0.500000 0.500000
0.625000 0.500000 0.500000
0.750000 0.500000 0.500000
0.875000 0.500000 0.500000
1.000000 0.500040 0.499862
0.000000 0.625000 0.500000
0.125000 0.625000 0.500000
0.250000 0.625000 0.500000
0.375000 0.625000 0.500000
0.500000 0.625000 0.500000
0.625319 0.625160 0.499441
0.751388 0.625694 0.497571
0.877874 0.626437 0.494971
1.000000 0.627340 0.491808
0.000000 0.750000 0.500000
0.125000 0.750000 0.500000
0.250650 0.750325 0.498863
0.376887 0.750944 0.496698
0.503498 0.751749 0.493879
0.630408 0.752704 0.490535
0.757579 0.753789 0.486738
0.884980 0.754990 0.482536
1.000000 0.756296 0.477965
0.002435 0.876218 0.495739
0.129161 0.877081 0.492718
0.256170 0.878085 0.489202
0.383427 0.879214 0.485253
0.510907 0.880454 0.480913
0.638592 0.881796 0.476215
0.766466 0.883233 0.471184
0.894519 0.884759 0.465842
1.000000 0.886370 0.460206
0.009305 1.000000 0.483716
0.136862 1.000000 0.479242
0.264617 1.000000 0.474421
0.392557 1.000000 0.469275
0.520672 1.000000 0.463823
0.648952 1.000000 0.458083
0.777390 1.000000 0.452068
0.905977 1.000000 0.445790
1.000000 1.000000 0.439259
0.000000 0.000000 0.683495
0.095258 0.000000 0.677049
0.223795 0.000000 0.670859
0.352180 0.000000 0.664936
0.480405 0.000000 0.659292
0.608461 0.000000 0.653943
0.736340 0.000000 0.648904
0.864030 0.000000 0.644198
0.991515 0.000000 0.639849
0.000000 0.114186 0.662848
0.106537 0.115769 0.657310
0.234531 0.117265 0.652071
0.362342 0.118671 0.647151
0.489959 0.119979 0.642572
0.617365 0.121183 0.638361
0.744541 0.122271 0.634553
0.871459 0.123230 0.631197
0.998078 0.124039 0.628364
0.000000 0.244159 0.645443
0.115860 0.245430 0.640994
0.243186 0.246593 0.636925
0.370271 0.247636 0.633275
0.497086 0.248543 0.630100
0.623580 0.249290 0.627484
0.749661 0.249831 0.625593
0.875000 0.250000 0.625000
1.000000 0.250000 0.625000
0.000000 0.372983 0.632061
0.122670 0.373835 0.629077
0.249029 0.374515 0.626698
0.374908 0.374954 0.625160
0.500000 0.375000 0.625000
0.625000 0.375000 0.625000
0.750000 0.375000 0.625000
0.875000 0.375000 0.625000
1.000000 0.375000 0.625000
0.000000 0.500000 0.625000
0.125000 0.500000 0.625000
0.250000 0.500000 0.625000
0.375000 0.500000 0.625000
0.500000 0.500000 0.625000
0.625000 0.500000 0.625000
0.750000 0.500000 0.625000
0.875000 0.500000 0.625000
1.000000 0.500150 0.624475
0.000000 0.625000 0.625000
0.125000 0.625000 0.625000
0.250000 0.625000 0.625000
0.375000 0.625000 0.625000
0.500000 0.625000 0.625000
0.625625 0.625313 0.623906
0.751852 0.625926 0.621759
0.878454 0.626727 0.618955
1.000000 0.627679 0.615623
0.000000 0.750000 0.625000
0.125115 0.750058 0.624798
0.251021 0.750510 0.623213
0.377397 0.751198 0.620806
0.504115 0.752058 0.617798
0.631118 0.753059 0.614294
0.758369 0.754185 0.610354
0.885844 0.755422 0.606023
1.000000 0.756762 0.601334
0.002987 0.876493 0.619774
0.129814 0.877407 0.616576
0.256910 0.878455 0.612907
0.384245 0.879623 0.608821
0.511797 0.880898 0.604356
0.639547 0.882274 0.599543
0.767483 0.883742 0.594404
0.895594 0.885297 0.588960
1.000000 0.886935 0.583227
0.010150 1.000000 0.607237
0.137776 1.000000 0.602643
0.265595 1.000000 0.597708
0.393596 1.000000 0.592457
0.521768 1.000000 0.586906
0.650102 1.000000 0.581071
0.778591 1.000000 0.574965
0.907229 1.000000 0.568600
1.000000 1.000000 0.561986
0.000000 0.000000 0.806278
0.096476 0.000000 0.799918
0.224962 0.000000 0.793817
0.353293 0.000000 0.787987
0.481462 0.000000 0.782442
0.609460 0.000000 0.777196
0.737276 0.000000 0.772268
0.864897 0.000000 0.767680
0.992309 0.000000 0.763459
0.000000 0.114733 0.785935
0.107574 0.116287 0.780496
0.235506 0.117753 0.775364
0.363253 0.119127 0.770557
0.490801 0.120400 0.766099
0.618131 0.121566 0.762020
0.745223 0.122612 0.758359
0.872045 0.123522 0.755171
0.998548 0.124274 0.752541
0.000000 0.244602 0.768892
0.116675 0.245838 0.764568
0.243922 0.246961 0.760636
0.370920 0.247960 0.757140
0.497633 0.248816 0.754143
0.624001 0.249501 0.751748
0.749895 0.249948 0.750183
0.875000 0.250000 0.750000
1.000000 0.250000 0.750000
0.000000 0.373289 0.755987
0.123175 0.374087 0.753194
0.249394 0.374697 0.751061
0.375000 0.375000 0.750000
0.500000 0.375000 0.750000
0.625000 0.375000 0.750000
0.750000 0.375000 0.750000
0.875000 0.375000 0.750000
1.000000 0.375000 0.750000
0.000000 0.500000 0.750000
0.125000 0.500000 0.750000
0.250000 0.500000 0.750000
0.375000 0.500000 0.750000
0.500000 0.500000 0.750000
0.625000 0.500000 0.750000
0.750000 0.500000 0.750000
0.875000 0.500000 0.750000
1.000000 0.500300 0.748949
0.000000 0.625000 0.750000
0.125000 0.625000 0.750000
0.250000 0.625000 0.750000
0.375000 0.625000 0.750000
0.500102 0.625051 0.749822
0.625992 0.625496 0.748263
0.752359 0.626179 0.745872
0.879070 0.627035 0.742878
1.000000 0.628033 0.739385
0.000000 0.750000 0.750000
0.125354 0.750177 0.749380
0.251444 0.750722 0.747472
0.377946 0.751473 0.744845
0.504766 0.752383 0.741660
0.631856 0.753428 0.738002
0.759186 0.754593 0.733925
0.886732 0.755866 0.729469
1.000000 0.757239 0.724664
0.003574 0.876787 0.743745
0.130497 0.877749 0.740380
0.257678 0.878839 0.736564
0.385088 0.880044 0.732345
0.512709 0.881355 0.727759
0.640524 0.882762 0.722833
0.768521 0.884260 0.717589
0.896689 0.885844 0.712045
1.000000 0.887510 0.706217
0.011019 1.000000 0.730717
0.138712 1.000000 0.726004
0.266595 1.000000 0.720960
0.394655 1.000000 0.715604
0.522883 1.000000 0.709955
0.651270 1.000000 0.704027
0.779810 1.000000 0.697832
0.908497 1.000000 0.691381
1.000000 1.000000 0.684684
0.000000 0.000000 0.929090
0.097676 0.000000 0.922816
0.226111 0.000000 0.916806
0.354388 0.000000 0.911071
0.482500 0.000000 0.905626
0.610437 0.000000 0.900486
0.738188 0.000000 0.895670
0.865741 0.000000 0.891204
0.993077 0.000000 0.887115
0.000000 0.115270 0.909054
0.108590 0.116795 0.903718
0.236461 0.118230 0.898694
0.364142 0.119571 0.894002
0.491617 0.120809 0.889669
0.618870 0.121935 0.885728
0.745874 0.122937 0.882220
0.872594 0.123797 0.879210
0.998972 0.124486 0.876798
0.000000 0.245034 0.892382
0.117465 0.246232 0.888187
0.244630 0.247315 0.884398
0.371536 0.248268 0.881062
0.498140 0.249070 0.878255
0.624369 0.249685 0.876104
0.750000 0.250000 0.875000
0.875000 0.250000 0.875000
1.000000 0.250000 0.875000
0.000000 0.373579 0.879974
0.123637 0.374318 0.877386
0.249696 0.374848 0.875533
0.375000 0.375000 0.875000
0.500000 0.375000 0.875000
0.625000 0.375000 0.875000
0.750000 0.375000 0.875000
0.875000 0.375000 0.875000
1.000000 0.375000 0.875000
0.000000 0.500000 0.875000
0.125000 0.500000 0.875000
0.250000 0.500000 0.875000
0.375000 0.500000 0.875000
0.500000 0.500000 0.875000
0.625000 0.500000 0.875000
0.750000 0.500000 0.875000
0.875089 0.500044 0.874845
1.000000 0.500482 0.873313
0.000000 0.625000 0.875000
0.125000 0.625000 0.875000
0.250000 0.625000 0.875000
0.375000 0.625000 0.875000
0.500334 0.625167 0.874415
0.626412 0.625706 0.872528
0.752905 0.626452 0.869917
0.879718 0.627359 0.866744
1.000000 0.628401 0.863097
0.000000 0.750000 0.875000
0.125669 0.750334 0.873830
0.251914 0.750957 0.871650
0.378531 0.751765 0.868821
0.505447 0.752724 0.865468
0.632622 0.753811 0.861662
0.760027 0.755013 0.857453
0.887643 0.756321 0.852875
1.000000 0.757726 0.847957
0.004196 0.877098 0.867656
0.131210 0.878105 0.864132
0.258472 0.879236 0.860174
0.385956 0.880478 0.855827
0.513644 0.881822 0.851123
0.641522 0.883261 0.846087
0.769578 0.884789 0.840739
0.897802 0.886401 0.835097
1.000000 0.888093 0.829175
0.011912 1.000000 0.854155
0.139670 1.000000 0.849327
0.267614 1.000000 0.844175
0.395733 1.000000 0.838718
0.524016 1.000000 0.832973
0.652456 1.000000 0.826952
0.781046 1.000000 0.820669
0.909781 1.000000 0.814134
1.000000 1.000000 0.807356
0.000000 0.000000 1.000000
0.098860 0.000000 1.000000
0.227242 0.000000 1.000000
0.355464 0.000000 1.000000
0.483517 0.000000 1.000000
0.611393 0.000000 1.000000
0.739078 0.000000 1.000000
0.866559 0.000000 1.000000
0.993818 0.000000 1.000000
0.000000 0.115798 1.000000
0.109585 0.117293 1.000000
0.237393 0.118697 1.000000
0.365006 0.120003 1.000000
0.492409 0.121204 1.000000
0.619580 0.122290 1.000000
0.746492 0.123246 1.000000
0.873105 0.124052 1.000000
0.999345 0.124672 1.000000
0.000000 0.245453 1.000000
0.118227 0.246614 1.000000
0.245308 0.247654 1.000000
0.372117 0.248559 1.000000
0.498605 0.249302 1.000000
0.624676 0.249838 1.000000
0.750000 0.250000 1.000000
0.875000 0.250000 1.000000
1.000000 0.250000 1.000000
0.000000 0.373850 1.000000
0.124051 0.374526 1.000000
0.249918 0.374959 1.000000
0.375000 0.375000 1.000000
0.500000 0.375000 1.000000
0.625000 0.375000 1.000000
0.750000 0.375000 1.000000
0.875000 0.375000 1.000000
1.000000 0.375000 1.000000
0.000000 0.500000 1.000000
0.125000 0.500000 1.000000
0.250000 0.500000 1.000000
0.375000 0.500000 1.000000
0.500000 0.500000 1.000000
0.625000 0.500000 1.000000
0.750000 0.500000 1.000000
0.875315 0.500157 0.999449
1.000000 0.500690 0.997584
0.000000 0.625000 1.000000
0.125000 0.625000 1.000000
0.250000 0.625000 1.000000
0.375000 0.625000 1.000000
0.500644 0.625322 0.998873
0.626879 0.625939 0.996712
0.753488 0.626744 0.993897
0.880397 0.627698 0.990555
1.000000 0.628783 0.986760
0.000126 0.750063 0.999779
0.126043 0.750522 0.998175
0.252426 0.751213 0.995754
0.379150 0.752075 0.992737
0.506158 0.753079 0.989223
0.633414 0.754207 0.985276
0.760893 0.755446 0.980938
0.888576 0.756788 0.976242
1.000000 0.758225 0.971214
0.004851 0.877425 0.991511
0.131952 0.878476 0.987834
0.259291 0.879646 0.983740
0.386847 0.880923 0.979268
0.514601 0.882300 0.974449
0.642540 0.883770 0.969305
0.770654 0.885327 0.963855
0.898933 0.886967 0.958117
1.000000 0.888685 0.952103
0.012827 1.000000 0.977553
0.140650 1.000000 0.972612
0.268654 1.000000 0.967355
0.396829 1.000000 0.961799
0.525167 1.000000 0.955958
0.653659 1.000000 0.949847
0.782299 1.000000 0.943478
0.911081 1.000000 0.936859
1.000000 1.000000 0.930000
