lut-visualizer/public/data/sample_luts/vintage_fade.cube
LUT_3D_SIZE 9
DOMAIN_MIN 0.0 0.0 0.0
DOMAIN_MAX 1.0 1.0 1.0
0.070000 0.050000 0.030000
0.146378 0.056378 0.036378
0.222756 0.062756 0.042756
0.299134 0.069134 0.049134
0.375512 0.075512 0.055512
0.451890 0.081890 0.061890
0.528268 0.088268 0.068268
0.604646 0.094646 0.074646
0.681024 0.101024 0.081024
0.091456 0.141456 0.051456
0.167834 0.147834 0.057834
0.244212 0.154212 0.064212
0.320590 0.160590 0.070590
0.396968 0.166968 0.076968
0.473346 0.173346 0.083346
0.549724 0.179724 0.089724
0.626102 0.186102 0.096102
0.702480 0.192480 0.102480
0.112912 0.232912 0.072912
0.189290 0.239290 0.079290
0.265668 0.245668 0.085668
0.342046 0.252046 0.092046
0.418424 0.258424 0.098424
0.494802 0.264802 0.104802
0.571180 0.271180 0.111180
0.647558 0.277558 0.117558
0.723936 0.283936 0.123936
0.134368 0.324368 0.094368
0.210746 0.330746 0.100746
0.287124 0.337124 0.107124
0.363502 0.343502 0.113502
0.439880 0.349880 0.119880
0.516258 0.356258 0.126258
0.592636 0.362636 0.132636
0.669014 0.369014 0.139014
0.745392 0.375392 0.145392
0.155824 0.415824 0.115824
0.232202 0.422202 0.122202
0.308580 0.428580 0.128580
0.384958 0.434958 0.134958
0.461336 0.441336 0.141336
0.537714 0.447714 0.147714
0.614092 0.454092 0.154092
0.690470 0.460470 0.160470
0.766848 0.466848 0.166848
0.177280 0.507280 0.137280
0.253658 0.513658 0.143658
0.330036 0.520036 0.150036
0.406414 0.526414 0.156414
0.482792 0.532792 0.162792
0.559170 0.539170 0.169170
0.635548 0.545548 0.175548
0.711926 0.551926 0.181926
0.788304 0.558304 0.188304
0.198736 0.598736 0.158736
0.275114 0.605114 0.165114
0.351492 0.611492 0.171492
0.427870 0.617870 0.177870
0.504248 0.624248 0.184248
0.580626 0.630626 0.190626
0.657004 0.637004 0.197004
0.733382 0.643382 0.203382
0.809760 0.649760 0.209760
0.220192 0.690192 0.180192
0.296570 0.696570 0.186570
0.372948 0.702948 0.192948
0.449326 0.709326 0.199326
0.525704 0.715704 0.205704
0.602082 0.722082 0.212082
0.678460 0.728460 0.218460
0.754838 0.734838 0.224838
0.831216 0.741216 0.231216
0.241648 0.781648 0.201648
0.318026 0.788026 0.208026
0.394404 0.794404 0.214404
0.470782 0.800782 0.220782
0.547160 0.807160 0.227160
0.623538 0.813538 0.233538
0.699916 0.819916 0.239916
0.776294 0.826294 0.246294
0.852672 0.832672 0.252672
0.072166 0.052166 0.102166
0.148544 0.058544 0.108544
0.224922 0.064922 0.114922
0.301300 0.071300 0.121300
0.377678 0.077678 0.127678
0.454056 0.084056 0.134056
0.530434 0.090434 0.140434
0.606812 0.096812 0.146812
0.683190 0.103190 0.153190
0.093622 0.143622 0.123622
0.170000 0.150000 0.130000
0.246378 0.156378 0.136378
0.322756 0.162756 0.142756
0.399134 0.169134 0.149134
0.475512 0.175512 0.155512
0.551890 0.181890 0.161890
0.628268 0.188268 0.168268
0.704646 0.194646 0.174646
0.115078 0.235078 0.145078
0.191456 0.241456 0.151456
0.267834 0.247834 0.157834
0.344212 0.254212 0.164212
0.420590 0.260590 0.170590
0.496968 0.266968 0.176968
0.573346 0.273346 0.183346
0.649724 0.279724 0.189724
0.726102 0.286102 0.196102
0.136534 0.326534 0.166534
0.212912 0.332912 0.172912
0.289290 0.339290 0.179290
0.365668 0.345668 0.185668
0.442046 0.352046 0.192046
0.518424 0.358424 0.198424
0.594802 0.364802 0.204802
0.671180 0.371180 0.211180
0.747558 0.377558 0.217558
0.157990 0.417990 0.187990
0.234368 0.424368 0.194368
0.310746 0.430746 0.200746
0.387124 0.437124 0.207124
0.463502 0.443502 0.213502
0.539880 0.449880 0.219880
0.616258 0.456258 0.226258
0.692636 0.462636 0.232636
0.769014 0.469014 0.239014
0.179446 0.509446 0.209446
0.255824 0.515824 0.215824
0.332202 0.522202 0.222202
0.408580 0.528580 0.228580
0.484958 0.534958 0.234958
0.561336 0.541336 0.241336
0.637714 0.547714 0.247714
0.714092 0.554092 0.254092
0.790470 0.560470 0.260470
0.200902 0.600902 0.230902
0.277280 0.607280 0.237280
0.353658 0.613658 0.243658
0.430036 0.620036 0.250036
0.506414 0.626414 0.256414
0.582792 0.632792 0.262792
0.659170 0.639170 0.269170
0.735548 0.645548 0.275548
0.811926 0.651926 0.281926
0.222358 0.692358 0.252358
0.298736 0.698736 0.258736
0.375114 0.705114 0.265114
0.451492 0.711492 0.271492
0.527870 0.717870 0.277870
0.604248 0.724248 0.284248
0.680626 0.730626 0.290626
0.757004 0.737004 0.297004
0.833382 0.743382 0.303382
0.243814 0.783814 0.273814
0.320192 0.790192 0.280192
0.396570 0.796570 0.286570
0.472948 0.802948 0.292948
0.549326 0.809326 0.299326
0.625704 0.815704 0.305704
0.702082 0.822082 0.312082
0.778460 0.828460 0.318460
0.854838 0.834838 0.324838
0.074332 0.054332 0.174332
0.150710 0.060710 0.180710
0.227088 0.067088 0.187088
0.303466 0.073466 0.193466
0.379844 0.079844 0.199844
0.456222 0.086222 0.206222
0.532600 0.092600 0.212600
0.608978 0.098978 0.218978
0.685356 0.105356 0.225356
0.095788 0.145788 0.195788
0.172166 0.152166 0.202166
0.248544 0.158544 0.208544
0.324922 0.164922 0.214922
0.401300 0.171300 0.221300
0.477678 0.177678 0.227678
0.554056 0.184056 0.234056
0.630434 0.190434 0.240434
0.706812 0.196812 0.246812
0.117244 0.237244 0.217244
0.193622 0.243622 0.223622
0.270000 0.250000 0.230000
0.346378 0.256378 0.236378
0.422756 0.262756 0.242756
0.499134 0.269134 0.249134
0.575512 0.275512 0.255512
0.651890 0.281890 0.261890
0.728268 0.288268 0.268268
0.138700 0.328700 0.238700
0.215078 0.335078 0.245078
0.291456 0.341456 0.251456
0.367834 0.347834 0.257834
0.444212 0.354212 0.264212
0.520590 0.360590 0.270590
0.596968 0.366968 0.276968
0.673346 0.373346 0.283346
0.749724 0.379724 0.289724
0.160156 0.420156 0.260156
0.236534 0.426534 0.266534
0.312912 0.432912 0.272912
0.389290 0.439290 0.279290
0.465668 0.445668 0.285668
0.542046 0.452046 0.292046
0.618424 0.458424 0.298424
0.694802 0.464802 0.304802
0.771180 0.471180 0.311180
0.181612 0.511612 0.281612
0.257990 0.517990 0.287990
0.334368 0.524368 0.294368
0.410746 0.530746 0.300746
0.487124 0.537124 0.307124
0.563502 0.543502 0.313502
0.639880 0.549880 0.319880
0.716258 0.556258 0.326258
0.792636 0.562636 0.332636
0.203068 0.603068 0.303068
0.279446 0.609446 0.309446
0.355824 0.615824 0.315824
0.432202 0.622202 0.322202
0.508580 0.628580 0.328580
0.584958 0.634958 0.334958
0.661336 0.641336 0.341336
0.737714 0.647714 0.347714
0.814092 0.654092 0.354092
0.224524 0.694524 0.324524
0.300902 0.700902 0.330902
0.377280 0.707280 0.337280
0.453658 0.713658 0.343658
0.530036 0.720036 0.350036
0.606414 0.726414 0.356414
0.682792 0.732792 0.362792
0.759170 0.739170 0.369170
0.835548 0.745548 0.375548
0.245980 0.785980 0.345980
0.322358 0.792358 0.352358
0.398736 0.798736 0.358736
0.475114 0.805114 0.365114
0.551492 0.811492 0.371492
0.627870 0.817870 0.377870
0.704248 0.824248 0.384248
0.780626 0.830626 0.390626
0.857004 0.837004 0.397004
0.076498 0.056498 0.246498
0.152876 0.062876 0.252876
0.229254 0.069254 0.259254
0.305632 0.075632 0.265632
0.382010 0.082010 0.272010
0.458388 0.088388 0.278388
0.534766 0.094766 0.284766
0.611144 0.101144 0.291144
0.687522 0.107522 0.297522
0.097954 0.147954 0.267954
0.174332 0.154332 0.274332
0.250710 0.160710 0.280710
0.327088 0.167088 0.287088
0.403466 0.173466 0.293466
0.479844 0.179844 0.299844
0.556222 0.186222 0.306222
0.632600 0.192600 0.312600
0.708978 0.198978 0.318978
0.119410 0.239410 0.289410
0.195788 0.245788 0.295788
0.272166 0.252166 0.302166
0.348544 0.258544 0.308544
0.424922 0.264922 0.314922
0.501300 0.271300 0.321300
0.577678 0.277678 0.327678
0.654056 0.284056 0.334056
0.730434 0.290434 0.340434
0.140866 0.330866 0.310866
0.217244 0.337244 0.317244
0.293622 0.343622 0.323622
0.370000 0.350000 0.330000
0.446378 0.356378 0.336378
0.522756 0.362756 0.342756
0.599134 0.369134 0.349134
0.675512 0.375512 0.355512
0.751890 0.381890 0.361890
0.162322 0.422322 0.332322
0.238700 0.428700 0.338700
0.315078 0.435078 0.345078
0.391456 0.441456 0.351456
0.467834 0.447834 0.357834
0.544212 0.454212 0.364212
0.620590 0.460590 0.370590
0.696968 0.466968 0.376968
0.773346 0.473346 0.383346
0.183778 0.513778 0.353778
0.260156 0.520156 0.360156
0.336534 0.526534 0.366534
0.412912 0.532912 0.372912
0.489290 0.539290 0.379290
0.565668 0.545668 0.385668
0.642046 0.552046 0.392046
0.718424 0.558424 0.398424
0.794802 0.564802 0.404802
0.205234 0.605234 0.375234
0.281612 0.611612 0.381612
0.357990 0.617990 0.387990
0.434368 0.624368 0.394368
0.510746 0.630746 0.400746
0.587124 0.637124 0.407124
0.663502 0.643502 0.413502
0.739880 0.649880 0.419880
0.816258 0.656258 0.426258
0.226690 0.696690 0.396690
0.303068 0.703068 0.403068
0.379446 0.709446 0.409446
0.455824 0.715824 0.415824
0.532202 0.722202 0.422202
0.608580 0.728580 0.428580
0.684958 0.734958 0.434958
0.761336 0.741336 0.441336
0.837714 0.747714 0.447714
0.248146 0.788146 0.418146
0.324524 0.794524 0.424524
0.400902 0.800902 0.430902
0.477280 0.807280 0.437280
0.553658 0.813658 0.443658
0.630036 0.820036 0.450036
0.706414 0.826414 0.456414
0.782792 0.832792 0.462792
0.859170 0.839170 0.469170
0.078664 0.058664 0.318664
0.155042 0.065042 0.325042
0.231420 0.071420 0.331420
0.307798 0.077798 0.337798
0.384176 0.084176 0.344176
0.460554 0.090554 0.350554
0.536932 0.096932 0.356932
0.613310 0.103310 0.363310
0.689688 0.109688 0.369688
0.100120 0.150120 0.340120
0.176498 0.156498 0.346498
0.252876 0.162876 0.352876
0.329254 0.169254 0.359254
0.405632 0.175632 0.365632
0.482010 0.182010 0.372010
0.558388 0.188388 0.378388
0.634766 0.194766 0.384766
0.711144 0.201144 0.391144
0.121576 0.241576 0.361576
0.197954 0.247954 0.367954
0.274332 0.254332 0.374332
0.350710 0.260710 0.380710
0.427088 0.267088 0.387088
0.503466 0.273466 0.393466
0.579844 0.279844 0.399844
0.656222 0.286222 0.406222
0.732600 0.292600 0.412600
0.143032 0.333032 0.383032
0.219410 0.339410 0.389410
0.295788 0.345788 0.395788
0.372166 0.352166 0.402166
0.448544 0.358544 0.408544
0.524922 0.364922 0.414922
0.601300 0.371300 0.421300
0.677678 0.377678 0.427678
0.754056 0.384056 0.434056
0.164488 0.424488 0.404488
0.240866 0.430866 0.410866
0.317244 0.437244 0.417244
0.393622 0.443622 0.423622
0.470000 0.450000 0.430000
0.546378 0.456378 0.436378
0.622756 0.462756 0.442756
0.699134 0.469134 0.449134
0.775512 0.475512 0.455512
0.185944 0.515944 0.425944
0.262322 0.522322 0.432322
0.338700 0.528700 0.438700
0.415078 0.535078 0.445078
0.491456 0.541456 0.451456
0.567834 0.547834 0.457834
0.644212 0.554212 0.464212
0.720590 0.560590 0.470590
0.796968 0.566968 0.476968
0.207400 0.607400 0.447400
0.283778 0.613778 0.453778
0.360156 0.620156 0.460156
0.436534 0.626534 0.466534
0.512912 0.632912 0.472912
0.589290 0.639290 0.479290
0.665668 0.645668 0.485668
0.742046 0.652046 0.492046
0.818424 0.658424 0.498424
0.228856 0.698856 0.468856
0.305234 0.705234 0.475234
0.381612 0.711612 0.481612
0.457990 0.717990 0.487990
0.534368 0.724368 0.494368
0.610746 0.730746 0.500746
0.687124 0.737124 0.507124
0.763502 0.743502 0.513502
0.839880 0.749880 0.519880
0.250312 0.790312 0.490312
0.326690 0.796690 0.496690
0.403068 0.803068 0.503068
0.479446 0.809446 0.509446
0.555824 0.815824 0.515824
0.632202 0.822202 0.522202
0.708580 0.828580 0.528580
0.784958 0.834958 0.534958
0.861336 0.841336 0.541336
0.080830 0.060830 0.390830
0.157208 0.067208 0.397208
0.233586 0.073586 0.403586
0.309964 0.079964 0.409964
0.386342 0.086342 0.416342
0.462720 0.092720 0.422720
0.539098 0.099098 0.429098
0.615476 0.105476 0.435476
0.691854 0.111854 0.441854
0.102286 0.152286 0.412286
0.178664 0.158664 0.418664
0.255042 0.165042 0.425042
0.331420 0.171420 0.431420
0.407798 0.177798 0.437798
0.484176 0.184176 0.444176
0.560554 0.190554 0.450554
0.636932 0.196932 0.456932
0.713310 0.203310 0.463310
0.123742 0.243742 0.433742
0.200120 0.250120 0.440120
0.276498 0.256498 0.446498
0.352876 0.262876 0.452876
0.429254 0.269254 0.459254
0.505632 0.275632 0.465632
0.582010 0.282010 0.472010
0.658388 0.288388 0.478388
0.734766 0.294766 0.484766
0.145198 0.335198 0.455198
0.221576 0.341576 0.461576
0.297954 0.347954 0.467954
0.374332 0.354332 0.474332
0.450710 0.360710 0.480710
0.527088 0.367088 0.487088
0.603466 0.373466 0.493466
0.679844 0.379844 0.499844
0.756222 0.386222 0.506222
0.166654 0.426654 0.476654
0.243032 0.433032 0.483032
0.319410 0.439410 0.489410
0.395788 0.445788 0.495788
0.472166 0.452166 0.502166
0.548544 0.458544 0.508544
0.624922 0.464922 0.514922
0.701300 0.471300 0.521300
0.777678 0.477678 0.527678
0.188110 0.518110 0.498110
0.264488 0.524488 0.504488
0.340866 0.530866 0.510866
0.417244 0.537244 0.517244
0.493622 0.543622 0.523622
0.570000 0.550000 0.530000
0.646378 0.556378 0.536378
0.722756 0.562756 0.542756
0.799134 0.569134 0.549134
0.209566 0.609566 0.519566
0.285944 0.615944 0.525944
0.362322 0.622322 0.532322
0.438700 0.628700 0.538700
0.515078 0.635078 0.545078
0.591456 0.641456 0.551456
0.667834 0.647834 0.557834
0.744212 0.654212 0.564212
0.820590 0.660590 0.570590
0.231022 0.701022 0.541022
0.307400 0.707400 0.547400
0.383778 0.713778 0.553778
0.460156 0.720156 0.560156
0.536534 0.726534 0.566534
0.612912 0.732912 0.572912
0.689290 0.739290 0.579290
0.765668 0.745668 0.585668
0.842046 0.752046 0.592046
0.252478 0.792478 0.562478
0.328856 0.798856 0.568856
0.405234 0.805234 0.575234
0.481612 0.811612 0.581612
0.557990 0.817990 0.587990
0.634368 0.824368 0.594368
0.710746 0.830746 0.600746
0.787124 0.837124 0.607124
0.863502 0.843502 0.613502
0.082996 0.062996 0.462996
0.159374 0.069374 0.469374
0.235752 0.075752 0.475752
0.312130 0.082130 0.482130
0.388508 0.088508 0.488508
0.464886 0.094886 0.494886
0.541264 0.101264 0.501264
0.617642 0.107642 0.507642
0.694020 0.114020 0.514020
0.104452 0.154452 0.484452
0.180830 0.160830 0.490830
0.257208 0.167208 0.497208
0.333586 0.173586 0.503586
0.409964 0.179964 0.509964
0.486342 0.186342 0.516342
0.562720 0.192720 0.522720
0.639098 0.199098 0.529098
0.715476 0.205476 0.535476
0.125908 0.245908 0.505908
0.202286 0.252286 0.512286
0.278664 0.258664 0.518664
0.355042 0.265042 0.525042
0.431420 0.271420 0.531420
0.507798 0.277798 0.537798
0.584176 0.284176 0.544176
0.660554 0.290554 0.550554
0.736932 0.296932 0.556932
0.147364 0.337364 0.527364
0.223742 0.343742 0.533742
0.300120 0.350120 0.540120
0.376498 0.356498 0.546498
0.452876 0.362876 0.552876
0.529254 0.369254 0.559254
0.605632 0.375632 0.565632
0.682010 0.382010 0.572010
0.758388 0.388388 0.578388
0.168820 0.428820 0.548820
0.245198 0.435198 0.555198
0.321576 0.441576 0.561576
0.397954 0.447954 0.567954
0.474332 0.454332 0.574332
0.550710 0.460710 0.580710
0.627088 0.467088 0.587088
0.703466 0.473466 0.593466
0.779844 0.479844 0.599844
0.190276 0.520276 0.570276
0.266654 0.526654 0.576654
0.343032 0.533032 0.583032
0.419410 0.539410 0.589410
0.495788 0.545788 0.595788
0.572166 0.552166 0.602166
0.648544 0.558544 0.608544
0.724922 0.564922 0.614922
0.801300 0.571300 0.621300
0.211732 0.611732 0.591732
0.288110 0.618110 0.598110
0.364488 0.624488 0.604488
0.440866 0.630866 0.610866
0.517244 0.637244 0.617244
0.593622 0.643622 0.623622
0.670000 0.650000 0.630000
0.746378 0.656378 0.636378
0.822756 0.662756 0.642756
0.233188 0.703188 0.613188
0.309566 0.709566 0.619566
0.385944 0.715944 0.625944
0.462322 0.722322 0.632322
0.538700 0.728700 0.638700
0.615078 0.735078 0.645078
0.691456 0.741456 0.651456
0.767834 0.747834 0.657834
0.844212 0.754212 0.664212
0.254644 0.794644 0.634644
0.331022 0.801022 0.641022
0.407400 0.807400 0.647400
0.483778 0.813778 0.653778
0.560156 0.820156 0.660156
0.636534 0.826534 0.666534
0.712912 0.832912 0.672912
0.789290 0.839290 0.679290
0.865668 0.845668 0.685668
0.085162 0.065162 0.535162
0.161540 0.071540 0.541540
0.237918 0.077918 0.547918
0.314296 0.084296 0.554296
0.390674 0.090674 0.560674
0.467052 0.097052 0.567052
0.543430 0.103430 0.573430
0.619808 0.109808 0.579808
0.696186 0.116186 0.586186
0.106618 0.156618 0.556618
0.182996 0.162996 0.562996
0.259374 0.169374 0.569374
0.335752 0.175752 0.575752
0.412130 0.182130 0.582130
0.488508 0.188508 0.588508
0.564886 0.194886 0.594886
0.641264 0.201264 0.601264
0.717642 0.207642 0.607642
0.128074 0.248074 0.578074
0.204452 0.254452 0.584452
0.280830 0.260830 0.590830
0.357208 0.267208 0.597208
0.433586 0.273586 0.603586
0.509964 0.279964 0.609964
0.586342 0.286342 0.616342
0.662720 0.292720 0.622720
0.739098 0.299098 0.629098
0.149530 0.339530 0.599530
0.225908 0.345908 0.605908
0.302286 0.352286 0.612286
0.378664 0.358664 0.618664
0.455042 0.365042 0.625042
0.531420 0.371420 0.631420
0.607798 0.377798 0.637798
0.684176 0.384176 0.644176
0.760554 0.390554 0.650554
0.170986 0.430986 0.620986
0.247364 0.437364 0.627364
0.323742 0.443742 0.633742
0.400120 0.450120 0.640120
0.476498 0.456498 0.646498
0.552876 0.462876 0.652876
0.629254 0.469254 0.659254
0.705632 0.475632 0.665632
0.782010 0.482010 0.672010
0.192442 0.522442 0.642442
0.268820 0.528820 0.648820
0.345198 0.535198 0.655198
0.421576 0.541576 0.661576
0.497954 0.547954 0.667954
0.574332 0.554332 0.674332
0.650710 0.560710 0.680710
0.727088 0.567088 0.687088
0.803466 0.573466 0.693466
0.213898 0.613898 0.663898
0.290276 0.620276 0.670276
0.366654 0.626654 0.676654
0.443032 0.633032 0.683032
0.519410 0.639410 0.689410
0.595788 0.645788 0.695788
0.672166 0.652166 0.702166
0.748544 0.658544 0.708544
0.824922 0.664922 0.714922
0.235354 0.705354 0.685354
0.311732 0.711732 0.691732
0.388110 0.718110 0.698110
0.464488 0.724488 0.704488
0.540866 0.730866 0.710866
0.617244 0.737244 0.717244
0.693622 0.743622 0.723622
0.770000 0.750000 0.730000
0.846378 0.756378 0.736378
0.256810 0.796810 0.706810
0.333188 0.803188 0.713188
0.409566 0.809566 0.719566
0.485944 0.815944 0.725944
0.562322 0.822322 0.732322
0.638700 0.828700 0.738700
0.715078 0.835078 0.745078
0.791456 0.841456 0.751456
0.867834 0.847834 0.757834
0.087328 0.067328 0.607328
0.163706 0.073706 0.613706
0.240084 0.080084 0.620084
0.316462 0.086462 0.626462
0.392840 0.092840 0.632840
0.469218 0.099218 0.639218
0.545596 0.105596 0.645596
0.621974 0.111974 0.651974
0.698352 0.118352 0.658352
0.108784 0.158784 0.628784
0.185162 0.165162 0.635162
0.261540 0.171540 0.641540
0.337918 0.177918 0.647918
0.414296 0.184296 0.654296
0.490674 0.190674 0.660674
0.567052 0.197052 0.667052
0.643430 0.203430 0.673430
0.719808 0.209808 0.679808
0.130240 0.250240 0.650240
0.206618 0.256618 0.656618
0.282996 0.262996 0.662996
0.359374 0.269374 0.669374
0.435752 0.275752 0.675752
0.512130 0.282130 0.682130
0.588508 0.288508 0.688508
0.664886 0.294886 0.694886
0.741264 0.301264 0.701264
0.151696 0.341696 0.671696
0.228074 0.348074 0.678074
0.304452 0.354452 0.684452
0.380830 0.360830 0.690830
0.457208 0.367208 0.697208
0.533586 0.373586 0.703586
0.609964 0.379964 0.709964
0.686342 0.386342 0.716342
0.762720 0.392720 0.722720
0.173152 0.433152 0.693152
0.249530 0.439530 0.699530
0.325908 0.445908 0.705908
0.402286 0.452286 0.712286
0.478664 0.458664 0.718664
0.555042 0.465042 0.725042
0.631420 0.471420 0.731420
0.707798 0.477798 0.737798
0.784176 0.484176 0.744176
0.194608 0.524608 0.714608
0.270986 0.530986 0.720986
0.347364 0.537364 0.727364
0.423742 0.543742 0.733742
0.500120 0.550120 0.740120
0.576498 0.556498 0.746498
0.652876 0.562876 0.752876
0.729254 0.569254 0.759254
0.805632 0.575632 0.765632
0.216064 0.616064 0.736064
0.292442 0.622442 0.742442
0.368820 0.628820 0.748820
0.445198 0.635198 0.755198
0.521576 0.641576 0.761576
0.597954 0.647954 0.767954
0.674332 0.654332 0.774332
0.750710 0.660710 0.780710
0.827088 0.667088 0.787088
0.237520 0.707520 0.757520
0.313898 0.713898 0.763898
0.390276 0.720276 0.770276
0.466654 0.726654 0.776654
0.543032 0.733032 0.783032
0.619410 0.739410 0.789410
0.695788 0.745788 0.795788
0.772166 0.752166 0.802166
0.848544 0.758544 0.808544
0.258976 0.798976 0.778976
0.335354 0.805354 0.785354
0.411732 0.811732 0.791732
0.488110 0.818110 0.798110
0.564488 0.824488 0.804488
0.640866 0.830866 0.810866
0.717244 0.837244 0.817244
0.793622 0.843622 0.823622
0.870000 0.850000 0.830000
