lut-visualizer/public/data/sample_luts/vintage_fade.cube
LUT_3D_SIZE 17
DOMAIN_MIN 0.0 0.0 0.0
DOMAIN_MAX 1.0 1.0 1.0
0.070000 0.050000 0.030000
0.108189 0.053189 0.033189
0.146378 0.056378 0.036378
0.184567 0.059567 0.039567
0.222756 0.062756 0.042756
0.260945 0.065945 0.045945
0.299134 0.069134 0.049134
0.337323 0.072323 0.052323
0.375512 0.075512 0.055512
0.413701 0.078701 0.058701
0.451890 0.081890 0.061890
0.490079 0.085079 0.065079
0.528268 0.088268 0.068268
0.566457 0.091457 0.071457
0.604646 0.094646 0.074646
0.642835 0.097835 0.077835
0.681024 0.101024 0.081024
0.080728 0.095728 0.040728
0.118917 0.098917 0.043917
0.157106 0.102106 0.047106
0.195295 0.105295 0.050295
0.233484 0.108484 0.053484
0.271673 0.111673 0.056673
0.309862 0.114862 0.059862
0.348051 0.118051 0.063051
0.386240 0.121240 0.066240
0.424429 0.124429 0.069429
0.462618 0.127618 0.072618
0.500807 0.130807 0.075807
0.538996 0.133996 0.078996
0.577185 0.137185 0.082185
0.615374 0.140374 0.085374
0.653563 0.143563 0.088563
0.691752 0.146752 0.091752
0.091456 0.141456 0.051456
0.129645 0.144645 0.054645
0.167834 0.147834 0.057834
0.206023 0.151023 0.061023
0.244212 0.154212 0.064212
0.282401 0.157401 0.067401
0.320590 0.160590 0.070590
0.358779 0.163779 0.073779
0.396968 0.166968 0.076968
0.435157 0.170157 0.080157
0.473346 0.173346 0.083346
0.511535 0.176535 0.086535
0.549724 0.179724 0.089724
0.587913 0.182913 0.092913
0.626102 0.186102 0.096102
0.664291 0.189291 0.099291
0.702480 0.192480 0.102480
0.102184 0.187184 0.062184
0.140373 0.190373 0.065373
0.178562 0.193562 0.068562
0.216751 0.196751 0.071751
0.254940 0.199940 0.074940
0.293129 0.203129 0.078129
0.331318 0.206318 0.081318
0.369507 0.209507 0.084507
0.407696 0.212696 0.087696
0.445885 0.215885 0.090885
0.484074 0.219074 0.094074
0.522263 0.222263 0.097263
0.560452 0.225452 0.100452
0.598641 0.228641 0.103641
0.636830 0.231830 0.106830
0.675019 0.235019 0.110019
0.713208 0.238208 0.113208
0.112912 0.232912 0.072912
0.151101 0.236101 0.076101
0.189290 0.239290 0.079290
0.227479 0.242479 0.082479
0.265668 0.245668 0.085668
0.303857 0.248857 0.088857
0.342046 0.252046 0.092046
0.380235 0.255235 0.095235
0.418424 0.258424 0.098424
0.456613 0.261613 0.101613
0.494802 0.264802 0.104802
0.532991 0.267991 0.107991
0.571180 0.271180 0.111180
0.609369 0.274369 0.114369
0.647558 0.277558 0.117558
0.685747 0.280747 0.120747
0.723936 0.283936 0.123936
0.123640 0.278640 0.083640
0.161829 0.281829 0.086829
0.200018 0.285018 0.090018
0.238207 0.288207 0.093207
0.276396 0.291396 0.096396
0.314585 0.294585 0.099585
0.352774 0.297774 0.102774
0.390963 0.300963 0.105963
0.429152 0.304152 0.109152
0.467341 0.307341 0.112341
0.505530 0.310530 0.115530
0.543719 0.313719 0.118719
0.581908 0.316908 0.121908
0.620097 0.320097 0.125097
0.658286 0.323286 0.128286
0.696475 0.326475 0.131475
0.734664 0.329664 0.134664
0.134368 0.324368 0.094368
0.172557 0.327557 0.097557
0.210746 0.330746 0.100746
0.248935 0.333935 0.103935
0.287124 0.337124 0.107124
0.325313 0.340313 0.110313
0.363502 0.343502 0.113502
0.401691 0.346691 0.116691
0.439880 0.349880 0.119880
0.478069 0.353069 0.123069
0.516258 0.356258 0.126258
0.554447 0.359447 0.129447
0.592636 0.362636 0.132636
0.630825 0.365825 0.135825
0.669014 0.369014 0.139014
0.707203 0.372203 0.142203
0.745392 0.375392 0.145392
0.145096 0.370096 0.105096
0.183285 0.373285 0.108285
0.221474 0.376474 0.111474
0.259663 0.379663 0.114663
0.297852 0.382852 0.117852
0.336041 0.386041 0.121041
0.374230 0.389230 0.124230
0.412419 0.392419 0.127419
0.450608 0.395608 0.130608
0.488797 0.398797 0.133797
0.526986 0.401986 0.136986
0.565175 0.405175 0.140175
0.603364 0.408364 0.143364
0.641553 0.411553 0.146553
0.679742 0.414742 0.149742
0.717931 0.417931 0.152931
0.756120 0.421120 0.156120
0.155824 0.415824 0.115824
0.194013 0.419013 0.119013
0.232202 0.422202 0.122202
0.270391 0.425391 0.125391
0.308580 0.428580 0.128580
0.346769 0.431769 0.131769
0.384958 0.434958 0.134958
0.423147 0.438147 0.138147
0.461336 0.441336 0.141336
0.499525 0.444525 0.144525
0.537714 0.447714 0.147714
0.575903 0.450903 0.150903
0.614092 0.454092 0.154092
0.652281 0.457281 0.157281
0.690470 0.460470 0.160470
0.728659 0.463659 0.163659
0.766848 0.466848 0.166848
0.166552 0.461552 0.126552
0.204741 0.464741 0.129741
0.242930 0.467930 0.132930
0.281119 0.471119 0.136119
0.319308 0.474308 0.139308
0.357497 0.477497 0.142497
0.395686 0.480686 0.145686
0.433875 0.483875 0.148875
0.472064 0.487064 0.152064
0.510253 0.490253 0.155253
0.548442 0.493442 0.158442
0.586631 0.496631 0.161631
0.624820 0.499820 0.164820
0.663009 0.503009 0.168009
0.701198 0.506198 0.171198
0.739387 0.509387 0.174387
0.777576 0.512576 0.177576
0.177280 0.507280 0.137280
0.215469 0.510469 0.140469
0.253658 0.513658 0.143658
0.291847 0.516847 0.146847
0.330036 0.520036 0.150036
0.368225 0.523225 0.153225
0.406414 0.526414 0.156414
0.444603 0.529603 0.159603
0.482792 0.532792 0.162792
0.520981 0.535981 0.165981
0.559170 0.539170 0.169170
0.597359 0.542359 0.172359
0.635548 0.545548 0.175548
0.673737 0.548737 0.178737
0.711926 0.551926 0.181926
0.750115 0.555115 0.185115
0.788304 0.558304 0.188304
0.188008 0.553008 0.148008
0.226197 0.556197 0.151197
0.264386 0.559386 0.154386
0.302575 0.562575 0.157575
0.340764 0.565764 0.160764
0.378953 0.568953 0.163953
0.417142 0.572142 0.167142
0.455331 0.575331 0.170331
0.493520 0.578520 0.173520
0.531709 0.581709 0.176709
0.569898 0.584898 0.179898
0.608087 0.588087 0.183087
0.646276 0.591276 0.186276
0.684465 0.594465 0.189465
0.722654 0.597654 0.192654
0.760843 0.600843 0.195843
0.799032 0.604032 0.199032
0.198736 0.598736 0.158736
0.236925 0.601925 0.161925
0.275114 0.605114 0.165114
0.313303 0.608303 0.168303
0.351492 0.611492 0.171492
0.389681 0.614681 0.174681
0.427870 0.617870 0.177870
0.466059 0.621059 0.181059
0.504248 0.624248 0.184248
0.542437 0.627437 0.187437
0.580626 0.630626 0.190626
0.618815 0.633815 0.193815
0.657004 0.637004 0.197004
0.695193 0.640193 0.200193
0.733382 0.643382 0.203382
0.771571 0.646571 0.206571
0.809760 0.649760 0.209760
0.209464 0.644464 0.169464
0.247653 0.647653 0.172653
0.285842 0.650842 0.175842
0.324031 0.654031 0.179031
0.362220 0.657220 0.182220
0.400409 0.660409 0.185409
0.438598 0.663598 0.188598
0.476787 0.666787 0.191787
0.514976 0.669976 0.194976
0.553165 0.673165 0.198165
0.591354 0.676354 0.201354
0.629543 0.679543 0.204543
0.667732 0.682732 0.207732
0.705921 0.685921 0.210921
0.744110 0.689110 0.214110
0.782299 0.692299 0.217299
0.820488 0.695488 0.220488
0.220192 0.690192 0.180192
0.258381 0.693381 0.183381
0.296570 0.696570 0.186570
0.334759 0.699759 0.189759
0.372948 0.702948 0.192948
0.411137 0.706137 0.196137
0.449326 0.709326 0.199326
0.487515 0.712515 0.202515
0.525704 0.715704 0.205704
0.563893 0.718893 0.208893
0.602082 0.722082 0.212082
0.640271 0.725271 0.215271
0.678460 0.728460 0.218460
0.716649 0.731649 0.221649
0.754838 0.734838 0.224838
0.793027 0.738027 0.228027
0.831216 0.741216 0.231216
0.230920 0.735920 0.190920
0.269109 0.739109 0.194109
0.307298 0.742298 0.197298
0.345487 0.745487 0.200487
0.383676 0.748676 0.203676
0.421865 0.751865 0.206865
0.460054 0.755054 0.210054
0.498243 0.758243 0.213243
0.536432 0.761432 0.216432
0.574621 0.764621 0.219621
0.612810 0.767810 0.222810
0.650999 0.770999 0.225999
0.689188 0.774188 0.229188
0.727377 0.777377 0.232377
0.765566 0.780566 0.235566
0.803755 0.783755 0.238755
0.841944 0.786944 0.241944
0.241648 0.781648 0.201648
0.279837 0.784837 0.204837
0.318026 0.788026 0.208026
0.356215 0.791215 0.211215
0.394404 0.794404 0.214404
0.432593 0.797593 0.217593
0.470782 0.800782 0.220782
0.508971 0.803971 0.223971
0.547160 0.807160 0.227160
0.585349 0.810349 0.230349
0.623538 0.813538 0.233538
0.661727 0.816727 0.236727
0.699916 0.819916 0.239916
0.738105 0.823105 0.243105
0.776294 0.826294 0.246294
0.814483 0.829483 0.249483
0.852672 0.832672 0.252672
0.071083 0.051083 0.066083
0.109272 0.054272 0.069272
0.147461 0.057461 0.072461
0.185650 0.060650 0.075650
0.223839 0.063839 0.078839
0.262028 0.067028 0.082028
0.300217 0.070217 0.085217
0.338406 0.073406 0.088406
0.376595 0.076595 0.091595
0.414784 0.079784 0.094784
0.452973 0.082973 0.097973
0.491162 0.086162 0.101162
0.529351 0.089351 0.104351
0.567540 0.092540 0.107540
0.605729 0.095729 0.110729
0.643918 0.098918 0.113918
0.682107 0.102107 0.117107
0.081811 0.096811 0.076811
0.120000 0.100000 0.080000
0.158189 0.103189 0.083189
0.196378 0.106378 0.086378
0.234567 0.109567 0.089567
0.272756 0.112756 0.092756
0.310945 0.115945 0.095945
0.349134 0.119134 0.099134
0.387323 0.122323 0.102323
0.425512 0.125512 0.105512
0.463701 0.128701 0.108701
0.501890 0.131890 0.111890
0.540079 0.135079 0.115079
0.578268 0.138268 0.118268
0.616457 0.141457 0.121457
0.654646 0.144646 0.124646
0.692835 0.147835 0.127835
0.092539 0.142539 0.087539
0.130728 0.145728 0.090728
0.168917 0.148917 0.093917
0.207106 0.152106 0.097106
0.245295 0.155295 0.100295
0.283484 0.158484 0.103484
0.321673 0.161673 0.106673
0.359862 0.164862 0.109862
0.398051 0.168051 0.113051
0.436240 0.171240 0.116240
0.474429 0.174429 0.119429
0.512618 0.177618 0.122618
0.550807 0.180807 0.125807
0.588996 0.183996 0.128996
0.627185 0.187185 0.132185
0.665374 0.190374 0.135374
0.703563 0.193563 0.138563
0.103267 0.188267 0.098267
0.141456 0.191456 0.101456
0.179645 0.194645 0.104645
0.217834 0.197834 0.107834
0.256023 0.201023 0.111023
0.294212 0.204212 0.114212
0.332401 0.207401 0.117401
0.370590 0.210590 0.120590
0.408779 0.213779 0.123779
0.446968 0.216968 0.126968
0.485157 0.220157 0.130157
0.523346 0.223346 0.133346
0.561535 0.226535 0.136535
0.599724 0.229724 0.139724
0.637913 0.232913 0.142913
0.676102 0.236102 0.146102
0.714291 0.239291 0.149291
0.113995 0.233995 0.108995
0.152184 0.237184 0.112184
0.190373 0.240373 0.115373
0.228562 0.243562 0.118562
0.266751 0.246751 0.121751
0.304940 0.249940 0.124940
0.343129 0.253129 0.128129
0.381318 0.256318 0.131318
0.419507 0.259507 0.134507
0.457696 0.262696 0.137696
0.495885 0.265885 0.140885
0.534074 0.269074 0.144074
0.572263 0.272263 0.147263
0.610452 0.275452 0.150452
0.648641 0.278641 0.153641
0.686830 0.281830 0.156830
0.725019 0.285019 0.160019
0.124723 0.279723 0.119723
0.162912 0.282912 0.122912
0.201101 0.286101 0.126101
0.239290 0.289290 0.129290
0.277479 0.292479 0.132479
0.315668 0.295668 0.135668
0.353857 0.298857 0.138857
0.392046 0.302046 0.142046
0.430235 0.305235 0.145235
0.468424 0.308424 0.148424
0.506613 0.311613 0.151613
0.544802 0.314802 0.154802
0.582991 0.317991 0.157991
0.621180 0.321180 0.161180
0.659369 0.324369 0.164369
0.697558 0.327558 0.167558
0.735747 0.330747 0.170747
0.135451 0.325451 0.130451
0.173640 0.328640 0.133640
0.211829 0.331829 0.136829
0.250018 0.335018 0.140018
0.288207 0.338207 0.143207
0.326396 0.341396 0.146396
0.364585 0.344585 0.149585
0.402774 0.347774 0.152774
0.440963 0.350963 0.155963
0.479152 0.354152 0.159152
0.517341 0.357341 0.162341
0.555530 0.360530 0.165530
0.593719 0.363719 0.168719
0.631908 0.366908 0.171908
0.670097 0.370097 0.175097
0.708286 0.373286 0.178286
0.746475 0.376475 0.181475
0.146179 0.371179 0.141179
0.184368 0.374368 0.144368
0.222557 0.377557 0.147557
0.260746 0.380746 0.150746
0.298935 0.383935 0.153935
0.337124 0.387124 0.157124
0.375313 0.390313 0.160313
0.413502 0.393502 0.163502
0.451691 0.396691 0.166691
0.489880 0.399880 0.169880
0.528069 0.403069 0.173069
0.566258 0.406258 0.176258
0.604447 0.409447 0.179447
0.642636 0.412636 0.182636
0.680825 0.415825 0.185825
0.719014 0.419014 0.189014
0.757203 0.422203 0.192203
0.156907 0.416907 0.151907
0.195096 0.420096 0.155096
0.233285 0.423285 0.158285
0.271474 0.426474 0.161474
0.309663 0.429663 0.164663
0.347852 0.432852 0.167852
0.386041 0.436041 0.171041
0.424230 0.439230 0.174230
0.462419 0.442419 0.177419
0.500608 0.445608 0.180608
0.538797 0.448797 0.183797
0.576986 0.451986 0.186986
0.615175 0.455175 0.190175
0.653364 0.458364 0.193364
0.691553 0.461553 0.196553
0.729742 0.464742 0.199742
0.767931 0.467931 0.202931
0.167635 0.462635 0.162635
0.205824 0.465824 0.165824
0.244013 0.469013 0.169013
0.282202 0.472202 0.172202
0.320391 0.475391 0.175391
0.358580 0.478580 0.178580
0.396769 0.481769 0.181769
0.434958 0.484958 0.184958
0.473147 0.488147 0.188147
0.511336 0.491336 0.191336
0.549525 0.494525 0.194525
0.587714 0.497714 0.197714
0.625903 0.500903 0.200903
0.664092 0.504092 0.204092
0.702281 0.507281 0.207281
0.740470 0.510470 0.210470
0.778659 0.513659 0.213659
0.178363 0.508363 0.173363
0.216552 0.511552 0.176552
0.254741 0.514741 0.179741
0.292930 0.517930 0.182930
0.331119 0.521119 0.186119
0.369308 0.524308 0.189308
0.407497 0.527497 0.192497
0.445686 0.530686 0.195686
0.483875 0.533875 0.198875
0.522064 0.537064 0.202064
0.560253 0.540253 0.205253
0.598442 0.543442 0.208442
0.636631 0.546631 0.211631
0.674820 0.549820 0.214820
0.713009 0.553009 0.218009
0.751198 0.556198 0.221198
0.789387 0.559387 0.224387
0.189091 0.554091 0.184091
0.227280 0.557280 0.187280
0.265469 0.560469 0.190469
0.303658 0.563658 0.193658
0.341847 0.566847 0.196847
0.380036 0.570036 0.200036
0.418225 0.573225 0.203225
0.456414 0.576414 0.206414
0.494603 0.579603 0.209603
0.532792 0.582792 0.212792
0.570981 0.585981 0.215981
0.609170 0.589170 0.219170
0.647359 0.592359 0.222359
0.685548 0.595548 0.225548
0.723737 0.598737 0.228737
0.761926 0.601926 0.231926
0.800115 0.605115 0.235115
0.199819 0.599819 0.194819
0.238008 0.603008 0.198008
0.276197 0.606197 0.201197
0.314386 0.609386 0.204386
0.352575 0.612575 0.207575
0.390764 0.615764 0.210764
0.428953 0.618953 0.213953
0.467142 0.622142 0.217142
0.505331 0.625331 0.220331
0.543520 0.628520 0.223520
0.581709 0.631709 0.226709
0.619898 0.634898 0.229898
0.658087 0.638087 0.233087
0.696276 0.641276 0.236276
0.734465 0.644465 0.239465
0.772654 0.647654 0.242654
0.810843 0.650843 0.245843
0.210547 0.645547 0.205547
0.248736 0.648736 0.208736
0.286925 0.651925 0.211925
0.325114 0.655114 0.215114
0.363303 0.658303 0.218303
0.401492 0.661492 0.221492
0.439681 0.664681 0.224681
0.477870 0.667870 0.227870
0.516059 0.671059 0.231059
0.554248 0.674248 0.234248
0.592437 0.677437 0.237437
0.630626 0.680626 0.240626
0.668815 0.683815 0.243815
0.707004 0.687004 0.247004
0.745193 0.690193 0.250193
0.783382 0.693382 0.253382
0.821571 0.696571 0.256571
0.221275 0.691275 0.216275
0.259464 0.694464 0.219464
0.297653 0.697653 0.222653
0.335842 0.700842 0.225842
0.374031 0.704031 0.229031
0.412220 0.707220 0.232220
0.450409 0.710409 0.235409
0.488598 0.713598 0.238598
0.526787 0.716787 0.241787
0.564976 0.719976 0.244976
0.603165 0.723165 0.248165
0.641354 0.726354 0.251354
0.679543 0.729543 0.254543
0.717732 0.732732 0.257732
0.755921 0.735921 0.260921
0.794110 0.739110 0.264110
0.832299 0.742299 0.267299
0.232003 0.737003 0.227003
0.270192 0.740192 0.230192
0.308381 0.743381 0.233381
0.346570 0.746570 0.236570
0.384759 0.749759 0.239759
0.422948 0.752948 0.242948
0.461137 0.756137 0.246137
0.499326 0.759326 0.249326
0.537515 0.762515 0.252515
0.575704 0.765704 0.255704
0.613893 0.768893 0.258893
0.652082 0.772082 0.262082
0.690271 0.775271 0.265271
0.728460 0.778460 0.268460
0.766649 0.781649 0.271649
0.804838 0.784838 0.274838
0.843027 0.788027 0.278027
0.242731 0.782731 0.237731
0.280920 0.785920 0.240920
0.319109 0.789109 0.244109
0.357298 0.792298 0.247298
0.395487 0.795487 0.250487
0.433676 0.798676 0.253676
0.471865 0.801865 0.256865
0.510054 0.805054 0.260054
0.548243 0.808243 0.263243
0.586432 0.811432 0.266432
0.624621 0.814621 0.269621
0.662810 0.817810 0.272810
0.700999 0.820999 0.275999
0.739188 0.824188 0.279188
0.777377 0.827377 0.282377
0.815566 0.830566 0.285566
0.853755 0.833755 0.288755
0.072166 0.052166 0.102166
0.110355 0.055355 0.105355
0.148544 0.058544 0.108544
0.186733 0.061733 0.111733
0.224922 0.064922 0.114922
0.263111 0.068111 0.118111
0.301300 0.071300 0.121300
0.339489 0.074489 0.124489
0.377678 0.077678 0.127678
0.415867 0.080867 0.130867
0.454056 0.084056 0.134056
0.492245 0.087245 0.137245
0.530434 0.090434 0.140434
0.568623 0.093623 0.143623
0.606812 0.096812 0.146812
0.645001 0.100001 0.150001
0.683190 0.103190 0.153190
0.082894 0.097894 0.112894
0.121083 0.101083 0.116083
0.159272 0.104272 0.119272
0.197461 0.107461 0.122461
0.235650 0.110650 0.125650
0.273839 0.113839 0.128839
0.312028 0.117028 0.132028
0.350217 0.120217 0.135217
0.388406 0.123406 0.138406
0.426595 0.126595 0.141595
0.464784 0.129784 0.144784
0.502973 0.132973 0.147973
0.541162 0.136162 0.151162
0.579351 0.139351 0.154351
0.617540 0.142540 0.157540
0.655729 0.145729 0.160729
0.693918 0.148918 0.163918
0.093622 0.143622 0.123622
0.131811 0.146811 0.126811
0.170000 0.150000 0.130000
0.208189 0.153189 0.133189
0.246378 0.156378 0.136378
0.284567 0.159567 0.139567
0.322756 0.162756 0.142756
0.360945 0.165945 0.145945
0.399134 0.169134 0.149134
0.437323 0.172323 0.152323
0.475512 0.175512 0.155512
0.513701 0.178701 0.158701
0.551890 0.181890 0.161890
0.590079 0.185079 0.165079
0.628268 0.188268 0.168268
0.666457 0.191457 0.171457
0.704646 0.194646 0.174646
0.104350 0.189350 0.134350
0.142539 0.192539 0.137539
0.180728 0.195728 0.140728
0.218917 0.198917 0.143917
0.257106 0.202106 0.147106
0.295295 0.205295 0.150295
0.333484 0.208484 0.153484
0.371673 0.211673 0.156673
0.409862 0.214862 0.159862
0.448051 0.218051 0.163051
0.486240 0.221240 0.166240
0.524429 0.224429 0.169429
0.562618 0.227618 0.172618
0.600807 0.230807 0.175807
0.638996 0.233996 0.178996
0.677185 0.237185 0.182185
0.715374 0.240374 0.185374
0.115078 0.235078 0.145078
0.153267 0.238267 0.148267
0.191456 0.241456 0.151456
0.229645 0.244645 0.154645
0.267834 0.247834 0.157834
0.306023 0.251023 0.161023
0.344212 0.254212 0.164212
0.382401 0.257401 0.167401
0.420590 0.260590 0.170590
0.458779 0.263779 0.173779
0.496968 0.266968 0.176968
0.535157 0.270157 0.180157
0.573346 0.273346 0.183346
0.611535 0.276535 0.186535
0.649724 0.279724 0.189724
0.687913 0.282913 0.192913
0.726102 0.286102 0.196102
0.125806 0.280806 0.155806
0.163995 0.283995 0.158995
0.202184 0.287184 0.162184
0.240373 0.290373 0.165373
0.278562 0.293562 0.168562
0.316751 0.296751 0.171751
0.354940 0.299940 0.174940
0.393129 0.303129 0.178129
0.431318 0.306318 0.181318
0.469507 0.309507 0.184507
0.507696 0.312696 0.187696
0.545885 0.315885 0.190885
0.584074 0.319074 0.194074
0.622263 0.322263 0.197263
0.660452 0.325452 0.200452
0.698641 0.328641 0.203641
0.736830 0.331830 0.206830
0.136534 0.326534 0.166534
0.174723 0.329723 0.169723
0.212912 0.332912 0.172912
0.251101 0.336101 0.176101
0.289290 0.339290 0.179290
0.327479 0.342479 0.182479
0.365668 0.345668 0.185668
0.403857 0.348857 0.188857
0.442046 0.352046 0.192046
0.480235 0.355235 0.195235
0.518424 0.358424 0.198424
0.556613 0.361613 0.201613
0.594802 0.364802 0.204802
0.632991 0.367991 0.207991
0.671180 0.371180 0.211180
0.709369 0.374369 0.214369
0.747558 0.377558 0.217558
0.147262 0.372262 0.177262
0.185451 0.375451 0.180451
0.223640 0.378640 0.183640
0.261829 0.381829 0.186829
0.300018 0.385018 0.190018
0.338207 0.388207 0.193207
0.376396 0.391396 0.196396
0.414585 0.394585 0.199585
0.452774 0.397774 0.202774
0.490963 0.400963 0.205963
0.529152 0.404152 0.209152
0.567341 0.407341 0.212341
0.605530 0.410530 0.215530
0.643719 0.413719 0.218719
0.681908 0.416908 0.221908
0.720097 0.420097 0.225097
0.758286 0.423286 0.228286
0.157990 0.417990 0.187990
0.196179 0.421179 0.191179
0.234368 0.424368 0.194368
0.272557 0.427557 0.197557
0.310746 0.430746 0.200746
0.348935 0.433935 0.203935
0.387124 0.437124 0.207124
0.425313 0.440313 0.210313
0.463502 0.443502 0.213502
0.501691 0.446691 0.216691
0.539880 0.449880 0.219880
0.578069 0.453069 0.223069
0.616258 0.456258 0.226258
0.654447 0.459447 0.229447
0.692636 0.462636 0.232636
0.730825 0.465825 0.235825
0.769014 0.469014 0.239014
0.168718 0.463718 0.198718
0.206907 0.466907 0.201907
0.245096 0.470096 0.205096
0.283285 0.473285 0.208285
0.321474 0.476474 0.211474
0.359663 0.479663 0.214663
0.397852 0.482852 0.217852
0.436041 0.486041 0.221041
0.474230 0.489230 0.224230
0.512419 0.492419 0.227419
0.550608 0.495608 0.230608
0.588797 0.498797 0.233797
0.626986 0.501986 0.236986
0.665175 0.505175 0.240175
0.703364 0.508364 0.243364
0.741553 0.511553 0.246553
0.779742 0.514742 0.249742
0.179446 0.509446 0.209446
0.217635 0.512635 0.212635
0.255824 0.515824 0.215824
0.294013 0.519013 0.219013
0.332202 0.522202 0.222202
0.370391 0.525391 0.225391
0.408580 0.528580 0.228580
0.446769 0.531769 0.231769
0.484958 0.534958 0.234958
0.523147 0.538147 0.238147
0.561336 0.541336 0.241336
0.599525 0.544525 0.244525
0.637714 0.547714 0.247714
0.675903 0.550903 0.250903
0.714092 0.554092 0.254092
0.752281 0.557281 0.257281
0.790470 0.560470 0.260470
0.190174 0.555174 0.220174
0.228363 0.558363 0.223363
0.266552 0.561552 0.226552
0.304741 0.564741 0.229741
0.342930 0.567930 0.232930
0.381119 0.571119 0.236119
0.419308 0.574308 0.239308
0.457497 0.577497 0.242497
0.495686 0.580686 0.245686
0.533875 0.583875 0.248875
0.572064 0.587064 0.252064
0.610253 0.590253 0.255253
0.648442 0.593442 0.258442
0.686631 0.596631 0.261631
0.724820 0.599820 0.264820
0.763009 0.603009 0.268009
0.801198 0.606198 0.271198
0.200902 0.600902 0.230902
0.239091 0.604091 0.234091
0.277280 0.607280 0.237280
0.315469 0.610469 0.240469
0.353658 0.613658 0.243658
0.391847 0.616847 0.246847
0.430036 0.620036 0.250036
0.468225 0.623225 0.253225
0.506414 0.626414 0.256414
0.544603 0.629603 0.259603
0.582792 0.632792 0.262792
0.620981 0.635981 0.265981
0.659170 0.639170 0.269170
0.697359 0.642359 0.272359
0.735548 0.645548 0.275548
0.773737 0.648737 0.278737
0.811926 0.651926 0.281926
0.211630 0.646630 0.241630
0.249819 0.649819 0.244819
0.288008 0.653008 0.248008
0.326197 0.656197 0.251197
0.364386 0.659386 0.254386
0.402575 0.662575 0.257575
0.440764 0.665764 0.260764
0.478953 0.668953 0.263953
0.517142 0.672142 0.267142
0.555331 0.675331 0.270331
0.593520 0.678520 0.273520
0.631709 0.681709 0.276709
0.669898 0.684898 0.279898
0.708087 0.688087 0.283087
0.746276 0.691276 0.286276
0.784465 0.694465 0.289465
0.822654 0.697654 0.292654
0.222358 0.692358 0.252358
0.260547 0.695547 0.255547
0.298736 0.698736 0.258736
0.336925 0.701925 0.261925
0.375114 0.705114 0.265114
0.413303 0.708303 0.268303
0.451492 0.711492 0.271492
0.489681 0.714681 0.274681
0.527870 0.717870 0.277870
0.566059 0.721059 0.281059
0.604248 0.724248 0.284248
0.642437 0.727437 0.287437
0.680626 0.730626 0.290626
0.718815 0.733815 0.293815
0.757004 0.737004 0.297004
0.795193 0.740193 0.300193
0.833382 0.743382 0.303382
0.233086 0.738086 0.263086
0.271275 0.741275 0.266275
0.309464 0.744464 0.269464
0.347653 0.747653 0.272653
0.385842 0.750842 0.275842
0.424031 0.754031 0.279031
0.462220 0.757220 0.282220
0.500409 0.760409 0.285409
0.538598 0.763598 0.288598
0.576787 0.766787 0.291787
0.614976 0.769976 0.294976
0.653165 0.773165 0.298165
0.691354 0.776354 0.301354
0.729543 0.779543 0.304543
0.767732 0.782732 0.307732
0.805921 0.785921 0.310921
0.844110 0.789110 0.314110
0.243814 0.783814 0.273814
0.282003 0.787003 0.277003
0.320192 0.790192 0.280192
0.358381 0.793381 0.283381
0.396570 0.796570 0.286570
0.434759 0.799759 0.289759
0.472948 0.802948 0.292948
0.511137 0.806137 0.296137
0.549326 0.809326 0.299326
0.587515 0.812515 0.302515
0.625704 0.815704 0.305704
0.663893 0.818893 0.308893
0.702082 0.822082 0.312082
0.740271 0.825271 0.315271
0.778460 0.828460 0.318460
0.816649 0.831649 0.321649
0.854838 0.834838 0.324838
0.073249 0.053249 0.138249
0.111438 0.056438 0.141438
0.149627 0.059627 0.144627
0.187816 0.062816 0.147816
0.226005 0.066005 0.151005
0.264194 0.069194 0.154194
0.302383 0.072383 0.157383
0.340572 0.075572 0.160572
0.378761 0.078761 0.163761
0.416950 0.081950 0.166950
0.455139 0.085139 0.170139
0.493328 0.088328 0.173328
0.531517 0.091517 0.176517
0.569706 0.094706 0.179706
0.607895 0.097895 0.182895
0.646084 0.101084 0.186084
0.684273 0.104273 0.189273
0.083977 0.098977 0.148977
0.122166 0.102166 0.152166
