lut-visualizer/public/data/sample_luts/vintage_fade.cube
LUT_3D_SIZE 5
DOMAIN_MIN 0.0 0.0 0.0
DOMAIN_MAX 1.0 1.0 1.0
0.070000 0.050000 0.030000
0.222756 0.062756 0.042756
0.375512 0.075512 0.055512
0.528268 0.088268 0.068268
0.681024 0.101024 0.081024
0.112912 0.232912 0.072912
0.265668 0.245668 0.085668
0.418424 0.258424 0.098424
0.571180 0.271180 0.111180
0.723936 0.283936 0.123936
0.155824 0.415824 0.115824
0.308580 0.428580 0.128580
0.461336 0.441336 0.141336
0.614092 0.454092 0.154092
0.766848 0.466848 0.166848
0.198736 0.598736 0.158736
0.351492 0.611492 0.171492
0.504248 0.624248 0.184248
0.657004 0.637004 0.197004
0.809760 0.649760 0.209760
0.241648 0.781648 0.201648
0.394404 0.794404 0.214404
0.547160 0.807160 0.227160
0.699916 0.819916 0.239916
0.852672 0.832672 0.252672
0.074332 0.054332 0.174332
0.227088 0.067088 0.187088
0.379844 0.079844 0.199844
0.532600 0.092600 0.212600
0.685356 0.105356 0.225356
0.117244 0.237244 0.217244
0.270000 0.250000 0.230000
0.422756 0.262756 0.242756
0.575512 0.275512 0.255512
0.728268 0.288268 0.268268
0.160156 0.420156 0.260156
0.312912 0.432912 0.272912
0.465668 0.445668 0.285668
0.618424 0.458424 0.298424
0.771180 0.471180 0.311180
0.203068 0.603068 0.303068
0.355824 0.615824 0.315824
0.508580 0.628580 0.328580
0.661336 0.641336 0.341336
0.814092 0.654092 0.354092
0.245980 0.785980 0.345980
0.398736 0.798736 0.358736
0.551492 0.811492 0.371492
0.704248 0.824248 0.384248
0.857004 0.837004 0.397004
0.078664 0.058664 0.318664
0.231420 0.071420 0.331420
0.384176 0.084176 0.344176
0.536932 0.096932 0.356932
0.689688 0.109688 0.369688
0.121576 0.241576 0.361576
0.274332 0.254332 0.374332
0.427088 0.267088 0.387088
0.579844 0.279844 0.399844
0.732600 0.292600 0.412600
0.164488 0.424488 0.404488
0.317244 0.437244 0.417244
0.470000 0.450000 0.430000
0.622756 0.462756 0.442756
0.775512 0.475512 0.455512
0.207400 0.607400 0.447400
0.360156 0.620156 0.460156
0.512912 0.632912 0.472912
0.665668 0.645668 0.485668
0.818424 0.658424 0.498424
0.250312 0.790312 0.490312
0.403068 0.803068 0.503068
0.555824 0.815824 0.515824
0.708580 0.828580 0.528580
0.861336 0.841336 0.541336
0.082996 0.062996 0.462996
0.235752 0.075752 0.475752
0.388508 0.088508 0.488508
0.541264 0.101264 0.501264
0.694020 0.114020 0.514020
0.125908 0.245908 0.505908
0.278664 0.258664 0.518664
0.431420 0.271420 0.531420
0.584176 0.284176 0.544176
0.736932 0.296932 0.556932
0.168820 0.428820 0.548820
0.321576 0.441576 0.561576
0.474332 0.454332 0.574332
0.627088 0.467088 0.587088
0.779844 0.479844 0.599844
0.211732 0.611732 0.591732
0.364488 0.624488 0.604488
0.517244 0.637244 0.617244
0.670000 0.650000 0.630000
0.822756 0.662756 0.642756
0.254644 0.794644 0.634644
0.407400 0.807400 0.647400
0.560156 0.820156 0.660156
0.712912 0.832912 0.672912
0.865668 0.845668 0.685668
0.087328 0.067328 0.607328
0.240084 0.080084 0.620084
0.392840 0.092840 0.632840
0.545596 0.105596 0.645596
0.698352 0.118352 0.658352
0.130240 0.250240 0.650240
0.282996 0.262996 0.662996
0.435752 0.275752 0.675752
0.588508 0.288508 0.688508
0.741264 0.301264 0.701264
0.173152 0.433152 0.693152
0.325908 0.445908 0.705908
0.478664 0.458664 0.718664
0.631420 0.471420 0.731420
0.784176 0.484176 0.744176
0.216064 0.616064 0.736064
0.368820 0.628820 0.748820
0.521576 0.641576 0.761576
0.674332 0.654332 0.774332
0.827088 0.667088 0.787088
0.258976 0.798976 0.778976
0.411732 0.811732 0.791732
0.564488 0.824488 0.804488
0.717244 0.837244 0.817244
0.870000 0.850000 0.830000
