lut-visualizer/public/data/sample_luts/warm_strong.cube
LUT_3D_SIZE 17
DOMAIN_MIN 0.0 0.0 0.0
DOMAIN_MAX 1.0 1.0 1.0
0.090000 0.010000 0.000000
0.152500 0.010000 0.000000
0.215000 0.010000 0.000000
0.277500 0.010000 0.000000
0.340000 0.010000 0.000000
0.402500 0.010000 0.000000
0.465000 0.010000 0.000000
0.527500 0.010000 0.000000
0.590000 0.010000 0.000000
0.652500 0.010000 0.000000
0.715000 0.010000 0.000000
0.777500 0.010000 0.000000
0.840000 0.010000 0.000000
0.902500 0.010000 0.000000
0.965000 0.010000 0.000000
1.000000 0.010000 0.000000
1.000000 0.010000 0.000000
0.090000 0.072500 0.000000
0.152500 0.072500 0.000000
0.215000 0.072500 0.000000
0.277500 0.072500 0.000000
0.340000 0.072500 0.000000
0.402500 0.072500 0.000000
0.465000 0.072500 0.000000
0.527500 0.072500 0.000000
0.590000 0.072500 0.000000
0.652500 0.072500 0.000000
0.715000 0.072500 0.000000
0.777500 0.072500 0.000000
0.840000 0.072500 0.000000
0.902500 0.072500 0.000000
0.965000 0.072500 0.000000
1.000000 0.072500 0.000000
1.000000 0.072500 0.000000
0.090000 0.135000 0.000000
0.152500 0.135000 0.000000
0.215000 0.135000 0.000000
0.277500 0.135000 0.000000
0.340000 0.135000 0.000000
0.402500 0.135000 0.000000
0.465000 0.135000 0.000000
0.527500 0.135000 0.000000
0.590000 0.135000 0.000000
0.652500 0.135000 0.000000
0.715000 0.135000 0.000000
0.777500 0.135000 0.000000
0.840000 0.135000 0.000000
0.902500 0.135000 0.000000
0.965000 0.135000 0.000000
1.000000 0.135000 0.000000
1.000000 0.135000 0.000000
0.090000 0.197500 0.000000
0.152500 0.197500 0.000000
0.215000 0.197500 0.000000
0.277500 0.197500 0.000000
0.340000 0.197500 0.000000
0.402500 0.197500 0.000000
0.465000 0.197500 0.000000
0.527500 0.197500 0.000000
0.590000 0.197500 0.000000
0.652500 0.197500 0.000000
0.715000 0.197500 0.000000
0.777500 0.197500 0.000000
0.840000 0.197500 0.000000
0.902500 0.197500 0.000000
0.965000 0.197500 0.000000
1.000000 0.197500 0.000000
1.000000 0.197500 0.000000
0.090000 0.260000 0.000000
0.152500 0.260000 0.000000
0.215000 0.260000 0.000000
0.277500 0.260000 0.000000
0.340000 0.260000 0.000000
0.402500 0.260000 0.000000
0.465000 0.260000 0.000000
0.527500 0.260000 0.000000
0.590000 0.260000 0.000000
0.652500 0.260000 0.000000
0.715000 0.260000 0.000000
0.777500 0.260000 0.000000
0.840000 0.260000 0.000000
0.902500 0.260000 0.000000
0.965000 0.260000 0.000000
1.000000 0.260000 0.000000
1.000000 0.260000 0.000000
0.090000 0.322500 0.000000
0.152500 0.322500 0.000000
0.215000 0.322500 0.000000
0.277500 0.322500 0.000000
0.340000 0.322500 0.000000
0.402500 0.322500 0.000000
0.465000 0.322500 0.000000
0.527500 0.322500 0.000000
0.590000 0.322500 0.000000
0.652500 0.322500 0.000000
0.715000 0.322500 0.000000
0.777500 0.322500 0.000000
0.840000 0.322500 0.000000
0.902500 0.322500 0.000000
0.965000 0.322500 0.000000
1.000000 0.322500 0.000000
1.000000 0.322500 0.000000
0.090000 0.385000 0.000000
0.152500 0.385000 0.000000
0.215000 0.385000 0.000000
0.277500 0.385000 0.000000
0.340000 0.385000 0.000000
0.402500 0.385000 0.000000
0.465000 0.385000 0.000000
0.527500 0.385000 0.000000
0.590000 0.385000 0.000000
0.652500 0.385000 0.000000
0.715000 0.385000 0.000000
0.777500 0.385000 0.000000
0.840000 0.385000 0.000000
0.902500 0.385000 0.000000
0.965000 0.385000 0.000000
1.000000 0.385000 0.000000
1.000000 0.385000 0.000000
0.090000 0.447500 0.000000
0.152500 0.447500 0.000000
0.215000 0.447500 0.000000
0.277500 0.447500 0.000000
0.340000 0.447500 0.000000
0.402500 0.447500 0.000000
0.465000 0.447500 0.000000
0.527500 0.447500 0.000000
0.590000 0.447500 0.000000
0.652500 0.447500 0.000000
0.715000 0.447500 0.000000
0.777500 0.447500 0.000000
0.840000 0.447500 0.000000
0.902500 0.447500 0.000000
0.965000 0.447500 0.000000
1.000000 0.447500 0.000000
1.000000 0.447500 0.000000
0.090000 0.510000 0.000000
0.152500 0.510000 0.000000
0.215000 0.510000 0.000000
0.277500 0.510000 0.000000
0.340000 0.510000 0.000000
0.402500 0.510000 0.000000
0.465000 0.510000 0.000000
0.527500 0.510000 0.000000
0.590000 0.510000 0.000000
0.652500 0.510000 0.000000
0.715000 0.510000 0.000000
0.777500 0.510000 0.000000
0.840000 0.510000 0.000000
0.902500 0.510000 0.000000
0.965000 0.510000 0.000000
1.000000 0.510000 0.000000
1.000000 0.510000 0.000000
0.090000 0.572500 0.000000
0.152500 0.572500 0.000000
0.215000 0.572500 0.000000
0.277500 0.572500 0.000000
0.340000 0.572500 0.000000
0.402500 0.572500 0.000000
0.465000 0.572500 0.000000
0.527500 0.572500 0.000000
0.590000 0.572500 0.000000
0.652500 0.572500 0.000000
0.715000 0.572500 0.000000
0.777500 0.572500 0.000000
0.840000 0.572500 0.000000
0.902500 0.572500 0.000000
0.965000 0.572500 0.000000
1.000000 0.572500 0.000000
1.000000 0.572500 0.000000
0.090000 0.635000 0.000000
0.152500 0.635000 0.000000
0.215000 0.635000 0.000000
0.277500 0.635000 0.000000
0.340000 0.635000 0.000000
0.402500 0.635000 0.000000
0.465000 0.635000 0.000000
0.527500 0.635000 0.000000
0.590000 0.635000 0.000000
0.652500 0.635000 0.000000
0.715000 0.635000 0.000000
0.777500 0.635000 0.000000
0.840000 0.635000 0.000000
0.902500 0.635000 0.000000
0.965000 0.635000 0.000000
1.000000 0.635000 0.000000
1.000000 0.635000 0.000000
0.090000 0.697500 0.000000
0.152500 0.697500 0.000000
0.215000 0.697500 0.000000
0.277500 0.697500 0.000000
0.340000 0.697500 0.000000
0.402500 0.697500 0.000000
0.465000 0.697500 0.000000
0.527500 0.697500 0.000000
0.590000 0.697500 0.000000
0.652500 0.697500 0.000000
0.715000 0.697500 0.000000
0.777500 0.697500 0.000000
0.840000 0.697500 0.000000
0.902500 0.697500 0.000000
0.965000 0.697500 0.000000
1.000000 0.697500 0.000000
1.000000 0.697500 0.000000
0.090000 0.760000 0.000000
0.152500 0.760000 0.000000
0.215000 0.760000 0.000000
0.277500 0.760000 0.000000
0.340000 0.760000 0.000000
0.402500 0.760000 0.000000
0.465000 0.760000 0.000000
0.527500 0.760000 0.000000
0.590000 0.760000 0.000000
0.652500 0.760000 0.000000
0.715000 0.760000 0.000000
0.777500 0.760000 0.000000
0.840000 0.760000 0.000000
0.902500 0.760000 0.000000
0.965000 0.760000 0.000000
1.000000 0.760000 0.000000
1.000000 0.760000 0.000000
0.090000 0.822500 0.000000
0.152500 0.822500 0.000000
0.215000 0.822500 0.000000
0.277500 0.822500 0.000000
0.340000 0.822500 0.000000
0.402500 0.822500 0.000000
0.465000 0.822500 0.000000
0.527500 0.822500 0.000000
0.590000 0.822500 0.000000
0.652500 0.822500 0.000000
0.715000 0.822500 0.000000
0.777500 0.822500 0.000000
0.840000 0.822500 0.000000
0.902500 0.822500 0.000000
0.965000 0.822500 0.000000
1.000000 0.822500 0.000000
1.000000 0.822500 0.000000
0.090000 0.885000 0.000000
0.152500 0.885000 0.000000
0.215000 0.885000 0.000000
0.277500 0.885000 0.000000
0.340000 0.885000 0.000000
0.402500 0.885000 0.000000
0.465000 0.885000 0.000000
0.527500 0.885000 0.000000
0.590000 0.885000 0.000000
0.652500 0.885000 0.000000
0.715000 0.885000 0.000000
0.777500 0.885000 0.000000
0.840000 0.885000 0.000000
0.902500 0.885000 0.000000
0.965000 0.885000 0.000000
1.000000 0.885000 0.000000
1.000000 0.885000 0.000000
0.090000 0.947500 0.000000
0.152500 0.947500 0.000000
0.215000 0.947500 0.000000
0.277500 0.947500 0.000000
0.340000 0.947500 0.000000
0.402500 0.947500 0.000000
0.465000 0.947500 0.000000
0.527500 0.947500 0.000000
0.590000 0.947500 0.000000
0.652500 0.947500 0.000000
0.715000 0.947500 0.000000
0.777500 0.947500 0.000000
0.840000 0.947500 0.000000
0.902500 0.947500 0.000000
0.965000 0.947500 0.000000
1.000000 0.947500 0.000000
1.000000 0.947500 0.000000
0.090000 1.000000 0.000000
0.152500 1.000000 0.000000
0.215000 1.000000 0.000000
0.277500 1.000000 0.000000
0.340000 1.000000 0.000000
0.402500 1.000000 0.000000
0.465000 1.000000 0.000000
0.527500 1.000000 0.000000
0.590000 1.000000 0.000000
0.652500 1.000000 0.000000
0.715000 1.000000 0.000000
0.777500 1.000000 0.000000
0.840000 1.000000 0.000000
0.902500 1.000000 0.000000
0.965000 1.000000 0.000000
1.000000 1.000000 0.000000
1.000000 1.000000 0.000000
0.090000 0.010000 0.000000
0.152500 0.010000 0.000000
0.215000 0.010000 0.000000
0.277500 0.010000 0.000000
0.340000 0.010000 0.000000
0.402500 0.010000 0.000000
0.465000 0.010000 0.000000
0.527500 0.010000 0.000000
0.590000 0.010000 0.000000
0.652500 0.010000 0.000000
0.715000 0.010000 0.000000
0.777500 0.010000 0.000000
0.840000 0.010000 0.000000
0.902500 0.010000 0.000000
0.965000 0.010000 0.000000
1.000000 0.010000 0.000000
1.000000 0.010000 0.000000
0.090000 0.072500 0.000000
0.152500 0.072500 0.000000
0.215000 0.072500 0.000000
0.277500 0.072500 0.000000
0.340000 0.072500 0.000000
0.402500 0.072500 0.000000
0.465000 0.072500 0.000000
0.527500 0.072500 0.000000
0.590000 0.072500 0.000000
0.652500 0.072500 0.000000
0.715000 0.072500 0.000000
0.777500 0.072500 0.000000
0.840000 0.072500 0.000000
0.902500 0.072500 0.000000
0.965000 0.072500 0.000000
1.000000 0.072500 0.000000
1.000000 0.072500 0.000000
0.090000 0.135000 0.000000
0.152500 0.135000 0.000000
0.215000 0.135000 0.000000
0.277500 0.135000 0.000000
0.340000 0.135000 0.000000
0.402500 0.135000 0.000000
0.465000 0.135000 0.000000
0.527500 0.135000 0.000000
0.590000 0.135000 0.000000
0.652500 0.135000 0.000000
0.715000 0.135000 0.000000
0.777500 0.135000 0.000000
0.840000 0.135000 0.000000
0.902500 0.135000 0.000000
0.965000 0.135000 0.000000
1.000000 0.135000 0.000000
1.000000 0.135000 0.000000
0.090000 0.197500 0.000000
0.152500 0.197500 0.000000
0.215000 0.197500 0.000000
0.277500 0.197500 0.000000
0.340000 0.197500 0.000000
0.402500 0.197500 0.000000
0.465000 0.197500 0.000000
0.527500 0.197500 0.000000
0.590000 0.197500 0.000000
0.652500 0.197500 0.000000
0.715000 0.197500 0.000000
0.777500 0.197500 0.000000
0.840000 0.197500 0.000000
0.902500 0.197500 0.000000
0.965000 0.197500 0.000000
1.000000 0.197500 0.000000
1.000000 0.197500 0.000000
0.090000 0.260000 0.000000
0.152500 0.260000 0.000000
0.215000 0.260000 0.000000
0.277500 0.260000 0.000000
0.340000 0.260000 0.000000
0.402500 0.260000 0.000000
0.465000 0.260000 0.000000
0.527500 0.260000 0.000000
0.590000 0.260000 0.000000
0.652500 0.260000 0.000000
0.715000 0.260000 0.000000
0.777500 0.260000 0.000000
0.840000 0.260000 0.000000
0.902500 0.260000 0.000000
0.965000 0.260000 0.000000
1.000000 0.260000 0.000000
1.000000 0.260000 0.000000
0.090000 0.322500 0.000000
0.152500 0.322500 0.000000
0.215000 0.322500 0.000000
0.277500 0.322500 0.000000
0.340000 0.322500 0.000000
0.402500 0.322500 0.000000
0.465000 0.322500 0.000000
0.527500 0.322500 0.000000
0.590000 0.322500 0.000000
0.652500 0.322500 0.000000
0.715000 0.322500 0.000000
0.777500 0.322500 0.000000
0.840000 0.322500 0.000000
0.902500 0.322500 0.000000
0.965000 0.322500 0.000000
1.000000 0.322500 0.000000
1.000000 0.322500 0.000000
0.090000 0.385000 0.000000
0.152500 0.385000 0.000000
0.215000 0.385000 0.000000
0.277500 0.385000 0.000000
0.340000 0.385000 0.000000
0.402500 0.385000 0.000000
0.465000 0.385000 0.000000
0.527500 0.385000 0.000000
0.590000 0.385000 0.000000
0.652500 0.385000 0.000000
0.715000 0.385000 0.000000
0.777500 0.385000 0.000000
0.840000 0.385000 0.000000
0.902500 0.385000 0.000000
0.965000 0.385000 0.000000
1.000000 0.385000 0.000000
1.000000 0.385000 0.000000
0.090000 0.447500 0.000000
0.152500 0.447500 0.000000
0.215000 0.447500 0.000000
0.277500 0.447500 0.000000
0.340000 0.447500 0.000000
0.402500 0.447500 0.000000
0.465000 0.447500 0.000000
0.527500 0.447500 0.000000
0.590000 0.447500 0.000000
0.652500 0.447500 0.000000
0.715000 0.447500 0.000000
0.777500 0.447500 0.000000
0.840000 0.447500 0.000000
0.902500 0.447500 0.000000
0.965000 0.447500 0.000000
1.000000 0.447500 0.000000
1.000000 0.447500 0.000000
0.090000 0.510000 0.000000
0.152500 0.510000 0.000000
0.215000 0.510000 0.000000
0.277500 0.510000 0.000000
0.340000 0.510000 0.000000
0.402500 0.510000 0.000000
0.465000 0.510000 0.000000
0.527500 0.510000 0.000000
0.590000 0.510000 0.000000
0.652500 0.510000 0.000000
0.715000 0.510000 0.000000
0.777500 0.510000 0.000000
0.840000 0.510000 0.000000
0.902500 0.510000 0.000000
0.965000 0.510000 0.000000
1.000000 0.510000 0.000000
1.000000 0.510000 0.000000
0.090000 0.572500 0.000000
0.152500 0.572500 0.000000
0.215000 0.572500 0.000000
0.277500 0.572500 0.000000
0.340000 0.572500 0.000000
0.402500 0.572500 0.000000
0.465000 0.572500 0.000000
0.527500 0.572500 0.000000
0.590000 0.572500 0.000000
0.652500 0.572500 0.000000
0.715000 0.572500 0.000000
0.777500 0.572500 0.000000
0.840000 0.572500 0.000000
0.902500 0.572500 0.000000
0.965000 0.572500 0.000000
1.000000 0.572500 0.000000
1.000000 0.572500 0.000000
0.090000 0.635000 0.000000
0.152500 0.635000 0.000000
0.215000 0.635000 0.000000
0.277500 0.635000 0.000000
0.340000 0.635000 0.000000
0.402500 0.635000 0.000000
0.465000 0.635000 0.000000
0.527500 0.635000 0.000000
0.590000 0.635000 0.000000
0.652500 0.635000 0.000000
0.715000 0.635000 0.000000
0.777500 0.635000 0.000000
0.840000 0.635000 0.000000
0.902500 0.635000 0.000000
0.965000 0.635000 0.000000
1.000000 0.635000 0.000000
1.000000 0.635000 0.000000
0.090000 0.697500 0.000000
0.152500 0.697500 0.000000
0.215000 0.697500 0.000000
0.277500 0.697500 0.000000
0.340000 0.697500 0.000000
0.402500 0.697500 0.000000
0.465000 0.697500 0.000000
0.527500 0.697500 0.000000
0.590000 0.697500 0.000000
0.652500 0.697500 0.000000
0.715000 0.697500 0.000000
0.777500 0.697500 0.000000
0.840000 0.697500 0.000000
0.902500 0.697500 0.000000
0.965000 0.697500 0.000000
1.000000 0.697500 0.000000
1.000000 0.697500 0.000000
0.090000 0.760000 0.000000
0.152500 0.760000 0.000000
0.215000 0.760000 0.000000
0.277500 0.760000 0.000000
0.340000 0.760000 0.000000
0.402500 0.760000 0.000000
0.465000 0.760000 0.000000
0.527500 0.760000 0.000000
0.590000 0.760000 0.000000
0.652500 0.760000 0.000000
0.715000 0.760000 0.000000
0.777500 0.760000 0.000000
0.840000 0.760000 0.000000
0.902500 0.760000 0.000000
0.965000 0.760000 0.000000
1.000000 0.760000 0.000000
1.000000 0.760000 0.000000
0.090000 0.822500 0.000000
0.152500 0.822500 0.000000
0.215000 0.822500 0.000000
0.277500 0.822500 0.000000
0.340000 0.822500 0.000000
0.402500 0.822500 0.000000
0.465000 0.822500 0.000000
0.527500 0.822500 0.000000
0.590000 0.822500 0.000000
0.652500 0.822500 0.000000
0.715000 0.822500 0.000000
0.777500 0.822500 0.000000
0.840000 0.822500 0.000000
0.902500 0.822500 0.000000
0.965000 0.822500 0.000000
1.000000 0.822500 0.000000
1.000000 0.822500 0.000000
0.090000 0.885000 0.000000
0.152500 0.885000 0.000000
0.215000 0.885000 0.000000
0.277500 0.885000 0.000000
0.340000 0.885000 0.000000
0.402500 0.885000 0.000000
0.465000 0.885000 0.000000
0.527500 0.885000 0.000000
0.590000 0.885000 0.000000
0.652500 0.885000 0.000000
0.715000 0.885000 0.000000
0.777500 0.885000 0.000000
0.840000 0.885000 0.000000
0.902500 0.885000 0.000000
0.965000 0.885000 0.000000
1.000000 0.885000 0.000000
1.000000 0.885000 0.000000
0.090000 0.947500 0.000000
0.152500 0.947500 0.000000
0.215000 0.947500 0.000000
0.277500 0.947500 0.000000
0.340000 0.947500 0.000000
0.402500 0.947500 0.000000
0.465000 0.947500 0.000000
0.527500 0.947500 0.000000
0.590000 0.947500 0.000000
0.652500 0.947500 0.000000
0.715000 0.947500 0.000000
0.777500 0.947500 0.000000
0.840000 0.947500 0.000000
0.902500 0.947500 0.000000
0.965000 0.947500 0.000000
1.000000 0.947500 0.000000
1.000000 0.947500 0.000000
0.090000 1.000000 0.000000
0.152500 1.000000 0.000000
0.215000 1.000000 0.000000
0.277500 1.000000 0.000000
0.340000 1.000000 0.000000
0.402500 1.000000 0.000000
0.465000 1.000000 0.000000
0.527500 1.000000 0.000000
0.590000 1.000000 0.000000
0.652500 1.000000 0.000000
0.715000 1.000000 0.000000
0.777500 1.000000 0.000000
0.840000 1.000000 0.000000
0.902500 1.000000 0.000000
0.965000 1.000000 0.000000
1.000000 1.000000 0.000000
1.000000 1.000000 0.000000
0.090000 0.010000 0.035000
0.152500 0.010000 0.035000
0.215000 0.010000 0.035000
0.277500 0.010000 0.035000
0.340000 0.010000 0.035000
0.402500 0.010000 0.035000
0.465000 0.010000 0.035000
0.527500 0.010000 0.035000
0.590000 0.010000 0.035000
0.652500 0.010000 0.035000
0.715000 0.010000 0.035000
0.777500 0.010000 0.035000
0.840000 0.010000 0.035000
0.902500 0.010000 0.035000
0.965000 0.010000 0.035000
1.000000 0.010000 0.035000
1.000000 0.010000 0.035000
0.090000 0.072500 0.035000
0.152500 0.072500 0.035000
0.215000 0.072500 0.035000
0.277500 0.072500 0.035000
0.340000 0.072500 0.035000
0.402500 0.072500 0.035000
0.465000 0.072500 0.035000
0.527500 0.072500 0.035000
0.590000 0.072500 0.035000
0.652500 0.072500 0.035000
0.715000 0.072500 0.035000
0.777500 0.072500 0.035000
0.840000 0.072500 0.035000
0.902500 0.072500 0.035000
0.965000 0.072500 0.035000
1.000000 0.072500 0.035000
1.000000 0.072500 0.035000
0.090000 0.135000 0.035000
0.152500 0.135000 0.035000
0.215000 0.135000 0.035000
0.277500 0.135000 0.035000
0.340000 0.135000 0.035000
0.402500 0.135000 0.035000
0.465000 0.135000 0.035000
0.527500 0.135000 0.035000
0.590000 0.135000 0.035000
0.652500 0.135000 0.035000
0.715000 0.135000 0.035000
0.777500 0.135000 0.035000
0.840000 0.135000 0.035000
0.902500 0.135000 0.035000
0.965000 0.135000 0.035000
1.000000 0.135000 0.035000
1.000000 0.135000 0.035000
0.090000 0.197500 0.035000
0.152500 0.197500 0.035000
0.215000 0.197500 0.035000
0.277500 0.197500 0.035000
0.340000 0.197500 0.035000
0.402500 0.197500 0.035000
0.465000 0.197500 0.035000
0.527500 0.197500 0.035000
0.590000 0.197500 0.035000
0.652500 0.197500 0.035000
0.715000 0.197500 0.035000
0.777500 0.197500 0.035000
0.840000 0.197500 0.035000
0.902500 0.197500 0.035000
0.965000 0.197500 0.035000
1.000000 0.197500 0.035000
1.000000 0.197500 0.035000
0.090000 0.260000 0.035000
0.152500 0.260000 0.035000
0.215000 0.260000 0.035000
0.277500 0.260000 0.035000
0.340000 0.260000 0.035000
0.402500 0.260000 0.035000
0.465000 0.260000 0.035000
0.527500 0.260000 0.035000
0.590000 0.260000 0.035000
0.652500 0.260000 0.035000
0.715000 0.260000 0.035000
0.777500 0.260000 0.035000
0.840000 0.260000 0.035000
0.902500 0.260000 0.035000
0.965000 0.260000 0.035000
1.000000 0.260000 0.035000
1.000000 0.260000 0.035000
0.090000 0.322500 0.035000
0.152500 0.322500 0.035000
0.215000 0.322500 0.035000
0.277500 0.322500 0.035000
0.340000 0.322500 0.035000
0.402500 0.322500 0.035000
0.465000 0.322500 0.035000
0.527500 0.322500 0.035000
0.590000 0.322500 0.035000
0.652500 0.322500 0.035000
0.715000 0.322500 0.035000
0.777500 0.322500 0.035000
0.840000 0.322500 0.035000
0.902500 0.322500 0.035000
0.965000 0.322500 0.035000
1.000000 0.322500 0.035000
1.000000 0.322500 0.035000
0.090000 0.385000 0.035000
0.152500 0.385000 0.035000
0.215000 0.385000 0.035000
0.277500 0.385000 0.035000
0.340000 0.385000 0.035000
0.402500 0.385000 0.035000
0.465000 0.385000 0.035000
0.527500 0.385000 0.035000
0.590000 0.385000 0.035000
0.652500 0.385000 0.035000
0.715000 0.385000 0.035000
0.777500 0.385000 0.035000
0.840000 0.385000 0.035000
0.902500 0.385000 0.035000
0.965000 0.385000 0.035000
1.000000 0.385000 0.035000
1.000000 0.385000 0.035000
0.090000 0.447500 0.035000
0.152500 0.447500 0.035000
0.215000 0.447500 0.035000
0.277500 0.447500 0.035000
0.340000 0.447500 0.035000
0.402500 0.447500 0.035000
0.465000 0.447500 0.035000
0.527500 0.447500 0.035000
0.590000 0.447500 0.035000
0.652500 0.447500 0.035000
0.715000 0.447500 0.035000
0.777500 0.447500 0.035000
0.840000 0.447500 0.035000
0.902500 0.447500 0.035000
0.965000 0.447500 0.035000
1.000000 0.447500 0.035000
1.000000 0.447500 0.035000
0.090000 0.510000 0.035000
0.152500 0.510000 0.035000
0.215000 0.510000 0.035000
0.277500 0.510000 0.035000
0.340000 0.510000 0.035000
0.402500 0.510000 0.035000
0.465000 0.510000 0.035000
0.527500 0.510000 0.035000
0.590000 0.510000 0.035000
0.652500 0.510000 0.035000
0.715000 0.510000 0.035000
0.777500 0.510000 0.035000
0.840000 0.510000 0.035000
0.902500 0.510000 0.035000
0.965000 0.510000 0.035000
1.000000 0.510000 0.035000
1.000000 0.510000 0.035000
0.090000 0.572500 0.035000
0.152500 0.572500 0.035000
0.215000 0.572500 0.035000
0.277500 0.572500 0.035000
0.340000 0.572500 0.035000
0.402500 0.572500 0.035000
0.465000 0.572500 0.035000
0.527500 0.572500 0.035000
0.590000 0.572500 0.035000
0.652500 0.572500 0.035000
0.715000 0.572500 0.035000
0.777500 0.572500 0.035000
0.840000 0.572500 0.035000
0.902500 0.572500 0.035000
0.965000 0.572500 0.035000
1.000000 0.572500 0.035000
1.000000 0.572500 0.035000
0.090000 0.635000 0.035000
0.152500 0.635000 0.035000
0.215000 0.635000 0.035000
0.277500 0.635000 0.035000
0.340000 0.635000 0.035000
0.402500 0.635000 0.035000
0.465000 0.635000 0.035000
0.527500 0.635000 0.035000
0.590000 0.635000 0.035000
0.652500 0.635000 0.035000
0.715000 0.635000 0.035000
0.777500 0.635000 0.035000
0.840000 0.635000 0.035000
0.902500 0.635000 0.035000
0.965000 0.635000 0.035000
1.000000 0.635000 0.035000
1.000000 0.635000 0.035000
0.090000 0.697500 0.035000
0.152500 0.697500 0.035000
0.215000 0.697500 0.035000
0.277500 0.697500 0.035000
0.340000 0.697500 0.035000
0.402500 0.697500 0.035000
0.465000 0.697500 0.035000
0.527500 0.697500 0.035000
0.590000 0.697500 0.035000
0.652500 0.697500 0.035000
0.715000 0.697500 0.035000
0.777500 0.697500 0.035000
0.840000 0.697500 0.035000
0.902500 0.697500 0.035000
0.965000 0.697500 0.035000
1.000000 0.697500 0.035000
1.000000 0.697500 0.035000
0.090000 0.760000 0.035000
0.152500 0.760000 0.035000
0.215000 0.760000 0.035000
0.277500 0.760000 0.035000
0.340000 0.760000 0.035000
0.402500 0.760000 0.035000
0.465000 0.760000 0.035000
0.527500 0.760000 0.035000
0.590000 0.760000 0.035000
0.652500 0.760000 0.035000
0.715000 0.760000 0.035000
0.777500 0.760000 0.035000
0.840000 0.760000 0.035000
0.902500 0.760000 0.035000
0.965000 0.760000 0.035000
1.000000 0.760000 0.035000
1.000000 0.760000 0.035000
0.090000 0.822500 0.035000
0.152500 0.822500 0.035000
0.215000 0.822500 0.035000
0.277500 0.822500 0.035000
0.340000 0.822500 0.035000
0.402500 0.822500 0.035000
0.465000 0.822500 0.035000
0.527500 0.822500 0.035000
0.590000 0.822500 0.035000
0.652500 0.822500 0.035000
0.715000 0.822500 0.035000
0.777500 0.822500 0.035000
0.840000 0.822500 0.035000
0.902500 0.822500 0.035000
0.965000 0.822500 0.035000
1.000000 0.822500 0.035000
1.000000 0.822500 0.035000
0.090000 0.885000 0.035000
0.152500 0.885000 0.035000
0.215000 0.885000 0.035000
0.277500 0.885000 0.035000
0.340000 0.885000 0.035000
0.402500 0.885000 0.035000
0.465000 0.885000 0.035000
0.527500 0.885000 0.035000
0.590000 0.885000 0.035000
0.652500 0.885000 0.035000
0.715000 0.885000 0.035000
0.777500 0.885000 0.035000
0.840000 0.885000 0.035000
0.902500 0.885000 0.035000
0.965000 0.885000 0.035000
1.000000 0.885000 0.035000
1.000000 0.885000 0.035000
0.090000 0.947500 0.035000
0.152500 0.947500 0.035000
0.215000 0.947500 0.035000
0.277500 0.947500 0.035000
0.340000 0.947500 0.035000
0.402500 0.947500 0.035000
0.465000 0.947500 0.035000
0.527500 0.947500 0.035000
0.590000 0.947500 0.035000
0.652500 0.947500 0.035000
0.715000 0.947500 0.035000
0.777500 0.947500 0.035000
0.840000 0.947500 0.035000
0.902500 0.947500 0.035000
0.965000 0.947500 0.035000
1.000000 0.947500 0.035000
1.000000 0.947500 0.035000
0.090000 1.000000 0.035000
0.152500 1.000000 0.035000
0.215000 1.000000 0.035000
0.277500 1.000000 0.035000
0.340000 1.000000 0.035000
0.402500 1.000000 0.035000
0.465000 1.000000 0.035000
0.527500 1.000000 0.035000
0.590000 1.000000 0.035000
0.652500 1.000000 0.035000
0.715000 1.000000 0.035000
0.777500 1.000000 0.035000
0.840000 1.000000 0.035000
0.902500 1.000000 0.035000
0.965000 1.000000 0.035000
1.000000 1.000000 0.035000
1.000000 1.000000 0.035000
0.090000 0.010000 0.097500
0.152500 0.010000 0.097500
0.215000 0.010000 0.097500
0.277500 0.010000 0.097500
0.340000 0.010000 0.097500
0.402500 0.010000 0.097500
0.465000 0.010000 0.097500
0.527500 0.010000 0.097500
0.590000 0.010000 0.097500
0.652500 0.010000 0.097500
0.715000 0.010000 0.097500
0.777500 0.010000 0.097500
0.840000 0.010000 0.097500
0.902500 0.010000 0.097500
0.965000 0.010000 0.097500
1.000000 0.010000 0.097500
1.000000 0.010000 0.097500
0.090000 0.072500 0.097500
0.152500 0.072500 0.097500
