lut-visualizer/public/data/sample_luts/warm_strong.cube
LUT_3D_SIZE 9
DOMAIN_MIN 0.0 0.0 0.0
DOMAIN_MAX 1.0 1.0 1.0
0.090000 0.010000 0.000000
0.215000 0.010000 0.000000
0.340000 0.010000 0.000000
0.465000 0.010000 0.000000
0.590000 0.010000 0.000000
0.715000 0.010000 0.000000
0.840000 0.010000 0.000000
0.965000 0.010000 0.000000
1.000000 0.010000 0.000000
0.090000 0.135000 0.000000
0.215000 0.135000 0.000000
0.340000 0.135000 0.000000
0.465000 0.135000 0.000000
0.590000 0.135000 0.000000
0.715000 0.135000 0.000000
0.840000 0.135000 0.000000
0.965000 0.135000 0.000000
1.000000 0.135000 0.000000
0.090000 0.260000 0.000000
0.215000 0.260000 0.000000
0.340000 0.260000 0.000000
0.465000 0.260000 0.000000
0.590000 0.260000 0.000000
0.715000 0.260000 0.000000
0.840000 0.260000 0.000000
0.965000 0.260000 0.000000
1.000000 0.260000 0.000000
0.090000 0.385000 0.000000
0.215000 0.385000 0.000000
0.340000 0.385000 0.000000
0.465000 0.385000 0.000000
0.590000 0.385000 0.000000
0.715000 0.385000 0.000000
0.840000 0.385000 0.000000
0.965000 0.385000 0.000000
1.000000 0.385000 0.000000
0.090000 0.510000 0.000000
0.215000 0.510000 0.000000
0.340000 0.510000 0.000000
0.465000 0.510000 0.000000
0.590000 0.510000 0.000000
0.715000 0.510000 0.000000
0.840000 0.510000 0.000000
0.965000 0.510000 0.000000
1.000000 0.510000 0.000000
0.090000 0.635000 0.000000
0.215000 0.635000 0.000000
0.340000 0.635000 0.000000
0.465000 0.635000 0.000000
0.590000 0.635000 0.000000
0.715000 0.635000 0.000000
0.840000 0.635000 0.000000
0.965000 0.635000 0.000000
1.000000 0.635000 0.000000
0.090000 0.760000 0.000000
0.215000 0.760000 0.000000
0.340000 0.760000 0.000000
0.465000 0.760000 0.000000
0.590000 0.760000 0.000000
0.715000 0.760000 0.000000
0.840000 0.760000 0.000000
0.965000 0.760000 0.000000
1.000000 0.760000 0.000000
0.090000 0.885000 0.000000
0.215000 0.885000 0.000000
0.340000 0.885000 0.000000
0.465000 0.885000 0.000000
0.590000 0.885000 0.000000
0.715000 0.885000 0.000000
0.840000 0.885000 0.000000
0.965000 0.885000 0.000000
1.000000 0.885000 0.000000
0.090000 1.000000 0.000000
0.215000 1.000000 0.000000
0.340000 1.000000 0.000000
0.465000 1.000000 0.000000
0.590000 1.000000 0.000000
0.715000 1.000000 0.000000
0.840000 1.000000 0.000000
0.965000 1.000000 0.000000
1.000000 1.000000 0.000000
0.090000 0.010000 0.035000
0.215000 0.010000 0.035000
0.340000 0.010000 0.035000
0.465000 0.010000 0.035000
0.590000 0.010000 0.035000
0.715000 0.010000 0.035000
0.840000 0.010000 0.035000
0.965000 0.010000 0.035000
1.000000 0.010000 0.035000
0.090000 0.135000 0.035000
0.215000 0.135000 0.035000
0.340000 0.135000 0.035000
0.465000 0.135000 0.035000
0.590000 0.135000 0.035000
0.715000 0.135000 0.035000
0.840000 0.135000 0.035000
0.965000 0.135000 0.035000
1.000000 0.135000 0.035000
0.090000 0.260000 0.035000
0.215000 0.260000 0.035000
0.340000 0.260000 0.035000
0.465000 0.260000 0.035000
0.590000 0.260000 0.035000
0.715000 0.260000 0.035000
0.840000 0.260000 0.035000
0.965000 0.260000 0.035000
1.000000 0.260000 0.035000
0.090000 0.385000 0.035000
0.215000 0.385000 0.035000
0.340000 0.385000 0.035000
0.465000 0.385000 0.035000
0.590000 0.385000 0.035000
0.715000 0.385000 0.035000
0.840000 0.385000 0.035000
0.965000 0.385000 0.035000
1.000000 0.385000 0.035000
0.090000 0.510000 0.035000
0.215000 0.510000 0.035000
0.340000 0.510000 0.035000
0.465000 0.510000 0.035000
0.590000 0.510000 0.035000
0.715000 0.510000 0.035000
0.840000 0.510000 0.035000
0.965000 0.510000 0.035000
1.000000 0.510000 0.035000
0.090000 0.635000 0.035000
0.215000 0.635000 0.035000
0.340000 0.635000 0.035000
0.465000 0.635000 0.035000
0.590000 0.635000 0.035000
0.715000 0.635000 0.035000
0.840000 0.635000 0.035000
0.965000 0.635000 0.035000
1.000000 0.635000 0.035000
0.090000 0.760000 0.035000
0.215000 0.760000 0.035000
0.340000 0.760000 0.035000
0.465000 0.760000 0.035000
0.590000 0.760000 0.035000
0.715000 0.760000 0.035000
0.840000 0.760000 0.035000
0.965000 0.760000 0.035000
1.000000 0.760000 0.035000
0.090000 0.885000 0.035000
0.215000 0.885000 0.035000
0.340000 0.885000 0.035000
0.465000 0.885000 0.035000
0.590000 0.885000 0.035000
0.715000 0.885000 0.035000
0.840000 0.885000 0.035000
0.965000 0.885000 0.035000
1.000000 0.885000 0.035000
0.090000 1.000000 0.035000
0.215000 1.000000 0.035000
0.340000 1.000000 0.035000
0.465000 1.000000 0.035000
0.590000 1.000000 0.035000
0.715000 1.000000 0.035000
0.840000 1.000000 0.035000
0.965000 1.000000 0.035000
1.000000 1.000000 0.035000
0.090000 0.010000 0.160000
0.215000 0.010000 0.160000
0.340000 0.010000 0.160000
0.465000 0.010000 0.160000
0.590000 0.010000 0.160000
0.715000 0.010000 0.160000
0.840000 0.010000 0.160000
0.965000 0.010000 0.160000
1.000000 0.010000 0.160000
0.090000 0.135000 0.160000
0.215000 0.135000 0.160000
0.340000 0.135000 0.160000
0.465000 0.135000 0.160000
0.590000 0.135000 0.160000
0.715000 0.135000 0.160000
0.840000 0.135000 0.160000
0.965000 0.135000 0.160000
1.000000 0.135000 0.160000
0.090000 0.260000 0.160000
0.215000 0.260000 0.160000
0.340000 0.260000 0.160000
0.465000 0.260000 0.160000
0.590000 0.260000 0.160000
0.715000 0.260000 0.160000
0.840000 0.260000 0.160000
0.965000 0.260000 0.160000
1.000000 0.260000 0.160000
0.090000 0.385000 0.160000
0.215000 0.385000 0.160000
0.340000 0.385000 0.160000
0.465000 0.385000 0.160000
0.590000 0.385000 0.160000
0.715000 0.385000 0.160000
0.840000 0.385000 0.160000
0.965000 0.385000 0.160000
1.000000 0.385000 0.160000
0.090000 0.510000 0.160000
0.215000 0.510000 0.160000
0.340000 0.510000 0.160000
0.465000 0.510000 0.160000
0.590000 0.510000 0.160000
0.715000 0.510000 0.160000
0.840000 0.510000 0.160000
0.965000 0.510000 0.160000
1.000000 0.510000 0.160000
0.090000 0.635000 0.160000
0.215000 0.635000 0.160000
0.340000 0.635000 0.160000
0.465000 0.635000 0.160000
0.590000 0.635000 0.160000
0.715000 0.635000 0.160000
0.840000 0.635000 0.160000
0.965000 0.635000 0.160000
1.000000 0.635000 0.160000
0.090000 0.760000 0.160000
0.215000 0.760000 0.160000
0.340000 0.760000 0.160000
0.465000 0.760000 0.160000
0.590000 0.760000 0.160000
0.715000 0.760000 0.160000
0.840000 0.760000 0.160000
0.965000 0.760000 0.160000
1.000000 0.760000 0.160000
0.090000 0.885000 0.160000
0.215000 0.885000 0.160000
0.340000 0.885000 0.160000
0.465000 0.885000 0.160000
0.590000 0.885000 0.160000
0.715000 0.885000 0.160000
0.840000 0.885000 0.160000
0.965000 0.885000 0.160000
1.000000 0.885000 0.160000
0.090000 1.000000 0.160000
0.215000 1.000000 0.160000
0.340000 1.000000 0.160000
0.465000 1.000000 0.160000
0.590000 1.000000 0.160000
0.715000 1.000000 0.160000
0.840000 1.000000 0.160000
0.965000 1.000000 0.160000
1.000000 1.000000 0.160000
0.090000 0.010000 0.285000
0.215000 0.010000 0.285000
0.340000 0.010000 0.285000
0.465000 0.010000 0.285000
0.590000 0.010000 0.285000
0.715000 0.010000 0.285000
0.840000 0.010000 0.285000
0.965000 0.010000 0.285000
1.000000 0.010000 0.285000
0.090000 0.135000 0.285000
0.215000 0.135000 0.285000
0.340000 0.135000 0.285000
0.465000 0.135000 0.285000
0.590000 0.135000 0.285000
0.715000 0.135000 0.285000
0.840000 0.135000 0.285000
0.965000 0.135000 0.285000
1.000000 0.135000 0.285000
0.090000 0.260000 0.285000
0.215000 0.260000 0.285000
0.340000 0.260000 0.285000
0.465000 0.260000 0.285000
0.590000 0.260000 0.285000
0.715000 0.260000 0.285000
0.840000 0.260000 0.285000
0.965000 0.260000 0.285000
1.000000 0.260000 0.285000
0.090000 0.385000 0.285000
0.215000 0.385000 0.285000
0.340000 0.385000 0.285000
0.465000 0.385000 0.285000
0.590000 0.385000 0.285000
0.715000 0.385000 0.285000
0.840000 0.385000 0.285000
0.965000 0.385000 0.285000
1.000000 0.385000 0.285000
0.090000 0.510000 0.285000
0.215000 0.510000 0.285000
0.340000 0.510000 0.285000
0.465000 0.510000 0.285000
0.590000 0.510000 0.285000
0.715000 0.510000 0.285000
0.840000 0.510000 0.285000
0.965000 0.510000 0.285000
1.000000 0.510000 0.285000
0.090000 0.635000 0.285000
0.215000 0.635000 0.285000
0.340000 0.635000 0.285000
0.465000 0.635000 0.285000
0.590000 0.635000 0.285000
0.715000 0.635000 0.285000
0.840000 0.635000 0.285000
0.965000 0.635000 0.285000
1.000000 0.635000 0.285000
0.090000 0.760000 0.285000
0.215000 0.760000 0.285000
0.340000 0.760000 0.285000
0.465000 0.760000 0.285000
0.590000 0.760000 0.285000
0.715000 0.760000 0.285000
0.840000 0.760000 0.285000
0.965000 0.760000 0.285000
1.000000 0.760000 0.285000
0.090000 0.885000 0.285000
0.215000 0.885000 0.285000
0.340000 0.885000 0.285000
0.465000 0.885000 0.285000
0.590000 0.885000 0.285000
0.715000 0.885000 0.285000
0.840000 0.885000 0.285000
0.965000 0.885000 0.285000
1.000000 0.885000 0.285000
0.090000 1.000000 0.285000
0.215000 1.000000 0.285000
0.340000 1.000000 0.285000
0.465000 1.000000 0.285000
0.590000 1.000000 0.285000
0.715000 1.000000 0.285000
0.840000 1.000000 0.285000
0.965000 1.000000 0.285000
1.000000 1.000000 0.285000
0.090000 0.010000 0.410000
0.215000 0.010000 0.410000
0.340000 0.010000 0.410000
0.465000 0.010000 0.410000
0.590000 0.010000 0.410000
0.715000 0.010000 0.410000
0.840000 0.010000 0.410000
0.965000 0.010000 0.410000
1.000000 0.010000 0.410000
0.090000 0.135000 0.410000
0.215000 0.135000 0.410000
0.340000 0.135000 0.410000
0.465000 0.135000 0.410000
0.590000 0.135000 0.410000
0.715000 0.135000 0.410000
0.840000 0.135000 0.410000
0.965000 0.135000 0.410000
1.000000 0.135000 0.410000
0.090000 0.260000 0.410000
0.215000 0.260000 0.410000
0.340000 0.260000 0.410000
0.465000 0.260000 0.410000
0.590000 0.260000 0.410000
0.715000 0.260000 0.410000
0.840000 0.260000 0.410000
0.965000 0.260000 0.410000
1.000000 0.260000 0.410000
0.090000 0.385000 0.410000
0.215000 0.385000 0.410000
0.340000 0.385000 0.410000
0.465000 0.385000 0.410000
0.590000 0.385000 0.410000
0.715000 0.385000 0.410000
0.840000 0.385000 0.410000
0.965000 0.385000 0.410000
1.000000 0.385000 0.410000
0.090000 0.510000 0.410000
0.215000 0.510000 0.410000
0.340000 0.510000 0.410000
0.465000 0.510000 0.410000
0.590000 0.510000 0.410000
0.715000 0.510000 0.410000
0.840000 0.510000 0.410000
0.965000 0.510000 0.410000
1.000000 0.510000 0.410000
0.090000 0.635000 0.410000
0.215000 0.635000 0.410000
0.340000 0.635000 0.410000
0.465000 0.635000 0.410000
0.590000 0.635000 0.410000
0.715000 0.635000 0.410000
0.840000 0.635000 0.410000
0.965000 0.635000 0.410000
1.000000 0.635000 0.410000
0.090000 0.760000 0.410000
0.215000 0.760000 0.410000
0.340000 0.760000 0.410000
0.465000 0.760000 0.410000
0.590000 0.760000 0.410000
0.715000 0.760000 0.410000
0.840000 0.760000 0.410000
0.965000 0.760000 0.410000
1.000000 0.760000 0.410000
0.090000 0.885000 0.410000
0.215000 0.885000 0.410000
0.340000 0.885000 0.410000
0.465000 0.885000 0.410000
0.590000 0.885000 0.410000
0.715000 0.885000 0.410000
0.840000 0.885000 0.410000
0.965000 0.885000 0.410000
1.000000 0.885000 0.410000
0.090000 1.000000 0.410000
0.215000 1.000000 0.410000
0.340000 1.000000 0.410000
0.465000 1.000000 0.410000
0.590000 1.000000 0.410000
0.715000 1.000000 0.410000
0.840000 1.000000 0.410000
0.965000 1.000000 0.410000
1.000000 1.000000 0.410000
0.090000 0.010000 0.535000
0.215000 0.010000 0.535000
0.340000 0.010000 0.535000
0.465000 0.010000 0.535000
0.590000 0.010000 0.535000
0.715000 0.010000 0.535000
0.840000 0.010000 0.535000
0.965000 0.010000 0.535000
1.000000 0.010000 0.535000
0.090000 0.135000 0.535000
0.215000 0.135000 0.535000
0.340000 0.135000 0.535000
0.465000 0.135000 0.535000
0.590000 0.135000 0.535000
0.715000 0.135000 0.535000
0.840000 0.135000 0.535000
0.965000 0.135000 0.535000
1.000000 0.135000 0.535000
0.090000 0.260000 0.535000
0.215000 0.260000 0.535000
0.340000 0.260000 0.535000
0.465000 0.260000 0.535000
0.590000 0.260000 0.535000
0.715000 0.260000 0.535000
0.840000 0.260000 0.535000
0.965000 0.260000 0.535000
1.000000 0.260000 0.535000
0.090000 0.385000 0.535000
0.215000 0.385000 0.535000
0.340000 0.385000 0.535000
0.465000 0.385000 0.535000
0.590000 0.385000 0.535000
0.715000 0.385000 0.535000
0.840000 0.385000 0.535000
0.965000 0.385000 0.535000
1.000000 0.385000 0.535000
0.090000 0.510000 0.535000
0.215000 0.510000 0.535000
0.340000 0.510000 0.535000
0.465000 0.510000 0.535000
0.590000 0.510000 0.535000
0.715000 0.510000 0.535000
0.840000 0.510000 0.535000
0.965000 0.510000 0.535000
1.000000 0.510000 0.535000
0.090000 0.635000 0.535000
0.215000 0.635000 0.535000
0.340000 0.635000 0.535000
0.465000 0.635000 0.535000
0.590000 0.635000 0.535000
0.715000 0.635000 0.535000
0.840000 0.635000 0.535000
0.965000 0.635000 0.535000
1.000000 0.635000 0.535000
0.090000 0.760000 0.535000
0.215000 0.760000 0.535000
0.340000 0.760000 0.535000
0.465000 0.760000 0.535000
0.590000 0.760000 0.535000
0.715000 0.760000 0.535000
0.840000 0.760000 0.535000
0.965000 0.760000 0.535000
1.000000 0.760000 0.535000
0.090000 0.885000 0.535000
0.215000 0.885000 0.535000
0.340000 0.885000 0.535000
0.465000 0.885000 0.535000
0.590000 0.885000 0.535000
0.715000 0.885000 0.535000
0.840000 0.885000 0.535000
0.965000 0.885000 0.535000
1.000000 0.885000 0.535000
0.090000 1.000000 0.535000
0.215000 1.000000 0.535000
0.340000 1.000000 0.535000
0.465000 1.000000 0.535000
0.590000 1.000000 0.535000
0.715000 1.000000 0.535000
0.840000 1.000000 0.535000
0.965000 1.000000 0.535000
1.000000 1.000000 0.535000
0.090000 0.010000 0.660000
0.215000 0.010000 0.660000
0.340000 0.010000 0.660000
0.465000 0.010000 0.660000
0.590000 0.010000 0.660000
0.715000 0.010000 0.660000
0.840000 0.010000 0.660000
0.965000 0.010000 0.660000
1.000000 0.010000 0.660000
0.090000 0.135000 0.660000
0.215000 0.135000 0.660000
0.340000 0.135000 0.660000
0.465000 0.135000 0.660000
0.590000 0.135000 0.660000
0.715000 0.135000 0.660000
0.840000 0.135000 0.660000
0.965000 0.135000 0.660000
1.000000 0.135000 0.660000
0.090000 0.260000 0.660000
0.215000 0.260000 0.660000
0.340000 0.260000 0.660000
0.465000 0.260000 0.660000
0.590000 0.260000 0.660000
0.715000 0.260000 0.660000
0.840000 0.260000 0.660000
0.965000 0.260000 0.660000
1.000000 0.260000 0.660000
0.090000 0.385000 0.660000
0.215000 0.385000 0.660000
0.340000 0.385000 0.660000
0.465000 0.385000 0.660000
0.590000 0.385000 0.660000
0.715000 0.385000 0.660000
0.840000 0.385000 0.660000
0.965000 0.385000 0.660000
1.000000 0.385000 0.660000
0.090000 0.510000 0.660000
0.215000 0.510000 0.660000
0.340000 0.510000 0.660000
0.465000 0.510000 0.660000
0.590000 0.510000 0.660000
0.715000 0.510000 0.660000
0.840000 0.510000 0.660000
0.965000 0.510000 0.660000
1.000000 0.510000 0.660000
0.090000 0.635000 0.660000
0.215000 0.635000 0.660000
0.340000 0.635000 0.660000
0.465000 0.635000 0.660000
0.590000 0.635000 0.660000
0.715000 0.635000 0.660000
0.840000 0.635000 0.660000
0.965000 0.635000 0.660000
1.000000 0.635000 0.660000
0.090000 0.760000 0.660000
0.215000 0.760000 0.660000
0.340000 0.760000 0.660000
0.465000 0.760000 0.660000
0.590000 0.760000 0.660000
0.715000 0.760000 0.660000
0.840000 0.760000 0.660000
0.965000 0.760000 0.660000
1.000000 0.760000 0.660000
0.090000 0.885000 0.660000
0.215000 0.885000 0.660000
0.340000 0.885000 0.660000
0.465000 0.885000 0.660000
0.590000 0.885000 0.660000
0.715000 0.885000 0.660000
0.840000 0.885000 0.660000
0.965000 0.885000 0.660000
1.000000 0.885000 0.660000
0.090000 1.000000 0.660000
0.215000 1.000000 0.660000
0.340000 1.000000 0.660000
0.465000 1.000000 0.660000
0.590000 1.000000 0.660000
0.715000 1.000000 0.660000
0.840000 1.000000 0.660000
0.965000 1.000000 0.660000
1.000000 1.000000 0.660000
0.090000 0.010000 0.785000
0.215000 0.010000 0.785000
0.340000 0.010000 0.785000
0.465000 0.010000 0.785000
0.590000 0.010000 0.785000
0.715000 0.010000 0.785000
0.840000 0.010000 0.785000
0.965000 0.010000 0.785000
1.000000 0.010000 0.785000
0.090000 0.135000 0.785000
0.215000 0.135000 0.785000
0.340000 0.135000 0.785000
0.465000 0.135000 0.785000
0.590000 0.135000 0.785000
0.715000 0.135000 0.785000
0.840000 0.135000 0.785000
0.965000 0.135000 0.785000
1.000000 0.135000 0.785000
0.090000 0.260000 0.785000
0.215000 0.260000 0.785000
0.340000 0.260000 0.785000
0.465000 0.260000 0.785000
0.590000 0.260000 0.785000
0.715000 0.260000 0.785000
0.840000 0.260000 0.785000
0.965000 0.260000 0.785000
1.000000 0.260000 0.785000
0.090000 0.385000 0.785000
0.215000 0.385000 0.785000
0.340000 0.385000 0.785000
0.465000 0.385000 0.785000
0.590000 0.385000 0.785000
0.715000 0.385000 0.785000
0.840000 0.385000 0.785000
0.965000 0.385000 0.785000
1.000000 0.385000 0.785000
0.090000 0.510000 0.785000
0.215000 0.510000 0.785000
0.340000 0.510000 0.785000
0.465000 0.510000 0.785000
0.590000 0.510000 0.785000
0.715000 0.510000 0.785000
0.840000 0.510000 0.785000
0.965000 0.510000 0.785000
1.000000 0.510000 0.785000
0.090000 0.635000 0.785000
0.215000 0.635000 0.785000
0.340000 0.635000 0.785000
0.465000 0.635000 0.785000
0.590000 0.635000 0.785000
0.715000 0.635000 0.785000
0.840000 0.635000 0.785000
0.965000 0.635000 0.785000
1.000000 0.635000 0.785000
0.090000 0.760000 0.785000
0.215000 0.760000 0.785000
0.340000 0.760000 0.785000
0.465000 0.760000 0.785000
0.590000 0.760000 0.785000
0.715000 0.760000 0.785000
0.840000 0.760000 0.785000
0.965000 0.760000 0.785000
1.000000 0.760000 0.785000
0.090000 0.885000 0.785000
0.215000 0.885000 0.785000
0.340000 0.885000 0.785000
0.465000 0.885000 0.785000
0.590000 0.885000 0.785000
0.715000 0.885000 0.785000
0.840000 0.885000 0.785000
0.965000 0.885000 0.785000
1.000000 0.885000 0.785000
0.090000 1.000000 0.785000
0.215000 1.000000 0.785000
0.340000 1.000000 0.785000
0.465000 1.000000 0.785000
0.590000 1.000000 0.785000
0.715000 1.000000 0.785000
0.840000 1.000000 0.785000
0.965000 1.000000 0.785000
1.000000 1.000000 0.785000
0.090000 0.010000 0.910000
0.215000 0.010000 0.910000
0.340000 0.010000 0.910000
0.465000 0.010000 0.910000
0.590000 0.010000 0.910000
0.715000 0.010000 0.910000
0.840000 0.010000 0.910000
0.965000 0.010000 0.910000
1.000000 0.010000 0.910000
0.090000 0.135000 0.910000
0.215000 0.135000 0.910000
0.340000 0.135000 0.910000
0.465000 0.135000 0.910000
0.590000 0.135000 0.910000
0.715000 0.135000 0.910000
0.840000 0.135000 0.910000
0.965000 0.135000 0.910000
1.000000 0.135000 0.910000
0.090000 0.260000 0.910000
0.215000 0.260000 0.910000
0.340000 0.260000 0.910000
0.465000 0.260000 0.910000
0.590000 0.260000 0.910000
0.715000 0.260000 0.910000
0.840000 0.260000 0.910000
0.965000 0.260000 0.910000
1.000000 0.260000 0.910000
0.090000 0.385000 0.910000
0.215000 0.385000 0.910000
0.340000 0.385000 0.910000
0.465000 0.385000 0.910000
0.590000 0.385000 0.910000
0.715000 0.385000 0.910000
0.840000 0.385000 0.910000
0.965000 0.385000 0.910000
1.000000 0.385000 0.910000
0.090000 0.510000 0.910000
0.215000 0.510000 0.910000
0.340000 0.510000 0.910000
0.465000 0.510000 0.910000
0.590000 0.510000 0.910000
0.715000 0.510000 0.910000
0.840000 0.510000 0.910000
0.965000 0.510000 0.910000
1.000000 0.510000 0.910000
0.090000 0.635000 0.910000
0.215000 0.635000 0.910000
0.340000 0.635000 0.910000
0.465000 0.635000 0.910000
0.590000 0.635000 0.910000
0.715000 0.635000 0.910000
0.840000 0.635000 0.910000
0.965000 0.635000 0.910000
1.000000 0.635000 0.910000
0.090000 0.760000 0.910000
0.215000 0.760000 0.910000
0.340000 0.760000 0.910000
0.465000 0.760000 0.910000
0.590000 0.760000 0.910000
0.715000 0.760000 0.910000
0.840000 0.760000 0.910000
0.965000 0.760000 0.910000
1.000000 0.760000 0.910000
0.090000 0.885000 0.910000
0.215000 0.885000 0.910000
0.340000 0.885000 0.910000
0.465000 0.885000 0.910000
0.590000 0.885000 0.910000
0.715000 0.885000 0.910000
0.840000 0.885000 0.910000
0.965000 0.885000 0.910000
1.000000 0.885000 0.910000
0.090000 1.000000 0.910000
0.215000 1.000000 0.910000
0.340000 1.000000 0.910000
0.465000 1.000000 0.910000
0.590000 1.000000 0.910000
0.715000 1.000000 0.910000
0.840000 1.000000 0.910000
0.965000 1.000000 0.910000
1.000000 1.000000 0.910000
