lut-visualizer/public/data/sample_luts/warm_mild.cube
LUT_3D_SIZE 5
DOMAIN_MIN 0.0 0.0 0.0
DOMAIN_MAX 1.0 1.0 1.0
0.040000 0.005000 0.000000
0.290000 0.005000 0.000000
0.540000 0.005000 0.000000
0.790000 0.005000 0.000000
1.000000 0.005000 0.000000
0.040000 0.255000 0.000000
0.290000 0.255000 0.000000
0.540000 0.255000 0.000000
0.790000 0.255000 0.000000
1.000000 0.255000 0.000000
0.040000 0.505000 0.000000
0.290000 0.505000 0.000000
0.540000 0.505000 0.000000
0.790000 0.505000 0.000000
1.000000 0.505000 0.000000
0.040000 0.755000 0.000000
0.290000 0.755000 0.000000
0.540000 0.755000 0.000000
0.790000 0.755000 0.000000
1.000000 0.755000 0.000000
0.040000 1.000000 0.000000
0.290000 1.000000 0.000000
0.540000 1.000000 0.000000
0.790000 1.000000 0.000000
1.000000 1.000000 0.000000
0.040000 0.005000 0.210000
0.290000 0.005000 0.210000
0.540000 0.005000 0.210000
0.790000 0.005000 0.210000
1.000000 0.005000 0.210000
0.040000 0.255000 0.210000
0.290000 0.255000 0.210000
0.540000 0.255000 0.210000
0.790000 0.255000 0.210000
1.000000 0.255000 0.210000
0.040000 0.505000 0.210000
0.290000 0.505000 0.210000
0.540000 0.505000 0.210000
0.790000 0.505000 0.210000
1.000000 0.505000 0.210000
0.040000 0.755000 0.210000
0.290000 0.755000 0.210000
0.540000 0.755000 0.210000
0.790000 0.755000 0.210000
1.000000 0.755000 0.210000
0.040000 1.000000 0.210000
0.290000 1.000000 0.210000
0.540000 1.000000 0.210000
0.790000 1.000000 0.210000
1.000000 1.000000 0.210000
0.040000 0.005000 0.460000
0.290000 0.005000 0.460000
0.540000 0.005000 0.460000
0.790000 0.005000 0.460000
1.000000 0.005000 0.460000
0.040000 0.255000 0.460000
0.290000 0.255000 0.460000
0.540000 0.255000 0.460000
0.790000 0.255000 0.460000
1.000000 0.255000 0.460000
0.040000 0.505000 0.460000
0.290000 0.505000 0.460000
0.540000 0.505000 0.460000
0.790000 0.505000 0.460000
1.000000 0.505000 0.460000
0.040000 0.755000 0.460000
0.290000 0.755000 0.460000
0.540000 0.755000 0.460000
0.790000 0.755000 0.460000
1.000000 0.755000 0.460000
0.040000 1.000000 0.460000
0.290000 1.000000 0.460000
0.540000 1.000000 0.460000
0.790000 1.000000 0.460000
1.000000 1.000000 0.460000
0.040000 0.005000 0.710000
0.290000 0.005000 0.710000
0.540000 0.005000 0.710000
0.790000 0.005000 0.710000
1.000000 0.005000 0.710000
0.040000 0.255000 0.710000
0.290000 0.255000 0.710000
0.540000 0.255000 0.710000
0.790000 0.255000 0.710000
1.000000 0.255000 0.710000
0.040000 0.505000 0.710000
0.290000 0.505000 0.710000
0.540000 0.505000 0.710000
0.790000 0.505000 0.710000
1.000000 0.505000 0.710000
0.040000 0.755000 0.710000
0.290000 0.755000 0.710000
0.540000 0.755000 0.710000
0.790000 0.755000 0.710000
1.000000 0.755000 0.710000
0.040000 1.000000 0.710000
0.290000 1.000000 0.710000
0.540000 1.000000 0.710000
0.790000 1.000000 0.710000
1.000000 1.000000 0.710000
0.040000 0.005000 0.960000
0.290000 0.005000 0.960000
0.540000 0.005000 0.960000
0.790000 0.005000 0.960000
1.000000 0.005000 0.960000
0.040000 0.255000 0.960000
0.290000 0.255000 0.960000
0.540000 0.255000 0.960000
0.790000 0.255000 0.960000
1.000000 0.255000 0.960000
0.040000 0.505000 0.960000
0.290000 0.505000 0.960000
0.540000 0.505000 0.960000
0.790000 0.505000 0.960000
1.000000 0.505000 0.960000
0.040000 0.755000 0.960000
0.290000 0.755000 0.960000
0.540000 0.755000 0.960000
0.790000 0.755000 0.960000
1.000000 0.755000 0.960000
0.040000 1.000000 0.960000
0.290000 1.000000 0.960000
0.540000 1.000000 0.960000
0.790000 1.000000 0.960000
1.000000 1.000000 0.960000
