lut-visualizer/public/data/sample_luts/warm_fade.cube
LUT_3D_SIZE 9
DOMAIN_MIN 0.0 0.0 0.0
DOMAIN_MAX 1.0 1.0 1.0
0.090000 0.060000 0.020000
0.175335 0.065647 0.025647
0.260669 0.071294 0.031294
0.346004 0.076942 0.036942
0.431339 0.082589 0.042589
0.516673 0.088236 0.048236
0.602008 0.093883 0.053883
0.687343 0.099530 0.059530
0.772678 0.105178 0.065177
0.108997 0.158685 0.038997
0.194332 0.164332 0.044645
0.279667 0.169979 0.050292
0.365002 0.175627 0.055939
0.450336 0.181274 0.061586
0.535671 0.186921 0.067233
0.621006 0.192568 0.072881
0.706340 0.198215 0.078528
0.791675 0.203863 0.084175
0.127995 0.257370 0.057995
0.213330 0.263017 0.063642
0.298664 0.268664 0.069289
0.383999 0.274312 0.074937
0.469334 0.279959 0.080584
0.554668 0.285606 0.086231
0.640003 0.291253 0.091878
0.725338 0.296900 0.097525
0.810672 0.302547 0.103173
0.146992 0.356055 0.076992
0.232327 0.361702 0.082640
0.317662 0.367349 0.088287
0.402997 0.372997 0.093934
0.488331 0.378644 0.099581
0.573666 0.384291 0.105228
0.659001 0.389938 0.110876
0.744335 0.395585 0.116523
0.829670 0.401232 0.122170
0.165990 0.454740 0.095990
0.251325 0.460387 0.101637
0.336659 0.466034 0.107284
0.421994 0.471682 0.112932
0.507329 0.477329 0.118579
0.592663 0.482976 0.124226
0.677998 0.488623 0.129873
0.763333 0.494270 0.135520
0.848667 0.499917 0.141168
0.184987 0.553425 0.114987
0.270322 0.559072 0.120635
0.355657 0.564719 0.126282
0.440992 0.570367 0.131929
0.526326 0.576014 0.137576
0.611661 0.581661 0.143223
0.696996 0.587308 0.148871
0.782330 0.592955 0.154518
0.867665 0.598602 0.160165
0.203985 0.652110 0.133985
0.289320 0.657757 0.139632
0.374654 0.663404 0.145279
0.459989 0.669052 0.150927
0.545324 0.674699 0.156574
0.630658 0.680346 0.162221
0.715993 0.685993 0.167868
0.801328 0.691640 0.173515
0.886663 0.697288 0.179162
0.222982 0.750795 0.152982
0.308317 0.756442 0.158630
0.393652 0.762089 0.164277
0.478987 0.767737 0.169924
0.564321 0.773384 0.175571
0.649656 0.779031 0.181218
0.734991 0.784678 0.186866
0.820325 0.790325 0.192513
0.905660 0.795972 0.198160
0.241980 0.849480 0.171980
0.327315 0.855127 0.177627
0.412649 0.860774 0.183274
0.497984 0.866422 0.188922
0.583319 0.872069 0.194569
0.668653 0.877716 0.200216
0.753988 0.883363 0.205863
0.839323 0.889010 0.211510
0.924657 0.894657 0.217157
0.091918 0.061918 0.101605
0.177252 0.067565 0.107253
0.262587 0.073212 0.112900
0.347922 0.078859 0.118547
0.433257 0.084507 0.124194
0.518591 0.090154 0.129841
0.603926 0.095801 0.135488
0.689261 0.101448 0.141136
0.774595 0.107095 0.146783
0.110915 0.160603 0.120603
0.196250 0.166250 0.126250
0.281585 0.171897 0.131897
0.366919 0.177544 0.137544
0.452254 0.183192 0.143192
0.537589 0.188839 0.148839
0.622923 0.194486 0.154486
0.708258 0.200133 0.160133
0.793593 0.205780 0.165780
0.129913 0.259288 0.139600
0.215247 0.264935 0.145247
0.300582 0.270582 0.150895
0.385917 0.276229 0.156542
0.471252 0.281877 0.162189
0.556586 0.287524 0.167836
0.641921 0.293171 0.173483
0.727256 0.298818 0.179131
0.812590 0.304465 0.184778
0.148910 0.357973 0.158598
0.234245 0.363620 0.164245
0.319580 0.369267 0.169892
0.404914 0.374914 0.175539
0.490249 0.380562 0.181187
0.575584 0.386209 0.186834
0.660918 0.391856 0.192481
0.746253 0.397503 0.198128
0.831588 0.403150 0.203775
0.167908 0.456658 0.177595
0.253242 0.462305 0.183242
0.338577 0.467952 0.188890
0.423912 0.473599 0.194537
0.509247 0.479247 0.200184
0.594581 0.484894 0.205831
0.679916 0.490541 0.211478
0.765251 0.496188 0.217126
0.850585 0.501835 0.222773
0.186905 0.555343 0.196593
0.272240 0.560990 0.202240
0.357575 0.566637 0.207887
0.442909 0.572284 0.213534
0.528244 0.577932 0.219182
0.613579 0.583579 0.224829
0.698913 0.589226 0.230476
0.784248 0.594873 0.236123
0.869583 0.600520 0.241770
0.205903 0.654028 0.215590
0.291237 0.659675 0.221237
0.376572 0.665322 0.226885
0.461907 0.670969 0.232532
0.547242 0.676617 0.238179
0.632576 0.682264 0.243826
0.717911 0.687911 0.249473
0.803246 0.693558 0.255121
0.888580 0.699205 0.260768
0.224900 0.752713 0.234588
0.310235 0.758360 0.240235
0.395570 0.764007 0.245882
0.480904 0.769654 0.251529
0.566239 0.775302 0.257177
0.651574 0.780949 0.262824
0.736908 0.786596 0.268471
0.822243 0.792243 0.274118
0.907578 0.797890 0.279765
0.243898 0.851398 0.253585
0.329232 0.857045 0.259232
0.414567 0.862692 0.264880
0.499902 0.868339 0.270527
0.585237 0.873987 0.276174
0.670571 0.879634 0.281821
0.755906 0.885281 0.287468
0.841241 0.890928 0.293116
0.926575 0.896575 0.298763
0.093836 0.063836 0.183211
0.179170 0.069483 0.188858
0.264505 0.075130 0.194505
0.349840 0.080777 0.200152
0.435174 0.086424 0.205799
0.520509 0.092072 0.211447
0.605844 0.097719 0.217094
0.691178 0.103366 0.222741
0.776513 0.109013 0.228388
0.112833 0.162521 0.202208
0.198168 0.168168 0.207855
0.283502 0.173815 0.213503
0.368837 0.179462 0.219150
0.454172 0.185109 0.224797
0.539507 0.190757 0.230444
0.624841 0.196404 0.236091
0.710176 0.202051 0.241738
0.795511 0.207698 0.247386
0.131831 0.261206 0.221206
0.217165 0.266853 0.226853
0.302500 0.272500 0.232500
0.387835 0.278147 0.238147
0.473169 0.283794 0.243794
0.558504 0.289442 0.249442
0.643839 0.295089 0.255089
0.729173 0.300736 0.260736
0.814508 0.306383 0.266383
0.150828 0.359891 0.240203
0.236163 0.365538 0.245850
0.321497 0.371185 0.251497
0.406832 0.376832 0.257145
0.492167 0.382479 0.262792
0.577502 0.388127 0.268439
0.662836 0.393774 0.274086
0.748171 0.399421 0.279733
0.833506 0.405068 0.285381
0.169826 0.458576 0.259201
0.255160 0.464223 0.264848
0.340495 0.469870 0.270495
0.425830 0.475517 0.276142
0.511164 0.481164 0.281789
0.596499 0.486812 0.287437
0.681834 0.492459 0.293084
0.767168 0.498106 0.298731
0.852503 0.503753 0.304378
0.188823 0.557261 0.278198
0.274158 0.562908 0.283845
0.359492 0.568555 0.289492
0.444827 0.574202 0.295140
0.530162 0.579849 0.300787
0.615497 0.585497 0.306434
0.700831 0.591144 0.312081
0.786166 0.596791 0.317728
0.871501 0.602438 0.323376
0.207821 0.655946 0.297196
0.293155 0.661593 0.302843
0.378490 0.667240 0.308490
0.463825 0.672887 0.314137
0.549159 0.678534 0.319784
0.634494 0.684182 0.325432
0.719829 0.689829 0.331079
0.805163 0.695476 0.336726
0.890498 0.701123 0.342373
0.226818 0.754631 0.316193
0.312153 0.760278 0.321840
0.397487 0.765925 0.327488
0.482822 0.771572 0.333135
0.568157 0.777219 0.338782
0.653492 0.782867 0.344429
0.738826 0.788514 0.350076
0.824161 0.794161 0.355723
0.909496 0.799808 0.361371
0.245816 0.853316 0.335191
0.331150 0.858963 0.340838
0.416485 0.864610 0.346485
0.501820 0.870257 0.352132
0.587154 0.875904 0.357779
0.672489 0.881552 0.363427
0.757824 0.887199 0.369074
0.843158 0.892846 0.374721
0.928493 0.898493 0.380368
0.095753 0.065753 0.264816
0.181088 0.071401 0.270463
0.266423 0.077048 0.276110
0.351757 0.082695 0.281757
0.437092 0.088342 0.287405
0.522427 0.093989 0.293052
0.607762 0.099637 0.298699
0.693096 0.105284 0.304346
0.778431 0.110931 0.309993
0.114751 0.164438 0.283813
0.200086 0.170086 0.289461
0.285420 0.175733 0.295108
0.370755 0.181380 0.300755
0.456090 0.187027 0.306402
0.541424 0.192674 0.312049
0.626759 0.198322 0.317697
0.712094 0.203969 0.323344
0.797428 0.209616 0.328991
0.133748 0.263123 0.302811
0.219083 0.268771 0.308458
0.304418 0.274418 0.314105
0.389753 0.280065 0.319753
0.475087 0.285712 0.325400
0.560422 0.291359 0.331047
0.645757 0.297007 0.336694
0.731091 0.302654 0.342341
0.816426 0.308301 0.347988
0.152746 0.361808 0.321808
0.238081 0.367456 0.327456
0.323415 0.373103 0.333103
0.408750 0.378750 0.338750
0.494085 0.384397 0.344397
0.579419 0.390044 0.350044
0.664754 0.395692 0.355692
0.750089 0.401339 0.361339
0.835423 0.406986 0.366986
0.171743 0.460493 0.340806
0.257078 0.466141 0.346453
0.342413 0.471788 0.352100
0.427747 0.477435 0.357747
0.513082 0.483082 0.363395
0.598417 0.488729 0.369042
0.683752 0.494377 0.374689
0.769086 0.500024 0.380336
0.854421 0.505671 0.385983
0.190741 0.559178 0.359803
0.276076 0.564826 0.365451
0.361410 0.570473 0.371098
0.446745 0.576120 0.376745
0.532080 0.581767 0.382392
0.617414 0.587414 0.388039
0.702749 0.593062 0.393687
0.788084 0.598709 0.399334
0.873418 0.604356 0.404981
0.209738 0.657863 0.378801
0.295073 0.663511 0.384448
0.380408 0.669158 0.390095
0.465742 0.674805 0.395742
0.551077 0.680452 0.401390
0.636412 0.686099 0.407037
0.721747 0.691747 0.412684
0.807081 0.697394 0.418331
0.892416 0.703041 0.423978
0.228736 0.756548 0.397798
0.314071 0.762196 0.403446
0.399405 0.767843 0.409093
0.484740 0.773490 0.414740
0.570075 0.779137 0.420387
0.655409 0.784784 0.426034
0.740744 0.790432 0.431682
0.826079 0.796079 0.437329
0.911413 0.801726 0.442976
0.247733 0.855233 0.416796
0.333068 0.860881 0.422443
0.418403 0.866528 0.428090
0.503737 0.872175 0.433737
0.589072 0.877822 0.439385
0.674407 0.883469 0.445032
0.759742 0.889117 0.450679
0.845076 0.894764 0.456326
0.930411 0.900411 0.461973
0.097671 0.067671 0.346421
0.183006 0.073318 0.352068
0.268341 0.078966 0.357716
0.353675 0.084613 0.363363
0.439010 0.090260 0.369010
0.524345 0.095907 0.374657
0.609679 0.101554 0.380304
0.695014 0.107202 0.385952
0.780349 0.112849 0.391599
0.116669 0.166356 0.365419
0.202003 0.172003 0.371066
0.287338 0.177651 0.376713
0.372673 0.183298 0.382360
0.458008 0.188945 0.388008
0.543342 0.194592 0.393655
0.628677 0.200239 0.399302
0.714012 0.205887 0.404949
0.799346 0.211534 0.410596
0.135666 0.265041 0.384416
0.221001 0.270688 0.390063
0.306336 0.276336 0.395711
0.391670 0.281983 0.401358
0.477005 0.287630 0.407005
0.562340 0.293277 0.412652
0.647674 0.298924 0.418299
0.733009 0.304572 0.423947
0.818344 0.310219 0.429594
0.154664 0.363726 0.403414
0.239998 0.369373 0.409061
0.325333 0.375021 0.414708
0.410668 0.380668 0.420355
0.496003 0.386315 0.426003
0.581337 0.391962 0.431650
0.666672 0.397609 0.437297
0.752007 0.403257 0.442944
0.837341 0.408904 0.448591
0.173661 0.462411 0.422411
0.258996 0.468058 0.428058
0.344331 0.473706 0.433706
0.429665 0.479353 0.439353
0.515000 0.485000 0.445000
0.600335 0.490647 0.450647
0.685669 0.496294 0.456294
0.771004 0.501942 0.461942
0.856339 0.507589 0.467589
0.192659 0.561096 0.441409
0.277993 0.566743 0.447056
0.363328 0.572391 0.452703
0.448663 0.578038 0.458350
0.533998 0.583685 0.463998
0.619332 0.589332 0.469645
0.704667 0.594979 0.475292
0.790002 0.600627 0.480939
0.875336 0.606274 0.486586
0.211656 0.659781 0.460406
0.296991 0.665428 0.466053
0.382326 0.671076 0.471701
0.467660 0.676723 0.477348
0.552995 0.682370 0.482995
0.638330 0.688017 0.488642
0.723664 0.693664 0.494289
0.808999 0.699312 0.499937
0.894334 0.704959 0.505584
0.230654 0.758466 0.479404
0.315988 0.764113 0.485051
0.401323 0.769761 0.490698
0.486658 0.775408 0.496345
0.571993 0.781055 0.501993
0.657327 0.786702 0.507640
0.742662 0.792349 0.513287
0.827997 0.797997 0.518934
0.913331 0.803644 0.524581
0.249651 0.857151 0.498401
0.334986 0.862798 0.504048
0.420321 0.868446 0.509696
0.505655 0.874093 0.515343
0.590990 0.879740 0.520990
0.676325 0.885387 0.526637
0.761659 0.891034 0.532284
0.846994 0.896682 0.537932
0.932329 0.902329 0.543579
0.099589 0.069589 0.428027
0.184924 0.075236 0.433674
0.270258 0.080883 0.439321
0.355593 0.086531 0.444968
0.440928 0.092178 0.450615
0.526262 0.097825 0.456263
0.611597 0.103472 0.461910
0.696932 0.109119 0.467557
0.782267 0.114767 0.473204
0.118587 0.168274 0.447024
0.203921 0.173921 0.452671
0.289256 0.179568 0.458318
0.374591 0.185216 0.463966
0.459925 0.190863 0.469613
0.545260 0.196510 0.475260
0.630595 0.202157 0.480907
0.715929 0.207804 0.486554
0.801264 0.213452 0.492202
0.137584 0.266959 0.466022
0.222919 0.272606 0.471669
0.308253 0.278253 0.477316
0.393588 0.283901 0.482963
0.478923 0.289548 0.488610
0.564257 0.295195 0.494257
0.649592 0.300842 0.499905
0.734927 0.306489 0.505552
0.820262 0.312137 0.511199
0.156582 0.365644 0.485019
0.241916 0.371291 0.490666
0.327251 0.376938 0.496313
0.412586 0.382586 0.501961
0.497920 0.388233 0.507608
0.583255 0.393880 0.513255
0.668590 0.399527 0.518902
0.753924 0.405174 0.524549
0.839259 0.410822 0.530197
0.175579 0.464329 0.504017
0.260914 0.469976 0.509664
0.346248 0.475623 0.515311
0.431583 0.481271 0.520958
0.516918 0.486918 0.526605
0.602252 0.492565 0.532253
0.687587 0.498212 0.537900
0.772922 0.503859 0.543547
0.858257 0.509507 0.549194
0.194577 0.563014 0.523014
0.279911 0.568661 0.528661
0.365246 0.574308 0.534308
0.450581 0.579956 0.539956
0.535915 0.585603 0.545603
0.621250 0.591250 0.551250
0.706585 0.596897 0.556897
0.791919 0.602544 0.562544
0.877254 0.608192 0.568192
0.213574 0.661699 0.542012
0.298909 0.667346 0.547659
0.384243 0.672993 0.553306
0.469578 0.678641 0.558953
0.554913 0.684288 0.564600
0.640247 0.689935 0.570248
0.725582 0.695582 0.575895
0.810917 0.701229 0.581542
0.896252 0.706877 0.587189
0.232572 0.760384 0.561009
0.317906 0.766031 0.566656
0.403241 0.771678 0.572303
0.488576 0.777326 0.577951
0.573910 0.782973 0.583598
0.659245 0.788620 0.589245
0.744580 0.794267 0.594892
0.829914 0.799914 0.600539
0.915249 0.805562 0.606187
0.251569 0.859069 0.580007
0.336904 0.864716 0.585654
0.422238 0.870363 0.591301
0.507573 0.876011 0.596948
0.592908 0.881658 0.602595
0.678242 0.887305 0.608242
0.763577 0.892952 0.613890
0.848912 0.898599 0.619537
0.934247 0.904247 0.625184
0.101507 0.071507 0.509632
0.186842 0.077154 0.515279
0.272176 0.082801 0.520926
0.357511 0.088448 0.526573
0.442846 0.094096 0.532221
0.528180 0.099743 0.537868
0.613515 0.105390 0.543515
0.698850 0.111037 0.549162
0.784184 0.116684 0.554809
0.120504 0.170192 0.528629
0.205839 0.175839 0.534277
0.291174 0.181486 0.539924
0.376508 0.187133 0.545571
0.461843 0.192781 0.551218
0.547178 0.198428 0.556865
0.632512 0.204075 0.562512
0.717847 0.209722 0.568160
0.803182 0.215369 0.573807
0.139502 0.268877 0.547627
0.224837 0.274524 0.553274
0.310171 0.280171 0.558921
0.395506 0.285818 0.564568
0.480841 0.291466 0.570216
0.566175 0.297113 0.575863
0.651510 0.302760 0.581510
0.736845 0.308407 0.587157
0.822179 0.314054 0.592804
0.158499 0.367562 0.566624
0.243834 0.373209 0.572272
0.329169 0.378856 0.577919
0.414503 0.384503 0.583566
0.499838 0.390151 0.589213
0.585173 0.395798 0.594860
0.670507 0.401445 0.600507
0.755842 0.407092 0.606155
0.841177 0.412739 0.611802
0.177497 0.466247 0.585622
0.262832 0.471894 0.591269
0.348166 0.477541 0.596916
0.433501 0.483188 0.602563
0.518836 0.488836 0.608211
0.604170 0.494483 0.613858
0.689505 0.500130 0.619505
0.774840 0.505777 0.625152
0.860174 0.511424 0.630799
0.196494 0.564932 0.604619
0.281829 0.570579 0.610267
0.367164 0.576226 0.615914
0.452498 0.581873 0.621561
0.537833 0.587521 0.627208
0.623168 0.593168 0.632855
0.708502 0.598815 0.638502
0.793837 0.604462 0.644150
0.879172 0.610109 0.649797
0.215492 0.663617 0.623617
0.300827 0.669264 0.629264
0.386161 0.674911 0.634911
0.471496 0.680558 0.640558
0.556831 0.686206 0.646206
0.642165 0.691853 0.651853
0.727500 0.697500 0.657500
0.812835 0.703147 0.663147
0.898169 0.708794 0.668794
0.234489 0.762302 0.642614
0.319824 0.767949 0.648262
0.405159 0.773596 0.653909
0.490493 0.779243 0.659556
0.575828 0.784891 0.665203
0.661163 0.790538 0.670850
0.746497 0.796185 0.676497
0.831832 0.801832 0.682145
0.917167 0.807479 0.687792
0.253487 0.860987 0.661612
0.338822 0.866634 0.667259
0.424156 0.872281 0.672906
0.509491 0.877928 0.678553
0.594826 0.883576 0.684201
0.680160 0.889223 0.689848
0.765495 0.894870 0.695495
0.850830 0.900517 0.701142
0.936164 0.906164 0.706789
0.103425 0.073425 0.591237
0.188759 0.079072 0.596884
0.274094 0.084719 0.602532
0.359429 0.090366 0.608179
0.444763 0.096013 0.613826
0.530098 0.101661 0.619473
0.615433 0.107308 0.625120
0.700767 0.112955 0.630768
0.786102 0.118602 0.636415
0.122422 0.172110 0.610235
0.207757 0.177757 0.615882
0.293092 0.183404 0.621529
0.378426 0.189051 0.627176
0.463761 0.194698 0.632823
0.549096 0.200346 0.638471
0.634430 0.205993 0.644118
0.719765 0.211640 0.649765
0.805100 0.217287 0.655412
0.141420 0.270795 0.629232
0.226754 0.276442 0.634879
0.312089 0.282089 0.640527
0.397424 0.287736 0.646174
0.482758 0.293383 0.651821
0.568093 0.299031 0.657468
0.653428 0.304678 0.663115
0.738762 0.310325 0.668763
0.824097 0.315972 0.674410
0.160417 0.369480 0.648230
0.245752 0.375127 0.653877
0.331087 0.380774 0.659524
0.416421 0.386421 0.665171
0.501756 0.392068 0.670818
0.587091 0.397716 0.676466
0.672425 0.403363 0.682113
0.757760 0.409010 0.687760
0.843095 0.414657 0.693407
0.179415 0.468165 0.667227
0.264749 0.473812 0.672874
0.350084 0.479459 0.678522
0.435419 0.485106 0.684169
0.520753 0.490753 0.689816
0.606088 0.496401 0.695463
0.691423 0.502048 0.701110
0.776757 0.507695 0.706757
0.862092 0.513342 0.712405
0.198412 0.566850 0.686225
0.283747 0.572497 0.691872
0.369082 0.578144 0.697519
0.454416 0.583791 0.703166
0.539751 0.589438 0.708813
0.625086 0.595086 0.714461
0.710420 0.600733 0.720108
0.795755 0.606380 0.725755
0.881090 0.612027 0.731402
0.217410 0.665535 0.705222
0.302744 0.671182 0.710869
0.388079 0.676829 0.716517
0.473414 0.682476 0.722164
0.558748 0.688123 0.727811
0.644083 0.693771 0.733458
0.729418 0.699418 0.739105
0.814752 0.705065 0.744753
0.900087 0.710712 0.750400
0.236407 0.764220 0.724220
0.321742 0.769867 0.729867
0.407077 0.775514 0.735514
0.492411 0.781161 0.741161
0.577746 0.786808 0.746808
0.663081 0.792456 0.752456
0.748415 0.798103 0.758103
0.833750 0.803750 0.763750
0.919085 0.809397 0.769397
0.255405 0.862905 0.743217
0.340739 0.868552 0.748864
0.426074 0.874199 0.754512
0.511409 0.879846 0.760159
0.596743 0.885493 0.765806
0.682078 0.891141 0.771453
0.767413 0.896788 0.777100
0.852747 0.902435 0.782747
0.938082 0.908082 0.788395
0.105342 0.075342 0.672843
0.190677 0.080990 0.678490
0.276012 0.086637 0.684137
0.361347 0.092284 0.689784
0.446681 0.097931 0.695431
0.532016 0.103578 0.701078
0.617351 0.109226 0.706726
0.702685 0.114873 0.712373
0.788020 0.120520 0.718020
0.124340 0.174028 0.691840
0.209675 0.179675 0.697487
0.295009 0.185322 0.703134
0.380344 0.190969 0.708782
0.465679 0.196616 0.714429
0.551013 0.202263 0.720076
0.636348 0.207911 0.725723
0.721683 0.213558 0.731370
0.807017 0.219205 0.737017
0.143338 0.272712 0.710838
0.228672 0.278360 0.716485
0.314007 0.284007 0.722132
0.399342 0.289654 0.727779
0.484676 0.295301 0.733426
0.570011 0.300948 0.739073
0.655346 0.306596 0.744721
0.740680 0.312243 0.750368
0.826015 0.317890 0.756015
0.162335 0.371397 0.729835
0.247670 0.377045 0.735482
0.333004 0.382692 0.741129
0.418339 0.388339 0.746777
0.503674 0.393986 0.752424
0.589008 0.399633 0.758071
0.674343 0.405281 0.763718
0.759678 0.410928 0.769365
0.845012 0.416575 0.775012
0.181332 0.470082 0.748833
0.266667 0.475730 0.754480
0.352002 0.481377 0.760127
0.437337 0.487024 0.765774
0.522671 0.492671 0.771421
0.608006 0.498318 0.777068
0.693341 0.503966 0.782716
0.778675 0.509613 0.788363
0.864010 0.515260 0.794010
0.200330 0.568768 0.767830
0.285665 0.574415 0.773477
0.370999 0.580062 0.779124
0.456334 0.585709 0.784772
0.541669 0.591356 0.790419
0.627003 0.597003 0.796066
0.712338 0.602651 0.801713
0.797673 0.608298 0.807360
0.883007 0.613945 0.813007
0.219328 0.667453 0.786828
0.304662 0.673100 0.792475
0.389997 0.678747 0.798122
0.475332 0.684394 0.803769
0.560666 0.690041 0.809416
0.646001 0.695688 0.815063
0.731336 0.701336 0.820711
0.816670 0.706983 0.826358
0.902005 0.712630 0.832005
0.238325 0.766137 0.805825
0.323660 0.771785 0.811472
0.408994 0.777432 0.817119
0.494329 0.783079 0.822767
0.579664 0.788726 0.828414
0.664998 0.794373 0.834061
0.750333 0.800021 0.839708
0.835668 0.805668 0.845355
0.921002 0.811315 0.851002
0.257323 0.864823 0.824823
0.342657 0.870470 0.830470
0.427992 0.876117 0.836117
0.513327 0.881764 0.841764
0.598661 0.887411 0.847411
0.683996 0.893058 0.853058
0.769331 0.898706 0.858706
0.854665 0.904353 0.864353
0.940000 0.910000 0.870000
