lut-visualizer/public/data/sample_luts/warm_fade.cube
LUT_3D_SIZE 5
DOMAIN_MIN 0.0 0.0 0.0
DOMAIN_MAX 1.0 1.0 1.0
0.090000 0.060000 0.020000
0.260669 0.071294 0.031294
0.431339 0.082589 0.042589
0.602008 0.093883 0.053883
0.772678 0.105178 0.065177
0.127995 0.257370 0.057995
0.298664 0.268664 0.069289
0.469334 0.279959 0.080584
0.640003 0.291253 0.091878
0.810672 0.302547 0.103173
0.165990 0.454740 0.095990
0.336659 0.466034 0.107284
0.507329 0.477329 0.118579
0.677998 0.488623 0.129873
0.848667 0.499917 0.141168
0.203985 0.652110 0.133985
0.374654 0.663404 0.145279
0.545324 0.674699 0.156574
0.715993 0.685993 0.167868
0.886663 0.697288 0.179162
0.241980 0.849480 0.171980
0.412649 0.860774 0.183274
0.583319 0.872069 0.194569
0.753988 0.883363 0.205863
0.924657 0.894657 0.217157
0.093836 0.063836 0.183211
0.264505 0.075130 0.194505
0.435174 0.086424 0.205799
0.605844 0.097719 0.217094
0.776513 0.109013 0.228388
0.131831 0.261206 0.221206
0.302500 0.272500 0.232500
0.473169 0.283794 0.243794
0.643839 0.295089 0.255089
0.814508 0.306383 0.266383
0.169826 0.458576 0.259201
0.340495 0.469870 0.270495
0.511164 0.481164 0.281789
0.681834 0.492459 0.293084
0.852503 0.503753 0.304378
0.207821 0.655946 0.297196
0.378490 0.667240 0.308490
0.549159 0.678534 0.319784
0.719829 0.689829 0.331079
0.890498 0.701123 0.342373
0.245816 0.853316 0.335191
0.416485 0.864610 0.346485
0.587154 0.875904 0.357779
0.757824 0.887199 0.369074
0.928493 0.898493 0.380368
0.097671 0.067671 0.346421
0.268341 0.078966 0.357716
0.439010 0.090260 0.369010
0.609679 0.101554 0.380304
0.780349 0.112849 0.391599
0.135666 0.265041 0.384416
0.306336 0.276336 0.395711
0.477005 0.287630 0.407005
0.647674 0.298924 0.418299
0.818344 0.310219 0.429594
0.173661 0.462411 0.422411
0.344331 0.473706 0.433706
0.515000 0.485000 0.445000
0.685669 0.496294 0.456294
0.856339 0.507589 0.467589
0.211656 0.659781 0.460406
0.382326 0.671076 0.471701
0.552995 0.682370 0.482995
0.723664 0.693664 0.494289
0.894334 0.704959 0.505584
0.249651 0.857151 0.498401
0.420321 0.868446 0.509696
0.590990 0.879740 0.520990
0.761659 0.891034 0.532284
0.932329 0.902329 0.543579
0.101507 0.071507 0.509632
0.272176 0.082801 0.520926
0.442846 0.094096 0.532221
0.613515 0.105390 0.543515
0.784184 0.116684 0.554809
0.139502 0.268877 0.547627
0.310171 0.280171 0.558921
0.480841 0.291466 0.570216
0.651510 0.302760 0.581510
0.822179 0.314054 0.592804
0.177497 0.466247 0.585622
0.348166 0.477541 0.596916
0.518836 0.488836 0.608211
0.689505 0.500130 0.619505
0.860174 0.511424 0.630799
0.215492 0.663617 0.623617
0.386161 0.674911 0.634911
0.556831 0.686206 0.646206
0.727500 0.697500 0.657500
0.898169 0.708794 0.668794
0.253487 0.860987 0.661612
0.424156 0.872281 0.672906
0.594826 0.883576 0.684201
0.765495 0.894870 0.695495
0.936164 0.906164 0.706789
0.105342 0.075342 0.672843
0.276012 0.086637 0.684137
0.446681 0.097931 0.695431
0.617351 0.109226 0.706726
0.788020 0.120520 0.718020
0.143338 0.272712 0.710838
0.314007 0.284007 0.722132
0.484676 0.295301 0.733426
0.655346 0.306596 0.744721
0.826015 0.317890 0.756015
0.181332 0.470082 0.748833
0.352002 0.481377 0.760127
0.522671 0.492671 0.771421
0.693341 0.503966 0.782716
0.864010 0.515260 0.794010
0.219328 0.667453 0.786828
0.389997 0.678747 0.798122
0.560666 0.690041 0.809416
0.731336 0.701336 0.820711
0.902005 0.712630 0.832005
0.257323 0.864823 0.824823
0.427992 0.876117 0.836117
0.598661 0.887411 0.847411
0.769331 0.898706 0.858706
0.940000 0.910000 0.870000
