lut-visualizer/public/data/sample_luts/warm_mild.cube
LUT_3D_SIZE 9
DOMAIN_MIN 0.0 0.0 0.0
DOMAIN_MAX 1.0 1.0 1.0
0.040000 0.005000 0.000000
0.165000 0.005000 0.000000
0.290000 0.005000 0.000000
0.415000 0.005000 0.000000
0.540000 0.005000 0.000000
0.665000 0.005000 0.000000
0.790000 0.005000 0.000000
0.915000 0.005000 0.000000
1.000000 0.005000 0.000000
0.040000 0.130000 0.000000
0.165000 0.130000 0.000000
0.290000 0.130000 0.000000
0.415000 0.130000 0.000000
0.540000 0.130000 0.000000
0.665000 0.130000 0.000000
0.790000 0.130000 0.000000
0.915000 0.130000 0.000000
1.000000 0.130000 0.000000
0.040000 0.255000 0.000000
0.165000 0.255000 0.000000
0.290000 0.255000 0.000000
0.415000 0.255000 0.000000
0.540000 0.255000 0.000000
0.665000 0.255000 0.000000
0.790000 0.255000 0.000000
0.915000 0.255000 0.000000
1.000000 0.255000 0.000000
0.040000 0.380000 0.000000
0.165000 0.380000 0.000000
0.290000 0.380000 0.000000
0.415000 0.380000 0.000000
0.540000 0.380000 0.000000
0.665000 0.380000 0.000000
0.790000 0.380000 0.000000
0.915000 0.380000 0.000000
1.000000 0.380000 0.000000
0.040000 0.505000 0.000000
0.165000 0.505000 0.000000
0.290000 0.505000 0.000000
0.415000 0.505000 0.000000
0.540000 0.505000 0.000000
0.665000 0.505000 0.000000
0.790000 0.505000 0.000000
0.915000 0.505000 0.000000
1.000000 0.505000 0.000000
0.040000 0.630000 0.000000
0.165000 0.630000 0.000000
0.290000 0.630000 0.000000
0.415000 0.630000 0.000000
0.540000 0.630000 0.000000
0.665000 0.630000 0.000000
0.790000 0.630000 0.000000
0.915000 0.630000 0.000000
1.000000 0.630000 0.000000
0.040000 0.755000 0.000000
0.165000 0.755000 0.000000
0.290000 0.755000 0.000000
0.415000 0.755000 0.000000
0.540000 0.755000 0.000000
0.665000 0.755000 0.000000
0.790000 0.755000 0.000000
0.915000 0.755000 0.000000
1.000000 0.755000 0.000000
0.040000 0.880000 0.000000
0.165000 0.880000 0.000000
0.290000 0.880000 0.000000
0.415000 0.880000 0.000000
0.540000 0.880000 0.000000
0.665000 0.880000 0.000000
0.790000 0.880000 0.000000
0.915000 0.880000 0.000000
1.000000 0.880000 0.000000
0.040000 1.000000 0.000000
0.165000 1.000000 0.000000
0.290000 1.000000 0.000000
0.415000 1.000000 0.000000
0.540000 1.000000 0.000000
0.665000 1.000000 0.000000
0.790000 1.000000 0.000000
0.915000 1.000000 0.000000
1.000000 1.000000 0.000000
0.040000 0.005000 0.085000
0.165000 0.005000 0.085000
0.290000 0.005000 0.085000
0.415000 0.005000 0.085000
0.540000 0.005000 0.085000
0.665000 0.005000 0.085000
0.790000 0.005000 0.085000
0.915000 0.005000 0.085000
1.000000 0.005000 0.085000
0.040000 0.130000 0.085000
0.165000 0.130000 0.085000
0.290000 0.130000 0.085000
0.415000 0.130000 0.085000
0.540000 0.130000 0.085000
0.665000 0.130000 0.085000
0.790000 0.130000 0.085000
0.915000 0.130000 0.085000
1.000000 0.130000 0.085000
0.040000 0.255000 0.085000
0.165000 0.255000 0.085000
0.290000 0.255000 0.085000
0.415000 0.255000 0.085000
0.540000 0.255000 0.085000
0.665000 0.255000 0.085000
0.790000 0.255000 0.085000
0.915000 0.255000 0.085000
1.000000 0.255000 0.085000
0.040000 0.380000 0.085000
0.165000 0.380000 0.085000
0.290000 0.380000 0.085000
0.415000 0.380000 0.085000
0.540000 0.380000 0.085000
0.665000 0.380000 0.085000
0.790000 0.380000 0.085000
0.915000 0.380000 0.085000
1.000000 0.380000 0.085000
0.040000 0.505000 0.085000
0.165000 0.505000 0.085000
0.290000 0.505000 0.085000
0.415000 0.505000 0.085000
0.540000 0.505000 0.085000
0.665000 0.505000 0.085000
0.790000 0.505000 0.085000
0.915000 0.505000 0.085000
1.000000 0.505000 0.085000
0.040000 0.630000 0.085000
0.165000 0.630000 0.085000
0.290000 0.630000 0.085000
0.415000 0.630000 0.085000
0.540000 0.630000 0.085000
0.665000 0.630000 0.085000
0.790000 0.630000 0.085000
0.915000 0.630000 0.085000
1.000000 0.630000 0.085000
0.040000 0.755000 0.085000
0.165000 0.755000 0.085000
0.290000 0.755000 0.085000
0.415000 0.755000 0.085000
0.540000 0.755000 0.085000
0.665000 0.755000 0.085000
0.790000 0.755000 0.085000
0.915000 0.755000 0.085000
1.000000 0.755000 0.085000
0.040000 0.880000 0.085000
0.165000 0.880000 0.085000
0.290000 0.880000 0.085000
0.415000 0.880000 0.085000
0.540000 0.880000 0.085000
0.665000 0.880000 0.085000
0.790000 0.880000 0.085000
0.915000 0.880000 0.085000
1.000000 0.880000 0.085000
0.040000 1.000000 0.085000
0.165000 1.000000 0.085000
0.290000 1.000000 0.085000
0.415000 1.000000 0.085000
0.540000 1.000000 0.085000
0.665000 1.000000 0.085000
0.790000 1.000000 0.085000
0.915000 1.000000 0.085000
1.000000 1.000000 0.085000
0.040000 0.005000 0.210000
0.165000 0.005000 0.210000
0.290000 0.005000 0.210000
0.415000 0.005000 0.210000
0.540000 0.005000 0.210000
0.665000 0.005000 0.210000
0.790000 0.005000 0.210000
0.915000 0.005000 0.210000
1.000000 0.005000 0.210000
0.040000 0.130000 0.210000
0.165000 0.130000 0.210000
0.290000 0.130000 0.210000
0.415000 0.130000 0.210000
0.540000 0.130000 0.210000
0.665000 0.130000 0.210000
0.790000 0.130000 0.210000
0.915000 0.130000 0.210000
1.000000 0.130000 0.210000
0.040000 0.255000 0.210000
0.165000 0.255000 0.210000
0.290000 0.255000 0.210000
0.415000 0.255000 0.210000
0.540000 0.255000 0.210000
0.665000 0.255000 0.210000
0.790000 0.255000 0.210000
0.915000 0.255000 0.210000
1.000000 0.255000 0.210000
0.040000 0.380000 0.210000
0.165000 0.380000 0.210000
0.290000 0.380000 0.210000
0.415000 0.380000 0.210000
0.540000 0.380000 0.210000
0.665000 0.380000 0.210000
0.790000 0.380000 0.210000
0.915000 0.380000 0.210000
1.000000 0.380000 0.210000
0.040000 0.505000 0.210000
0.165000 0.505000 0.210000
0.290000 0.505000 0.210000
0.415000 0.505000 0.210000
0.540000 0.505000 0.210000
0.665000 0.505000 0.210000
0.790000 0.505000 0.210000
0.915000 0.505000 0.210000
1.000000 0.505000 0.210000
0.040000 0.630000 0.210000
0.165000 0.630000 0.210000
0.290000 0.630000 0.210000
0.415000 0.630000 0.210000
0.540000 0.630000 0.210000
0.665000 0.630000 0.210000
0.790000 0.630000 0.210000
0.915000 0.630000 0.210000
1.000000 0.630000 0.210000
0.040000 0.755000 0.210000
0.165000 0.755000 0.210000
0.290000 0.755000 0.210000
0.415000 0.755000 0.210000
0.540000 0.755000 0.210000
0.665000 0.755000 0.210000
0.790000 0.755000 0.210000
0.915000 0.755000 0.210000
1.000000 0.755000 0.210000
0.040000 0.880000 0.210000
0.165000 0.880000 0.210000
0.290000 0.880000 0.210000
0.415000 0.880000 0.210000
0.540000 0.880000 0.210000
0.665000 0.880000 0.210000
0.790000 0.880000 0.210000
0.915000 0.880000 0.210000
1.000000 0.880000 0.210000
0.040000 1.000000 0.210000
0.165000 1.000000 0.210000
0.290000 1.000000 0.210000
0.415000 1.000000 0.210000
0.540000 1.000000 0.210000
0.665000 1.000000 0.210000
0.790000 1.000000 0.210000
0.915000 1.000000 0.210000
1.000000 1.000000 0.210000
0.040000 0.005000 0.335000
0.165000 0.005000 0.335000
0.290000 0.005000 0.335000
0.415000 0.005000 0.335000
0.540000 0.005000 0.335000
0.665000 0.005000 0.335000
0.790000 0.005000 0.335000
0.915000 0.005000 0.335000
1.000000 0.005000 0.335000
0.040000 0.130000 0.335000
0.165000 0.130000 0.335000
0.290000 0.130000 0.335000
0.415000 0.130000 0.335000
0.540000 0.130000 0.335000
0.665000 0.130000 0.335000
0.790000 0.130000 0.335000
0.915000 0.130000 0.335000
1.000000 0.130000 0.335000
0.040000 0.255000 0.335000
0.165000 0.255000 0.335000
0.290000 0.255000 0.335000
0.415000 0.255000 0.335000
0.540000 0.255000 0.335000
0.665000 0.255000 0.335000
0.790000 0.255000 0.335000
0.915000 0.255000 0.335000
1.000000 0.255000 0.335000
0.040000 0.380000 0.335000
0.165000 0.380000 0.335000
0.290000 0.380000 0.335000
0.415000 0.380000 0.335000
0.540000 0.380000 0.335000
0.665000 0.380000 0.335000
0.790000 0.380000 0.335000
0.915000 0.380000 0.335000
1.000000 0.380000 0.335000
0.040000 0.505000 0.335000
0.165000 0.505000 0.335000
0.290000 0.505000 0.335000
0.415000 0.505000 0.335000
0.540000 0.505000 0.335000
0.665000 0.505000 0.335000
0.790000 0.505000 0.335000
0.915000 0.505000 0.335000
1.000000 0.505000 0.335000
0.040000 0.630000 0.335000
0.165000 0.630000 0.335000
0.290000 0.630000 0.335000
0.415000 0.630000 0.335000
0.540000 0.630000 0.335000
0.665000 0.630000 0.335000
0.790000 0.630000 0.335000
0.915000 0.630000 0.335000
1.000000 0.630000 0.335000
0.040000 0.755000 0.335000
0.165000 0.755000 0.335000
0.290000 0.755000 0.335000
0.415000 0.755000 0.335000
0.540000 0.755000 0.335000
0.665000 0.755000 0.335000
0.790000 0.755000 0.335000
0.915000 0.755000 0.335000
1.000000 0.755000 0.335000
0.040000 0.880000 0.335000
0.165000 0.880000 0.335000
0.290000 0.880000 0.335000
0.415000 0.880000 0.335000
0.540000 0.880000 0.335000
0.665000 0.880000 0.335000
0.790000 0.880000 0.335000
0.915000 0.880000 0.335000
1.000000 0.880000 0.335000
0.040000 1.000000 0.335000
0.165000 1.000000 0.335000
0.290000 1.000000 0.335000
0.415000 1.000000 0.335000
0.540000 1.000000 0.335000
0.665000 1.000000 0.335000
0.790000 1.000000 0.335000
0.915000 1.000000 0.335000
1.000000 1.000000 0.335000
0.040000 0.005000 0.460000
0.165000 0.005000 0.460000
0.290000 0.005000 0.460000
0.415000 0.005000 0.460000
0.540000 0.005000 0.460000
0.665000 0.005000 0.460000
0.790000 0.005000 0.460000
0.915000 0.005000 0.460000
1.000000 0.005000 0.460000
0.040000 0.130000 0.460000
0.165000 0.130000 0.460000
0.290000 0.130000 0.460000
0.415000 0.130000 0.460000
0.540000 0.130000 0.460000
0.665000 0.130000 0.460000
0.790000 0.130000 0.460000
0.915000 0.130000 0.460000
1.000000 0.130000 0.460000
0.040000 0.255000 0.460000
0.165000 0.255000 0.460000
0.290000 0.255000 0.460000
0.415000 0.255000 0.460000
0.540000 0.255000 0.460000
0.665000 0.255000 0.460000
0.790000 0.255000 0.460000
0.915000 0.255000 0.460000
1.000000 0.255000 0.460000
0.040000 0.380000 0.460000
0.165000 0.380000 0.460000
0.290000 0.380000 0.460000
0.415000 0.380000 0.460000
0.540000 0.380000 0.460000
0.665000 0.380000 0.460000
0.790000 0.380000 0.460000
0.915000 0.380000 0.460000
1.000000 0.380000 0.460000
0.040000 0.505000 0.460000
0.165000 0.505000 0.460000
0.290000 0.505000 0.460000
0.415000 0.505000 0.460000
0.540000 0.505000 0.460000
0.665000 0.505000 0.460000
0.790000 0.505000 0.460000
0.915000 0.505000 0.460000
1.000000 0.505000 0.460000
0.040000 0.630000 0.460000
0.165000 0.630000 0.460000
0.290000 0.630000 0.460000
0.415000 0.630000 0.460000
0.540000 0.630000 0.460000
0.665000 0.630000 0.460000
0.790000 0.630000 0.460000
0.915000 0.630000 0.460000
1.000000 0.630000 0.460000
0.040000 0.755000 0.460000
0.165000 0.755000 0.460000
0.290000 0.755000 0.460000
0.415000 0.755000 0.460000
0.540000 0.755000 0.460000
0.665000 0.755000 0.460000
0.790000 0.755000 0.460000
0.915000 0.755000 0.460000
1.000000 0.755000 0.460000
0.040000 0.880000 0.460000
0.165000 0.880000 0.460000
0.290000 0.880000 0.460000
0.415000 0.880000 0.460000
0.540000 0.880000 0.460000
0.665000 0.880000 0.460000
0.790000 0.880000 0.460000
0.915000 0.880000 0.460000
1.000000 0.880000 0.460000
0.040000 1.000000 0.460000
0.165000 1.000000 0.460000
0.290000 1.000000 0.460000
0.415000 1.000000 0.460000
0.540000 1.000000 0.460000
0.665000 1.000000 0.460000
0.790000 1.000000 0.460000
0.915000 1.000000 0.460000
1.000000 1.000000 0.460000
0.040000 0.005000 0.585000
0.165000 0.005000 0.585000
0.290000 0.005000 0.585000
0.415000 0.005000 0.585000
0.540000 0.005000 0.585000
0.665000 0.005000 0.585000
0.790000 0.005000 0.585000
0.915000 0.005000 0.585000
1.000000 0.005000 0.585000
0.040000 0.130000 0.585000
0.165000 0.130000 0.585000
0.290000 0.130000 0.585000
0.415000 0.130000 0.585000
0.540000 0.130000 0.585000
0.665000 0.130000 0.585000
0.790000 0.130000 0.585000
0.915000 0.130000 0.585000
1.000000 0.130000 0.585000
0.040000 0.255000 0.585000
0.165000 0.255000 0.585000
0.290000 0.255000 0.585000
0.415000 0.255000 0.585000
0.540000 0.255000 0.585000
0.665000 0.255000 0.585000
0.790000 0.255000 0.585000
0.915000 0.255000 0.585000
1.000000 0.255000 0.585000
0.040000 0.380000 0.585000
0.165000 0.380000 0.585000
0.290000 0.380000 0.585000
0.415000 0.380000 0.585000
0.540000 0.380000 0.585000
0.665000 0.380000 0.585000
0.790000 0.380000 0.585000
0.915000 0.380000 0.585000
1.000000 0.380000 0.585000
0.040000 0.505000 0.585000
0.165000 0.505000 0.585000
0.290000 0.505000 0.585000
0.415000 0.505000 0.585000
0.540000 0.505000 0.585000
0.665000 0.505000 0.585000
0.790000 0.505000 0.585000
0.915000 0.505000 0.585000
1.000000 0.505000 0.585000
0.040000 0.630000 0.585000
0.165000 0.630000 0.585000
0.290000 0.630000 0.585000
0.415000 0.630000 0.585000
0.540000 0.630000 0.585000
0.665000 0.630000 0.585000
0.790000 0.630000 0.585000
0.915000 0.630000 0.585000
1.000000 0.630000 0.585000
0.040000 0.755000 0.585000
0.165000 0.755000 0.585000
0.290000 0.755000 0.585000
0.415000 0.755000 0.585000
0.540000 0.755000 0.585000
0.665000 0.755000 0.585000
0.790000 0.755000 0.585000
0.915000 0.755000 0.585000
1.000000 0.755000 0.585000
0.040000 0.880000 0.585000
0.165000 0.880000 0.585000
0.290000 0.880000 0.585000
0.415000 0.880000 0.585000
0.540000 0.880000 0.585000
0.665000 0.880000 0.585000
0.790000 0.880000 0.585000
0.915000 0.880000 0.585000
1.000000 0.880000 0.585000
0.040000 1.000000 0.585000
0.165000 1.000000 0.585000
0.290000 1.000000 0.585000
0.415000 1.000000 0.585000
0.540000 1.000000 0.585000
0.665000 1.000000 0.585000
0.790000 1.000000 0.585000
0.915000 1.000000 0.585000
1.000000 1.000000 0.585000
0.040000 0.005000 0.710000
0.165000 0.005000 0.710000
0.290000 0.005000 0.710000
0.415000 0.005000 0.710000
0.540000 0.005000 0.710000
0.665000 0.005000 0.710000
0.790000 0.005000 0.710000
0.915000 0.005000 0.710000
1.000000 0.005000 0.710000
0.040000 0.130000 0.710000
0.165000 0.130000 0.710000
0.290000 0.130000 0.710000
0.415000 0.130000 0.710000
0.540000 0.130000 0.710000
0.665000 0.130000 0.710000
0.790000 0.130000 0.710000
0.915000 0.130000 0.710000
1.000000 0.130000 0.710000
0.040000 0.255000 0.710000
0.165000 0.255000 0.710000
0.290000 0.255000 0.710000
0.415000 0.255000 0.710000
0.540000 0.255000 0.710000
0.665000 0.255000 0.710000
0.790000 0.255000 0.710000
0.915000 0.255000 0.710000
1.000000 0.255000 0.710000
0.040000 0.380000 0.710000
0.165000 0.380000 0.710000
0.290000 0.380000 0.710000
0.415000 0.380000 0.710000
0.540000 0.380000 0.710000
0.665000 0.380000 0.710000
0.790000 0.380000 0.710000
0.915000 0.380000 0.710000
1.000000 0.380000 0.710000
0.040000 0.505000 0.710000
0.165000 0.505000 0.710000
0.290000 0.505000 0.710000
0.415000 0.505000 0.710000
0.540000 0.505000 0.710000
0.665000 0.505000 0.710000
0.790000 0.505000 0.710000
0.915000 0.505000 0.710000
1.000000 0.505000 0.710000
0.040000 0.630000 0.710000
0.165000 0.630000 0.710000
0.290000 0.630000 0.710000
0.415000 0.630000 0.710000
0.540000 0.630000 0.710000
0.665000 0.630000 0.710000
0.790000 0.630000 0.710000
0.915000 0.630000 0.710000
1.000000 0.630000 0.710000
0.040000 0.755000 0.710000
0.165000 0.755000 0.710000
0.290000 0.755000 0.710000
0.415000 0.755000 0.710000
0.540000 0.755000 0.710000
0.665000 0.755000 0.710000
0.790000 0.755000 0.710000
0.915000 0.755000 0.710000
1.000000 0.755000 0.710000
0.040000 0.880000 0.710000
0.165000 0.880000 0.710000
0.290000 0.880000 0.710000
0.415000 0.880000 0.710000
0.540000 0.880000 0.710000
0.665000 0.880000 0.710000
0.790000 0.880000 0.710000
0.915000 0.880000 0.710000
1.000000 0.880000 0.710000
0.040000 1.000000 0.710000
0.165000 1.000000 0.710000
0.290000 1.000000 0.710000
0.415000 1.000000 0.710000
0.540000 1.000000 0.710000
0.665000 1.000000 0.710000
0.790000 1.000000 0.710000
0.915000 1.000000 0.710000
1.000000 1.000000 0.710000
0.040000 0.005000 0.835000
0.165000 0.005000 0.835000
0.290000 0.005000 0.835000
0.415000 0.005000 0.835000
0.540000 0.005000 0.835000
0.665000 0.005000 0.835000
0.790000 0.005000 0.835000
0.915000 0.005000 0.835000
1.000000 0.005000 0.835000
0.040000 0.130000 0.835000
0.165000 0.130000 0.835000
0.290000 0.130000 0.835000
0.415000 0.130000 0.835000
0.540000 0.130000 0.835000
0.665000 0.130000 0.835000
0.790000 0.130000 0.835000
0.915000 0.130000 0.835000
1.000000 0.130000 0.835000
0.040000 0.255000 0.835000
0.165000 0.255000 0.835000
0.290000 0.255000 0.835000
0.415000 0.255000 0.835000
0.540000 0.255000 0.835000
0.665000 0.255000 0.835000
0.790000 0.255000 0.835000
0.915000 0.255000 0.835000
1.000000 0.255000 0.835000
0.040000 0.380000 0.835000
0.165000 0.380000 0.835000
0.290000 0.380000 0.835000
0.415000 0.380000 0.835000
0.540000 0.380000 0.835000
0.665000 0.380000 0.835000
0.790000 0.380000 0.835000
0.915000 0.380000 0.835000
1.000000 0.380000 0.835000
0.040000 0.505000 0.835000
0.165000 0.505000 0.835000
0.290000 0.505000 0.835000
0.415000 0.505000 0.835000
0.540000 0.505000 0.835000
0.665000 0.505000 0.835000
0.790000 0.505000 0.835000
0.915000 0.505000 0.835000
1.000000 0.505000 0.835000
0.040000 0.630000 0.835000
0.165000 0.630000 0.835000
0.290000 0.630000 0.835000
0.415000 0.630000 0.835000
0.540000 0.630000 0.835000
0.665000 0.630000 0.835000
0.790000 0.630000 0.835000
0.915000 0.630000 0.835000
1.000000 0.630000 0.835000
0.040000 0.755000 0.835000
0.165000 0.755000 0.835000
0.290000 0.755000 0.835000
0.415000 0.755000 0.835000
0.540000 0.755000 0.835000
0.665000 0.755000 0.835000
0.790000 0.755000 0.835000
0.915000 0.755000 0.835000
1.000000 0.755000 0.835000
0.040000 0.880000 0.835000
0.165000 0.880000 0.835000
0.290000 0.880000 0.835000
0.415000 0.880000 0.835000
0.540000 0.880000 0.835000
0.665000 0.880000 0.835000
0.790000 0.880000 0.835000
0.915000 0.880000 0.835000
1.000000 0.880000 0.835000
0.040000 1.000000 0.835000
0.165000 1.000000 0.835000
0.290000 1.000000 0.835000
0.415000 1.000000 0.835000
0.540000 1.000000 0.835000
0.665000 1.000000 0.835000
0.790000 1.000000 0.835000
0.915000 1.000000 0.835000
1.000000 1.000000 0.835000
0.040000 0.005000 0.960000
0.165000 0.005000 0.960000
0.290000 0.005000 0.960000
0.415000 0.005000 0.960000
0.540000 0.005000 0.960000
0.665000 0.005000 0.960000
0.790000 0.005000 0.960000
0.915000 0.005000 0.960000
1.000000 0.005000 0.960000
0.040000 0.130000 0.960000
0.165000 0.130000 0.960000
0.290000 0.130000 0.960000
0.415000 0.130000 0.960000
0.540000 0.130000 0.960000
0.665000 0.130000 0.960000
0.790000 0.130000 0.960000
0.915000 0.130000 0.960000
1.000000 0.130000 0.960000
0.040000 0.255000 0.960000
0.165000 0.255000 0.960000
0.290000 0.255000 0.960000
0.415000 0.255000 0.960000
0.540000 0.255000 0.960000
0.665000 0.255000 0.960000
0.790000 0.255000 0.960000
0.915000 0.255000 0.960000
1.000000 0.255000 0.960000
0.040000 0.380000 0.960000
0.165000 0.380000 0.960000
0.290000 0.380000 0.960000
0.415000 0.380000 0.960000
0.540000 0.380000 0.960000
0.665000 0.380000 0.960000
0.790000 0.380000 0.960000
0.915000 0.380000 0.960000
1.000000 0.380000 0.960000
0.040000 0.505000 0.960000
0.165000 0.505000 0.960000
0.290000 0.505000 0.960000
0.415000 0.505000 0.960000
0.540000 0.505000 0.960000
0.665000 0.505000 0.960000
0.790000 0.505000 0.960000
0.915000 0.505000 0.960000
1.000000 0.505000 0.960000
0.040000 0.630000 0.960000
0.165000 0.630000 0.960000
0.290000 0.630000 0.960000
0.415000 0.630000 0.960000
0.540000 0.630000 0.960000
0.665000 0.630000 0.960000
0.790000 0.630000 0.960000
0.915000 0.630000 0.960000
1.000000 0.630000 0.960000
0.040000 0.755000 0.960000
0.165000 0.755000 0.960000
0.290000 0.755000 0.960000
0.415000 0.755000 0.960000
0.540000 0.755000 0.960000
0.665000 0.755000 0.960000
0.790000 0.755000 0.960000
0.915000 0.755000 0.960000
1.000000 0.755000 0.960000
0.040000 0.880000 0.960000
0.165000 0.880000 0.960000
0.290000 0.880000 0.960000
0.415000 0.880000 0.960000
0.540000 0.880000 0.960000
0.665000 0.880000 0.960000
0.790000 0.880000 0.960000
0.915000 0.880000 0.960000
1.000000 0.880000 0.960000
0.040000 1.000000 0.960000
0.165000 1.000000 0.960000
0.290000 1.000000 0.960000
0.415000 1.000000 0.960000
0.540000 1.000000 0.960000
0.665000 1.000000 0.960000
0.790000 1.000000 0.960000
0.915000 1.000000 0.960000
1.000000 1.000000 0.960000
