lut-visualizer/public/data/sample_luts/warm_fade.cube
LUT_3D_SIZE 17
DOMAIN_MIN 0.0 0.0 0.0
DOMAIN_MAX 1.0 1.0 1.0
0.090000 0.060000 0.020000
0.132667 0.062824 0.022824
0.175335 0.065647 0.025647
0.218002 0.068471 0.028471
0.260669 0.071294 0.031294
0.303337 0.074118 0.034118
0.346004 0.076942 0.036942
0.388671 0.079765 0.039765
0.431339 0.082589 0.042589
0.474006 0.085412 0.045412
0.516673 0.088236 0.048236
0.559341 0.091060 0.051060
0.602008 0.093883 0.053883
0.644675 0.096707 0.056707
0.687343 0.099530 0.059530
0.730010 0.102354 0.062354
0.772678 0.105178 0.065177
0.099499 0.109342 0.029499
0.142166 0.112166 0.032322
0.184833 0.114990 0.035146
0.227501 0.117813 0.037970
0.270168 0.120637 0.040793
0.312835 0.123460 0.043617
0.355503 0.126284 0.046440
0.398170 0.129108 0.049264
0.440837 0.131931 0.052087
0.483505 0.134755 0.054911
0.526172 0.137578 0.057735
0.568840 0.140402 0.060558
0.611507 0.143226 0.063382
0.654174 0.146049 0.066205
0.696842 0.148873 0.069029
0.739509 0.151696 0.071853
0.782176 0.154520 0.074676
0.108997 0.158685 0.038997
0.151665 0.161509 0.041821
0.194332 0.164332 0.044645
0.237000 0.167156 0.047468
0.279667 0.169979 0.050292
0.322334 0.172803 0.053115
0.365002 0.175627 0.055939
0.407669 0.178450 0.058763
0.450336 0.181274 0.061586
0.493004 0.184097 0.064410
0.535671 0.186921 0.067233
0.578338 0.189745 0.070057
0.621006 0.192568 0.072881
0.663673 0.195392 0.075704
0.706340 0.198215 0.078528
0.749008 0.201039 0.081351
0.791675 0.203863 0.084175
0.118496 0.208028 0.048496
0.161164 0.210851 0.051320
0.203831 0.213675 0.054143
0.246498 0.216498 0.056967
0.289166 0.219322 0.059791
0.331833 0.222145 0.062614
0.374500 0.224969 0.065438
0.417168 0.227793 0.068261
0.459835 0.230616 0.071085
0.502502 0.233440 0.073909
0.545170 0.236263 0.076732
0.587837 0.239087 0.079556
0.630504 0.241911 0.082379
0.673172 0.244734 0.085203
0.715839 0.247558 0.088027
0.758506 0.250381 0.090850
0.801174 0.253205 0.093674
0.127995 0.257370 0.057995
0.170662 0.260194 0.060819
0.213330 0.263017 0.063642
0.255997 0.265841 0.066466
0.298664 0.268664 0.069289
0.341332 0.271488 0.072113
0.383999 0.274312 0.074937
0.426666 0.277135 0.077760
0.469334 0.279959 0.080584
0.512001 0.282782 0.083407
0.554668 0.285606 0.086231
0.597336 0.288430 0.089055
0.640003 0.291253 0.091878
0.682670 0.294077 0.094702
0.725338 0.296900 0.097525
0.768005 0.299724 0.100349
0.810672 0.302547 0.103173
0.137494 0.306712 0.067494
0.180161 0.309536 0.070317
0.222828 0.312360 0.073141
0.265496 0.315183 0.075965
0.308163 0.318007 0.078788
0.350830 0.320830 0.081612
0.393498 0.323654 0.084435
0.436165 0.326478 0.087259
0.478832 0.329301 0.090082
0.521500 0.332125 0.092906
0.564167 0.334948 0.095730
0.606835 0.337772 0.098553
0.649502 0.340596 0.101377
0.692169 0.343419 0.104200
0.734837 0.346243 0.107024
0.777504 0.349066 0.109848
0.820171 0.351890 0.112671
0.146992 0.356055 0.076992
0.189660 0.358879 0.079816
0.232327 0.361702 0.082640
0.274995 0.364526 0.085463
0.317662 0.367349 0.088287
0.360329 0.370173 0.091110
0.402997 0.372997 0.093934
0.445664 0.375820 0.096758
0.488331 0.378644 0.099581
0.530999 0.381467 0.102405
0.573666 0.384291 0.105228
0.616333 0.387115 0.108052
0.659001 0.389938 0.110876
0.701668 0.392762 0.113699
0.744335 0.395585 0.116523
0.787003 0.398409 0.119346
0.829670 0.401232 0.122170
0.156491 0.405397 0.086491
0.199159 0.408221 0.089315
0.241826 0.411045 0.092138
0.284493 0.413868 0.094962
0.327161 0.416692 0.097786
0.369828 0.419515 0.100609
0.412495 0.422339 0.103433
0.455163 0.425163 0.106256
0.497830 0.427986 0.109080
0.540497 0.430810 0.111904
0.583165 0.433633 0.114727
0.625832 0.436457 0.117551
0.668499 0.439281 0.120374
0.711167 0.442104 0.123198
0.753834 0.444928 0.126022
0.796501 0.447751 0.128845
0.839169 0.450575 0.131669
0.165990 0.454740 0.095990
0.208657 0.457564 0.098814
0.251325 0.460387 0.101637
0.293992 0.463211 0.104461
0.336659 0.466034 0.107284
0.379327 0.468858 0.110108
0.421994 0.471682 0.112932
0.464661 0.474505 0.115755
0.507329 0.477329 0.118579
0.549996 0.480152 0.121402
0.592663 0.482976 0.124226
0.635331 0.485800 0.127050
0.677998 0.488623 0.129873
0.720665 0.491447 0.132697
0.763333 0.494270 0.135520
0.806000 0.497094 0.138344
0.848667 0.499917 0.141168
0.175489 0.504082 0.105489
0.218156 0.506906 0.108312
0.260823 0.509730 0.111136
0.303491 0.512553 0.113960
0.346158 0.515377 0.116783
0.388825 0.518200 0.119607
0.431493 0.521024 0.122430
0.474160 0.523848 0.125254
0.516827 0.526671 0.128077
0.559495 0.529495 0.130901
0.602162 0.532318 0.133725
0.644830 0.535142 0.136548
0.687497 0.537966 0.139372
0.730164 0.540789 0.142195
0.772832 0.543613 0.145019
0.815499 0.546436 0.147843
0.858166 0.549260 0.150666
0.184987 0.553425 0.114987
0.227655 0.556249 0.117811
0.270322 0.559072 0.120635
0.312990 0.561896 0.123458
0.355657 0.564719 0.126282
0.398324 0.567543 0.129105
0.440992 0.570367 0.131929
0.483659 0.573190 0.134753
0.526326 0.576014 0.137576
0.568994 0.578837 0.140400
0.611661 0.581661 0.143223
0.654328 0.584485 0.146047
0.696996 0.587308 0.148871
0.739663 0.590132 0.151694
0.782330 0.592955 0.154518
0.824998 0.595779 0.157341
0.867665 0.598602 0.160165
0.194486 0.602767 0.124486
0.237154 0.605591 0.127310
0.279821 0.608415 0.130133
0.322488 0.611238 0.132957
0.365156 0.614062 0.135781
0.407823 0.616885 0.138604
0.450490 0.619709 0.141428
0.493158 0.622533 0.144251
0.535825 0.625356 0.147075
0.578492 0.628180 0.149899
0.621160 0.631003 0.152722
0.663827 0.633827 0.155546
0.706494 0.636651 0.158369
0.749162 0.639474 0.161193
0.791829 0.642298 0.164017
0.834496 0.645121 0.166840
0.877164 0.647945 0.169664
0.203985 0.652110 0.133985
0.246652 0.654934 0.136809
0.289320 0.657757 0.139632
0.331987 0.660581 0.142456
0.374654 0.663404 0.145279
0.417322 0.666228 0.148103
0.459989 0.669052 0.150927
0.502656 0.671875 0.153750
0.545324 0.674699 0.156574
0.587991 0.677522 0.159397
0.630658 0.680346 0.162221
0.673326 0.683170 0.165045
0.715993 0.685993 0.167868
0.758660 0.688817 0.170692
0.801328 0.691640 0.173515
0.843995 0.694464 0.176339
0.886663 0.697288 0.179162
0.213484 0.701453 0.143484
0.256151 0.704276 0.146307
0.298818 0.707100 0.149131
0.341486 0.709923 0.151955
0.384153 0.712747 0.154778
0.426820 0.715570 0.157602
0.469488 0.718394 0.160425
0.512155 0.721218 0.163249
0.554822 0.724041 0.166072
0.597490 0.726865 0.168896
0.640157 0.729688 0.171720
0.682825 0.732512 0.174543
0.725492 0.735336 0.177367
0.768159 0.738159 0.180190
0.810827 0.740983 0.183014
0.853494 0.743806 0.185838
0.896161 0.746630 0.188661
0.222982 0.750795 0.152982
0.265650 0.753619 0.155806
0.308317 0.756442 0.158630
0.350985 0.759266 0.161453
0.393652 0.762089 0.164277
0.436319 0.764913 0.167100
0.478987 0.767737 0.169924
0.521654 0.770560 0.172748
0.564321 0.773384 0.175571
0.606989 0.776207 0.178395
0.649656 0.779031 0.181218
0.692323 0.781855 0.184042
0.734991 0.784678 0.186866
0.777658 0.787502 0.189689
0.820325 0.790325 0.192513
0.862993 0.793149 0.195336
0.905660 0.795972 0.198160
0.232481 0.800137 0.162481
0.275149 0.802961 0.165305
0.317816 0.805785 0.168128
0.360483 0.808608 0.170952
0.403151 0.811432 0.173776
0.445818 0.814255 0.176599
0.488485 0.817079 0.179423
0.531153 0.819903 0.182246
0.573820 0.822726 0.185070
0.616487 0.825550 0.187894
0.659155 0.828373 0.190717
0.701822 0.831197 0.193541
0.744489 0.834021 0.196364
0.787157 0.836844 0.199188
0.829824 0.839668 0.202012
0.872491 0.842491 0.204835
0.915159 0.845315 0.207659
0.241980 0.849480 0.171980
0.284647 0.852304 0.174804
0.327315 0.855127 0.177627
0.369982 0.857951 0.180451
0.412649 0.860774 0.183274
0.455317 0.863598 0.186098
0.497984 0.866422 0.188922
0.540651 0.869245 0.191745
0.583319 0.872069 0.194569
0.625986 0.874892 0.197392
0.668653 0.877716 0.200216
0.711321 0.880540 0.203040
0.753988 0.883363 0.205863
0.796655 0.886187 0.208687
0.839323 0.889010 0.211510
0.881990 0.891834 0.214334
0.924657 0.894657 0.217157
0.090959 0.060959 0.060803
0.133626 0.063782 0.063626
0.176294 0.066606 0.066450
0.218961 0.069430 0.069273
0.261628 0.072253 0.072097
0.304296 0.075077 0.074921
0.346963 0.077900 0.077744
0.389630 0.080724 0.080568
0.432298 0.083548 0.083391
0.474965 0.086371 0.086215
0.517632 0.089195 0.089039
0.560300 0.092018 0.091862
0.602967 0.094842 0.094686
0.645634 0.097666 0.097509
0.688302 0.100489 0.100333
0.730969 0.103313 0.103157
0.773636 0.106136 0.105980
0.100458 0.110301 0.070301
0.143125 0.113125 0.073125
0.185792 0.115949 0.075949
0.228460 0.118772 0.078772
0.271127 0.121596 0.081596
0.313794 0.124419 0.084419
0.356462 0.127243 0.087243
0.399129 0.130067 0.090067
0.441796 0.132890 0.092890
0.484464 0.135714 0.095714
0.527131 0.138537 0.098537
0.569798 0.141361 0.101361
0.612466 0.144185 0.104185
0.655133 0.147008 0.107008
0.697800 0.149832 0.109832
0.740468 0.152655 0.112655
0.783135 0.155479 0.115479
0.109956 0.159644 0.079800
0.152624 0.162467 0.082624
0.195291 0.165291 0.085447
0.237958 0.168115 0.088271
0.280626 0.170938 0.091095
0.323293 0.173762 0.093918
0.365960 0.176585 0.096742
0.408628 0.179409 0.099565
0.451295 0.182233 0.102389
0.493962 0.185056 0.105213
0.536630 0.187880 0.108036
0.579297 0.190703 0.110860
0.621965 0.193527 0.113683
0.664632 0.196351 0.116507
0.707299 0.199174 0.119330
0.749967 0.201998 0.122154
0.792634 0.204821 0.124978
0.119455 0.208986 0.089299
0.162123 0.211810 0.092123
0.204790 0.214634 0.094946
0.247457 0.217457 0.097770
0.290125 0.220281 0.100593
0.332792 0.223104 0.103417
0.375459 0.225928 0.106240
0.418127 0.228752 0.109064
0.460794 0.231575 0.111888
0.503461 0.234399 0.114711
0.546129 0.237222 0.117535
0.588796 0.240046 0.120358
0.631463 0.242870 0.123182
0.674131 0.245693 0.126006
0.716798 0.248517 0.128829
0.759465 0.251340 0.131653
0.802133 0.254164 0.134476
0.128954 0.258329 0.098798
0.171621 0.261153 0.101621
0.214289 0.263976 0.104445
0.256956 0.266800 0.107268
0.299623 0.269623 0.110092
0.342291 0.272447 0.112916
0.384958 0.275270 0.115739
0.427625 0.278094 0.118563
0.470293 0.280918 0.121386
0.512960 0.283741 0.124210
0.555627 0.286565 0.127034
0.598295 0.289388 0.129857
0.640962 0.292212 0.132681
0.683629 0.295036 0.135504
0.726297 0.297859 0.138328
0.768964 0.300683 0.141152
0.811631 0.303506 0.143975
0.138453 0.307671 0.108296
0.181120 0.310495 0.111120
0.223787 0.313319 0.113944
0.266455 0.316142 0.116767
0.309122 0.318966 0.119591
0.351789 0.321789 0.122414
0.394457 0.324613 0.125238
0.437124 0.327437 0.128062
0.479791 0.330260 0.130885
0.522459 0.333084 0.133709
0.565126 0.335907 0.136532
0.607793 0.338731 0.139356
0.650461 0.341555 0.142180
0.693128 0.344378 0.145003
0.735795 0.347202 0.147827
0.778463 0.350025 0.150650
0.821130 0.352849 0.153474
0.147951 0.357014 0.117795
0.190619 0.359837 0.120619
0.233286 0.362661 0.123442
0.275953 0.365485 0.126266
0.318621 0.368308 0.129090
0.361288 0.371132 0.131913
0.403955 0.373955 0.134737
0.446623 0.376779 0.137560
0.489290 0.379603 0.140384
0.531957 0.382426 0.143207
0.574625 0.385250 0.146031
0.617292 0.388073 0.148855
0.659960 0.390897 0.151678
0.702627 0.393721 0.154502
0.745294 0.396544 0.157325
0.787962 0.399368 0.160149
0.830629 0.402191 0.162973
0.157450 0.406356 0.127294
0.200118 0.409180 0.130117
0.242785 0.412004 0.132941
0.285452 0.414827 0.135765
0.328120 0.417651 0.138588
0.370787 0.420474 0.141412
0.413454 0.423298 0.144235
0.456122 0.426122 0.147059
0.498789 0.428945 0.149883
0.541456 0.431769 0.152706
0.584124 0.434592 0.155530
0.626791 0.437416 0.158353
0.669458 0.440240 0.161177
0.712126 0.443063 0.164001
0.754793 0.445887 0.166824
0.797460 0.448710 0.169648
0.840128 0.451534 0.172471
0.166949 0.455699 0.136793
0.209616 0.458522 0.139616
0.252284 0.461346 0.142440
0.294951 0.464170 0.145263
0.337618 0.466993 0.148087
0.380286 0.469817 0.150911
0.422953 0.472640 0.153734
0.465620 0.475464 0.156558
0.508288 0.478288 0.159381
0.550955 0.481111 0.162205
0.593622 0.483935 0.165029
0.636290 0.486758 0.167852
0.678957 0.489582 0.170676
0.721624 0.492406 0.173499
0.764292 0.495229 0.176323
0.806959 0.498053 0.179147
0.849626 0.500876 0.181970
0.176448 0.505041 0.146291
0.219115 0.507865 0.149115
0.261782 0.510689 0.151939
0.304450 0.513512 0.154762
0.347117 0.516336 0.157586
0.389784 0.519159 0.160409
0.432452 0.521983 0.163233
0.475119 0.524807 0.166057
0.517786 0.527630 0.168880
0.560454 0.530454 0.171704
0.603121 0.533277 0.174527
0.645788 0.536101 0.177351
0.688456 0.538925 0.180175
0.731123 0.541748 0.182998
0.773790 0.544572 0.185822
0.816458 0.547395 0.188645
0.859125 0.550219 0.191469
0.185946 0.554384 0.155790
0.228614 0.557207 0.158614
0.271281 0.560031 0.161437
0.313948 0.562855 0.164261
0.356616 0.565678 0.167085
0.399283 0.568502 0.169908
0.441950 0.571325 0.172732
0.484618 0.574149 0.175555
0.527285 0.576973 0.178379
0.569952 0.579796 0.181202
0.612620 0.582620 0.184026
0.655287 0.585443 0.186850
0.697955 0.588267 0.189673
0.740622 0.591091 0.192497
0.783289 0.593914 0.195320
0.825957 0.596738 0.198144
0.868624 0.599561 0.200968
0.195445 0.603726 0.165289
0.238112 0.606550 0.168112
0.280780 0.609374 0.170936
0.323447 0.612197 0.173760
0.366115 0.615021 0.176583
0.408782 0.617844 0.179407
0.451449 0.620668 0.182230
0.494117 0.623492 0.185054
0.536784 0.626315 0.187878
0.579451 0.629139 0.190701
0.622119 0.631962 0.193525
0.664786 0.634786 0.196348
0.707453 0.637610 0.199172
0.750121 0.640433 0.201996
0.792788 0.643257 0.204819
0.835455 0.646080 0.207643
0.878123 0.648904 0.210466
0.204944 0.653069 0.174788
0.247611 0.655892 0.177611
0.290279 0.658716 0.180435
0.332946 0.661540 0.183258
0.375613 0.664363 0.186082
0.418281 0.667187 0.188906
0.460948 0.670010 0.191729
0.503615 0.672834 0.194553
0.546283 0.675658 0.197376
0.588950 0.678481 0.200200
0.631617 0.681305 0.203024
0.674285 0.684128 0.205847
0.716952 0.686952 0.208671
0.759619 0.689776 0.211494
0.802287 0.692599 0.214318
0.844954 0.695423 0.217142
0.887621 0.698246 0.219965
0.214443 0.702411 0.184286
0.257110 0.705235 0.187110
0.299777 0.708059 0.189934
0.342445 0.710882 0.192757
0.385112 0.713706 0.195581
0.427779 0.716529 0.198404
0.470447 0.719353 0.201228
0.513114 0.722177 0.204052
0.555781 0.725000 0.206875
0.598449 0.727824 0.209699
0.641116 0.730647 0.212522
0.683783 0.733471 0.215346
0.726451 0.736295 0.218170
0.769118 0.739118 0.220993
0.811785 0.741942 0.223817
0.854453 0.744765 0.226640
0.897120 0.747589 0.229464
0.223941 0.751754 0.193785
0.266609 0.754578 0.196609
0.309276 0.757401 0.199432
0.351943 0.760225 0.202256
0.394611 0.763048 0.205080
0.437278 0.765872 0.207903
0.479945 0.768695 0.210727
0.522613 0.771519 0.213550
0.565280 0.774343 0.216374
0.607947 0.777166 0.219197
0.650615 0.779990 0.222021
0.693282 0.782813 0.224845
0.735950 0.785637 0.227668
0.778617 0.788461 0.230492
0.821284 0.791284 0.233315
0.863952 0.794108 0.236139
0.906619 0.796931 0.238963
0.233440 0.801096 0.203284
0.276108 0.803920 0.206107
0.318775 0.806744 0.208931
0.361442 0.809567 0.211755
0.404110 0.812391 0.214578
0.446777 0.815214 0.217402
0.489444 0.818038 0.220225
0.532112 0.820862 0.223049
0.574779 0.823685 0.225873
0.617446 0.826509 0.228696
0.660114 0.829332 0.231520
0.702781 0.832156 0.234343
0.745448 0.834980 0.237167
0.788116 0.837803 0.239991
0.830783 0.840627 0.242814
0.873450 0.843450 0.245638
0.916118 0.846274 0.248461
0.242939 0.850439 0.212783
0.285606 0.853263 0.215606
0.328274 0.856086 0.218430
0.370941 0.858910 0.221253
0.413608 0.861733 0.224077
0.456276 0.864557 0.226901
0.498943 0.867380 0.229724
0.541610 0.870204 0.232548
0.584278 0.873028 0.235371
0.626945 0.875851 0.238195
0.669612 0.878675 0.241019
0.712280 0.881498 0.243842
0.754947 0.884322 0.246666
0.797614 0.887146 0.249489
0.840282 0.889969 0.252313
0.882949 0.892793 0.255137
0.925616 0.895616 0.257960
0.091918 0.061918 0.101605
0.134585 0.064741 0.104429
0.177252 0.067565 0.107253
0.219920 0.070389 0.110076
0.262587 0.073212 0.112900
0.305255 0.076036 0.115723
0.347922 0.078859 0.118547
0.390589 0.081683 0.121370
0.433257 0.084507 0.124194
0.475924 0.087330 0.127018
0.518591 0.090154 0.129841
0.561259 0.092977 0.132665
0.603926 0.095801 0.135488
0.646593 0.098625 0.138312
0.689261 0.101448 0.141136
0.731928 0.104272 0.143959
0.774595 0.107095 0.146783
0.101417 0.111260 0.111104
0.144084 0.114084 0.113928
0.186751 0.116907 0.116751
0.229419 0.119731 0.119575
0.272086 0.122555 0.122398
0.314753 0.125378 0.125222
0.357421 0.128202 0.128046
0.400088 0.131025 0.130869
0.442755 0.133849 0.133693
0.485423 0.136673 0.136516
0.528090 0.139496 0.139340
0.570757 0.142320 0.142164
0.613425 0.145143 0.144987
0.656092 0.147967 0.147811
0.698759 0.150791 0.150634
0.741427 0.153614 0.153458
0.784094 0.156438 0.156282
0.110915 0.160603 0.120603
0.153583 0.163426 0.123426
0.196250 0.166250 0.126250
0.238917 0.169074 0.129074
0.281585 0.171897 0.131897
0.324252 0.174721 0.134721
0.366919 0.177544 0.137544
0.409587 0.180368 0.140368
0.452254 0.183192 0.143192
0.494921 0.186015 0.146015
0.537589 0.188839 0.148839
0.580256 0.191662 0.151662
0.622923 0.194486 0.154486
0.665591 0.197310 0.157310
0.708258 0.200133 0.160133
0.750925 0.202957 0.162957
0.793593 0.205780 0.165780
0.120414 0.209945 0.130102
0.163081 0.212769 0.132925
0.205749 0.215592 0.135749
0.248416 0.218416 0.138572
0.291083 0.221240 0.141396
0.333751 0.224063 0.144220
0.376418 0.226887 0.147043
0.419085 0.229710 0.149867
0.461753 0.232534 0.152690
0.504420 0.235358 0.155514
0.547087 0.238181 0.158337
0.589755 0.241005 0.161161
0.632422 0.243828 0.163985
0.675090 0.246652 0.166808
0.717757 0.249476 0.169632
0.760424 0.252299 0.172455
0.803092 0.255123 0.175279
0.129913 0.259288 0.139600
0.172580 0.262111 0.142424
0.215247 0.264935 0.145247
0.257915 0.267759 0.148071
0.300582 0.270582 0.150895
0.343250 0.273406 0.153718
0.385917 0.276229 0.156542
0.428584 0.279053 0.159365
0.471252 0.281877 0.162189
0.513919 0.284700 0.165013
0.556586 0.287524 0.167836
0.599254 0.290347 0.170660
0.641921 0.293171 0.173483
0.684588 0.295995 0.176307
0.727256 0.298818 0.179131
0.769923 0.301642 0.181954
0.812590 0.304465 0.184778
0.139412 0.308630 0.149099
0.182079 0.311454 0.151923
0.224746 0.314277 0.154746
0.267414 0.317101 0.157570
0.310081 0.319925 0.160393
0.352748 0.322748 0.163217
0.395416 0.325572 0.166041
0.438083 0.328395 0.168864
0.480750 0.331219 0.171688
0.523418 0.334043 0.174511
0.566085 0.336866 0.177335
0.608752 0.339690 0.180159
0.651420 0.342513 0.182982
0.694087 0.345337 0.185806
0.736754 0.348161 0.188629
0.779422 0.350984 0.191453
0.822089 0.353808 0.194277
0.148910 0.357973 0.158598
0.191578 0.360796 0.161421
0.234245 0.363620 0.164245
0.276912 0.366444 0.167069
0.319580 0.369267 0.169892
0.362247 0.372091 0.172716
0.404914 0.374914 0.175539
0.447582 0.377738 0.178363
0.490249 0.380562 0.181187
0.532916 0.383385 0.184010
0.575584 0.386209 0.186834
0.618251 0.389032 0.189657
0.660918 0.391856 0.192481
0.703586 0.394680 0.195305
0.746253 0.397503 0.198128
0.788920 0.400327 0.200952
0.831588 0.403150 0.203775
0.158409 0.407315 0.168097
0.201076 0.410139 0.170920
0.243744 0.412963 0.173744
0.286411 0.415786 0.176567
0.329078 0.418610 0.179391
0.371746 0.421433 0.182215
0.414413 0.424257 0.185038
0.457080 0.427080 0.187862
0.499748 0.429904 0.190685
0.542415 0.432728 0.193509
0.585082 0.435551 0.196332
0.627750 0.438375 0.199156
0.670417 0.441198 0.201980
0.713085 0.444022 0.204803
0.755752 0.446846 0.207627
0.798419 0.449669 0.210450
0.841087 0.452493 0.213274
0.167908 0.456658 0.177595
0.210575 0.459481 0.180419
0.253242 0.462305 0.183242
0.295910 0.465129 0.186066
0.338577 0.467952 0.188890
0.381245 0.470776 0.191713
0.423912 0.473599 0.194537
0.466579 0.476423 0.197360
0.509247 0.479247 0.200184
0.551914 0.482070 0.203008
0.594581 0.484894 0.205831
0.637249 0.487717 0.208655
0.679916 0.490541 0.211478
0.722583 0.493365 0.214302
0.765251 0.496188 0.217126
0.807918 0.499012 0.219949
0.850585 0.501835 0.222773
0.177407 0.506000 0.187094
0.220074 0.508824 0.189918
0.262741 0.511648 0.192741
0.305409 0.514471 0.195565
0.348076 0.517295 0.198388
0.390743 0.520118 0.201212
0.433411 0.522942 0.204036
0.476078 0.525765 0.206859
0.518745 0.528589 0.209683
0.561413 0.531413 0.212506
0.604080 0.534236 0.215330
0.646747 0.537060 0.218154
0.689415 0.539883 0.220977
0.732082 0.542707 0.223801
0.774749 0.545531 0.226624
0.817417 0.548354 0.229448
0.860084 0.551178 0.232272
0.186905 0.555343 0.196593
0.229573 0.558166 0.199416
0.272240 0.560990 0.202240
0.314907 0.563814 0.205064
0.357575 0.566637 0.207887
0.400242 0.569461 0.210711
0.442909 0.572284 0.213534
0.485577 0.575108 0.216358
0.528244 0.577932 0.219182
0.570911 0.580755 0.222005
0.613579 0.583579 0.224829
0.656246 0.586402 0.227652
0.698913 0.589226 0.230476
0.741581 0.592050 0.233300
0.784248 0.594873 0.236123
0.826915 0.597697 0.238947
0.869583 0.600520 0.241770
0.196404 0.604685 0.206092
0.239071 0.607509 0.208915
0.281739 0.610332 0.211739
0.324406 0.613156 0.214562
0.367073 0.615980 0.217386
0.409741 0.618803 0.220210
0.452408 0.621627 0.223033
0.495075 0.624450 0.225857
0.537743 0.627274 0.228680
0.580410 0.630098 0.231504
0.623077 0.632921 0.234327
0.665745 0.635745 0.237151
0.708412 0.638568 0.239975
0.751080 0.641392 0.242798
0.793747 0.644216 0.245622
0.836414 0.647039 0.248445
0.879082 0.649863 0.251269
0.205903 0.654028 0.215590
0.248570 0.656851 0.218414
0.291237 0.659675 0.221237
0.333905 0.662499 0.224061
0.376572 0.665322 0.226885
0.419240 0.668146 0.229708
0.461907 0.670969 0.232532
0.504574 0.673793 0.235355
0.547242 0.676617 0.238179
0.589909 0.679440 0.241003
0.632576 0.682264 0.243826
0.675244 0.685087 0.246650
0.717911 0.687911 0.249473
0.760578 0.690735 0.252297
0.803246 0.693558 0.255121
0.845913 0.696382 0.257944
0.888580 0.699205 0.260768
0.215402 0.703370 0.225089
0.258069 0.706194 0.227913
0.300736 0.709017 0.230736
0.343404 0.711841 0.233560
0.386071 0.714665 0.236383
0.428738 0.717488 0.239207
0.471406 0.720312 0.242031
0.514073 0.723135 0.244854
0.556740 0.725959 0.247678
0.599408 0.728783 0.250501
0.642075 0.731606 0.253325
0.684742 0.734430 0.256149
0.727410 0.737253 0.258972
0.770077 0.740077 0.261796
0.812744 0.742901 0.264619
0.855412 0.745724 0.267443
0.898079 0.748548 0.270267
0.224900 0.752713 0.234588
0.267568 0.755536 0.237411
0.310235 0.758360 0.240235
0.352902 0.761184 0.243059
0.395570 0.764007 0.245882
0.438237 0.766831 0.248706
0.480904 0.769654 0.251529
0.523572 0.772478 0.254353
0.566239 0.775302 0.257177
0.608906 0.778125 0.260000
0.651574 0.780949 0.262824
0.694241 0.783772 0.265647
0.736908 0.786596 0.268471
0.779576 0.789420 0.271295
0.822243 0.792243 0.274118
0.864910 0.795067 0.276942
0.907578 0.797890 0.279765
0.234399 0.802055 0.244087
0.277066 0.804879 0.246910
0.319734 0.807702 0.249734
0.362401 0.810526 0.252557
0.405068 0.813350 0.255381
0.447736 0.816173 0.258205
0.490403 0.818997 0.261028
0.533070 0.821820 0.263852
0.575738 0.824644 0.266675
0.618405 0.827468 0.269499
0.661072 0.830291 0.272322
0.703740 0.833115 0.275146
0.746407 0.835938 0.277970
0.789075 0.838762 0.280793
0.831742 0.841586 0.283617
0.874409 0.844409 0.286440
0.917077 0.847233 0.289264
0.243898 0.851398 0.253585
0.286565 0.854221 0.256409
0.329232 0.857045 0.259232
0.371900 0.859869 0.262056
0.414567 0.862692 0.264880
0.457235 0.865516 0.267703
0.499902 0.868339 0.270527
0.542569 0.871163 0.273350
0.585237 0.873987 0.276174
0.627904 0.876810 0.278998
0.670571 0.879634 0.281821
0.713239 0.882457 0.284645
0.755906 0.885281 0.287468
0.798573 0.888105 0.290292
0.841241 0.890928 0.293116
0.883908 0.893752 0.295939
0.926575 0.896575 0.298763
0.092877 0.062877 0.142408
0.135544 0.065700 0.145232
0.178211 0.068524 0.148055
0.220879 0.071347 0.150879
0.263546 0.074171 0.153702
0.306213 0.076995 0.156526
0.348881 0.079818 0.159350
0.391548 0.082642 0.162173
0.434215 0.085465 0.164997
0.476883 0.088289 0.167820
0.519550 0.091113 0.170644
0.562217 0.093936 0.173467
0.604885 0.096760 0.176291
0.647552 0.099583 0.179115
0.690220 0.102407 0.181938
0.732887 0.105231 0.184762
0.775554 0.108054 0.187585
0.102375 0.112219 0.151907
0.145043 0.115043 0.154730
