lut-visualizer/public/data/sample_luts/warm_mild.cube
LUT_3D_SIZE 17
DOMAIN_MIN 0.0 0.0 0.0
DOMAIN_MAX 1.0 1.0 1.0
0.040000 0.005000 0.000000
0.102500 0.005000 0.000000
0.165000 0.005000 0.000000
0.227500 0.005000 0.000000
0.290000 0.005000 0.000000
0.352500 0.005000 0.000000
0.415000 0.005000 0.000000
0.477500 0.005000 0.000000
0.540000 0.005000 0.000000
0.602500 0.005000 0.000000
0.665000 0.005000 0.000000
0.727500 0.005000 0.000000
0.790000 0.005000 0.000000
0.852500 0.005000 0.000000
0.915000 0.005000 0.000000
0.977500 0.005000 0.000000
1.000000 0.005000 0.000000
0.040000 0.067500 0.000000
0.102500 0.067500 0.000000
0.165000 0.067500 0.000000
0.227500 0.067500 0.000000
0.290000 0.067500 0.000000
0.352500 0.067500 0.000000
0.415000 0.067500 0.000000
0.477500 0.067500 0.000000
0.540000 0.067500 0.000000
0.602500 0.067500 0.000000
0.665000 0.067500 0.000000
0.727500 0.067500 0.000000
0.790000 0.067500 0.000000
0.852500 0.067500 0.000000
0.915000 0.067500 0.000000
0.977500 0.067500 0.000000
1.000000 0.067500 0.000000
0.040000 0.130000 0.000000
0.102500 0.130000 0.000000
0.165000 0.130000 0.000000
0.227500 0.130000 0.000000
0.290000 0.130000 0.000000
0.352500 0.130000 0.000000
0.415000 0.130000 0.000000
0.477500 0.130000 0.000000
0.540000 0.130000 0.000000
0.602500 0.130000 0.000000
0.665000 0.130000 0.000000
0.727500 0.130000 0.000000
0.790000 0.130000 0.000000
0.852500 0.130000 0.000000
0.915000 0.130000 0.000000
0.977500 0.130000 0.000000
1.000000 0.130000 0.000000
0.040000 0.192500 0.000000
0.102500 0.192500 0.000000
0.165000 0.192500 0.000000
0.227500 0.192500 0.000000
0.290000 0.192500 0.000000
0.352500 0.192500 0.000000
0.415000 0.192500 0.000000
0.477500 0.192500 0.000000
0.540000 0.192500 0.000000
0.602500 0.192500 0.000000
0.665000 0.192500 0.000000
0.727500 0.192500 0.000000
0.790000 0.192500 0.000000
0.852500 0.192500 0.000000
0.915000 0.192500 0.000000
0.977500 0.192500 0.000000
1.000000 0.192500 0.000000
0.040000 0.255000 0.000000
0.102500 0.255000 0.000000
0.165000 0.255000 0.000000
0.227500 0.255000 0.000000
0.290000 0.255000 0.000000
0.352500 0.255000 0.000000
0.415000 0.255000 0.000000
0.477500 0.255000 0.000000
0.540000 0.255000 0.000000
0.602500 0.255000 0.000000
0.665000 0.255000 0.000000
0.727500 0.255000 0.000000
0.790000 0.255000 0.000000
0.852500 0.255000 0.000000
0.915000 0.255000 0.000000
0.977500 0.255000 0.000000
1.000000 0.255000 0.000000
0.040000 0.317500 0.000000
0.102500 0.317500 0.000000
0.165000 0.317500 0.000000
0.227500 0.317500 0.000000
0.290000 0.317500 0.000000
0.352500 0.317500 0.000000
0.415000 0.317500 0.000000
0.477500 0.317500 0.000000
0.540000 0.317500 0.000000
0.602500 0.317500 0.000000
0.665000 0.317500 0.000000
0.727500 0.317500 0.000000
0.790000 0.317500 0.000000
0.852500 0.317500 0.000000
0.915000 0.317500 0.000000
0.977500 0.317500 0.000000
1.000000 0.317500 0.000000
0.040000 0.380000 0.000000
0.102500 0.380000 0.000000
0.165000 0.380000 0.000000
0.227500 0.380000 0.000000
0.290000 0.380000 0.000000
0.352500 0.380000 0.000000
0.415000 0.380000 0.000000
0.477500 0.380000 0.000000
0.540000 0.380000 0.000000
0.602500 0.380000 0.000000
0.665000 0.380000 0.000000
0.727500 0.380000 0.000000
0.790000 0.380000 0.000000
0.852500 0.380000 0.000000
0.915000 0.380000 0.000000
0.977500 0.380000 0.000000
1.000000 0.380000 0.000000
0.040000 0.442500 0.000000
0.102500 0.442500 0.000000
0.165000 0.442500 0.000000
0.227500 0.442500 0.000000
0.290000 0.442500 0.000000
0.352500 0.442500 0.000000
0.415000 0.442500 0.000000
0.477500 0.442500 0.000000
0.540000 0.442500 0.000000
0.602500 0.442500 0.000000
0.665000 0.442500 0.000000
0.727500 0.442500 0.000000
0.790000 0.442500 0.000000
0.852500 0.442500 0.000000
0.915000 0.442500 0.000000
0.977500 0.442500 0.000000
1.000000 0.442500 0.000000
0.040000 0.505000 0.000000
0.102500 0.505000 0.000000
0.165000 0.505000 0.000000
0.227500 0.505000 0.000000
0.290000 0.505000 0.000000
0.352500 0.505000 0.000000
0.415000 0.505000 0.000000
0.477500 0.505000 0.000000
0.540000 0.505000 0.000000
0.602500 0.505000 0.000000
0.665000 0.505000 0.000000
0.727500 0.505000 0.000000
0.790000 0.505000 0.000000
0.852500 0.505000 0.000000
0.915000 0.505000 0.000000
0.977500 0.505000 0.000000
1.000000 0.505000 0.000000
0.040000 0.567500 0.000000
0.102500 0.567500 0.000000
0.165000 0.567500 0.000000
0.227500 0.567500 0.000000
0.290000 0.567500 0.000000
0.352500 0.567500 0.000000
0.415000 0.567500 0.000000
0.477500 0.567500 0.000000
0.540000 0.567500 0.000000
0.602500 0.567500 0.000000
0.665000 0.567500 0.000000
0.727500 0.567500 0.000000
0.790000 0.567500 0.000000
0.852500 0.567500 0.000000
0.915000 0.567500 0.000000
0.977500 0.567500 0.000000
1.000000 0.567500 0.000000
0.040000 0.630000 0.000000
0.102500 0.630000 0.000000
0.165000 0.630000 0.000000
0.227500 0.630000 0.000000
0.290000 0.630000 0.000000
0.352500 0.630000 0.000000
0.415000 0.630000 0.000000
0.477500 0.630000 0.000000
0.540000 0.630000 0.000000
0.602500 0.630000 0.000000
0.665000 0.630000 0.000000
0.727500 0.630000 0.000000
0.790000 0.630000 0.000000
0.852500 0.630000 0.000000
0.915000 0.630000 0.000000
0.977500 0.630000 0.000000
1.000000 0.630000 0.000000
0.040000 0.692500 0.000000
0.102500 0.692500 0.000000
0.165000 0.692500 0.000000
0.227500 0.692500 0.000000
0.290000 0.692500 0.000000
0.352500 0.692500 0.000000
0.415000 0.692500 0.000000
0.477500 0.692500 0.000000
0.540000 0.692500 0.000000
0.602500 0.692500 0.000000
0.665000 0.692500 0.000000
0.727500 0.692500 0.000000
0.790000 0.692500 0.000000
0.852500 0.692500 0.000000
0.915000 0.692500 0.000000
0.977500 0.692500 0.000000
1.000000 0.692500 0.000000
0.040000 0.755000 0.000000
0.102500 0.755000 0.000000
0.165000 0.755000 0.000000
0.227500 0.755000 0.000000
0.290000 0.755000 0.000000
0.352500 0.755000 0.000000
0.415000 0.755000 0.000000
0.477500 0.755000 0.000000
0.540000 0.755000 0.000000
0.602500 0.755000 0.000000
0.665000 0.755000 0.000000
0.727500 0.755000 0.000000
0.790000 0.755000 0.000000
0.852500 0.755000 0.000000
0.915000 0.755000 0.000000
0.977500 0.755000 0.000000
1.000000 0.755000 0.000000
0.040000 0.817500 0.000000
0.102500 0.817500 0.000000
0.165000 0.817500 0.000000
0.227500 0.817500 0.000000
0.290000 0.817500 0.000000
0.352500 0.817500 0.000000
0.415000 0.817500 0.000000
0.477500 0.817500 0.000000
0.540000 0.817500 0.000000
0.602500 0.817500 0.000000
0.665000 0.817500 0.000000
0.727500 0.817500 0.000000
0.790000 0.817500 0.000000
0.852500 0.817500 0.000000
0.915000 0.817500 0.000000
0.977500 0.817500 0.000000
1.000000 0.817500 0.000000
0.040000 0.880000 0.000000
0.102500 0.880000 0.000000
0.165000 0.880000 0.000000
0.227500 0.880000 0.000000
0.290000 0.880000 0.000000
0.352500 0.880000 0.000000
0.415000 0.880000 0.000000
0.477500 0.880000 0.000000
0.540000 0.880000 0.000000
0.602500 0.880000 0.000000
0.665000 0.880000 0.000000
0.727500 0.880000 0.000000
0.790000 0.880000 0.000000
0.852500 0.880000 0.000000
0.915000 0.880000 0.000000
0.977500 0.880000 0.000000
1.000000 0.880000 0.000000
0.040000 0.942500 0.000000
0.102500 0.942500 0.000000
0.165000 0.942500 0.000000
0.227500 0.942500 0.000000
0.290000 0.942500 0.000000
0.352500 0.942500 0.000000
0.415000 0.942500 0.000000
0.477500 0.942500 0.000000
0.540000 0.942500 0.000000
0.602500 0.942500 0.000000
0.665000 0.942500 0.000000
0.727500 0.942500 0.000000
0.790000 0.942500 0.000000
0.852500 0.942500 0.000000
0.915000 0.942500 0.000000
0.977500 0.942500 0.000000
1.000000 0.942500 0.000000
0.040000 1.000000 0.000000
0.102500 1.000000 0.000000
0.165000 1.000000 0.000000
0.227500 1.000000 0.000000
0.290000 1.000000 0.000000
0.352500 1.000000 0.000000
0.415000 1.000000 0.000000
0.477500 1.000000 0.000000
0.540000 1.000000 0.000000
0.602500 1.000000 0.000000
0.665000 1.000000 0.000000
0.727500 1.000000 0.000000
0.790000 1.000000 0.000000
0.852500 1.000000 0.000000
0.915000 1.000000 0.000000
0.977500 1.000000 0.000000
1.000000 1.000000 0.000000
0.040000 0.005000 0.022500
0.102500 0.005000 0.022500
0.165000 0.005000 0.022500
0.227500 0.005000 0.022500
0.290000 0.005000 0.022500
0.352500 0.005000 0.022500
0.415000 0.005000 0.022500
0.477500 0.005000 0.022500
0.540000 0.005000 0.022500
0.602500 0.005000 0.022500
0.665000 0.005000 0.022500
0.727500 0.005000 0.022500
0.790000 0.005000 0.022500
0.852500 0.005000 0.022500
0.915000 0.005000 0.022500
0.977500 0.005000 0.022500
1.000000 0.005000 0.022500
0.040000 0.067500 0.022500
0.102500 0.067500 0.022500
0.165000 0.067500 0.022500
0.227500 0.067500 0.022500
0.290000 0.067500 0.022500
0.352500 0.067500 0.022500
0.415000 0.067500 0.022500
0.477500 0.067500 0.022500
0.540000 0.067500 0.022500
0.602500 0.067500 0.022500
0.665000 0.067500 0.022500
0.727500 0.067500 0.022500
0.790000 0.067500 0.022500
0.852500 0.067500 0.022500
0.915000 0.067500 0.022500
0.977500 0.067500 0.022500
1.000000 0.067500 0.022500
0.040000 0.130000 0.022500
0.102500 0.130000 0.022500
0.165000 0.130000 0.022500
0.227500 0.130000 0.022500
0.290000 0.130000 0.022500
0.352500 0.130000 0.022500
0.415000 0.130000 0.022500
0.477500 0.130000 0.022500
0.540000 0.130000 0.022500
0.602500 0.130000 0.022500
0.665000 0.130000 0.022500
0.727500 0.130000 0.022500
0.790000 0.130000 0.022500
0.852500 0.130000 0.022500
0.915000 0.130000 0.022500
0.977500 0.130000 0.022500
1.000000 0.130000 0.022500
0.040000 0.192500 0.022500
0.102500 0.192500 0.022500
0.165000 0.192500 0.022500
0.227500 0.192500 0.022500
0.290000 0.192500 0.022500
0.352500 0.192500 0.022500
0.415000 0.192500 0.022500
0.477500 0.192500 0.022500
0.540000 0.192500 0.022500
0.602500 0.192500 0.022500
0.665000 0.192500 0.022500
0.727500 0.192500 0.022500
0.790000 0.192500 0.022500
0.852500 0.192500 0.022500
0.915000 0.192500 0.022500
0.977500 0.192500 0.022500
1.000000 0.192500 0.022500
0.040000 0.255000 0.022500
0.102500 0.255000 0.022500
0.165000 0.255000 0.022500
0.227500 0.255000 0.022500
0.290000 0.255000 0.022500
0.352500 0.255000 0.022500
0.415000 0.255000 0.022500
0.477500 0.255000 0.022500
0.540000 0.255000 0.022500
0.602500 0.255000 0.022500
0.665000 0.255000 0.022500
0.727500 0.255000 0.022500
0.790000 0.255000 0.022500
0.852500 0.255000 0.022500
0.915000 0.255000 0.022500
0.977500 0.255000 0.022500
1.000000 0.255000 0.022500
0.040000 0.317500 0.022500
0.102500 0.317500 0.022500
0.165000 0.317500 0.022500
0.227500 0.317500 0.022500
0.290000 0.317500 0.022500
0.352500 0.317500 0.022500
0.415000 0.317500 0.022500
0.477500 0.317500 0.022500
0.540000 0.317500 0.022500
0.602500 0.317500 0.022500
0.665000 0.317500 0.022500
0.727500 0.317500 0.022500
0.790000 0.317500 0.022500
0.852500 0.317500 0.022500
0.915000 0.317500 0.022500
0.977500 0.317500 0.022500
1.000000 0.317500 0.022500
0.040000 0.380000 0.022500
0.102500 0.380000 0.022500
0.165000 0.380000 0.022500
0.227500 0.380000 0.022500
0.290000 0.380000 0.022500
0.352500 0.380000 0.022500
0.415000 0.380000 0.022500
0.477500 0.380000 0.022500
0.540000 0.380000 0.022500
0.602500 0.380000 0.022500
0.665000 0.380000 0.022500
0.727500 0.380000 0.022500
0.790000 0.380000 0.022500
0.852500 0.380000 0.022500
0.915000 0.380000 0.022500
0.977500 0.380000 0.022500
1.000000 0.380000 0.022500
0.040000 0.442500 0.022500
0.102500 0.442500 0.022500
0.165000 0.442500 0.022500
0.227500 0.442500 0.022500
0.290000 0.442500 0.022500
0.352500 0.442500 0.022500
0.415000 0.442500 0.022500
0.477500 0.442500 0.022500
0.540000 0.442500 0.022500
0.602500 0.442500 0.022500
0.665000 0.442500 0.022500
0.727500 0.442500 0.022500
0.790000 0.442500 0.022500
0.852500 0.442500 0.022500
0.915000 0.442500 0.022500
0.977500 0.442500 0.022500
1.000000 0.442500 0.022500
0.040000 0.505000 0.022500
0.102500 0.505000 0.022500
0.165000 0.505000 0.022500
0.227500 0.505000 0.022500
0.290000 0.505000 0.022500
0.352500 0.505000 0.022500
0.415000 0.505000 0.022500
0.477500 0.505000 0.022500
0.540000 0.505000 0.022500
0.602500 0.505000 0.022500
0.665000 0.505000 0.022500
0.727500 0.505000 0.022500
0.790000 0.505000 0.022500
0.852500 0.505000 0.022500
0.915000 0.505000 0.022500
0.977500 0.505000 0.022500
1.000000 0.505000 0.022500
0.040000 0.567500 0.022500
0.102500 0.567500 0.022500
0.165000 0.567500 0.022500
0.227500 0.567500 0.022500
0.290000 0.567500 0.022500
0.352500 0.567500 0.022500
0.415000 0.567500 0.022500
0.477500 0.567500 0.022500
0.540000 0.567500 0.022500
0.602500 0.567500 0.022500
0.665000 0.567500 0.022500
0.727500 0.567500 0.022500
0.790000 0.567500 0.022500
0.852500 0.567500 0.022500
0.915000 0.567500 0.022500
0.977500 0.567500 0.022500
1.000000 0.567500 0.022500
0.040000 0.630000 0.022500
0.102500 0.630000 0.022500
0.165000 0.630000 0.022500
0.227500 0.630000 0.022500
0.290000 0.630000 0.022500
0.352500 0.630000 0.022500
0.415000 0.630000 0.022500
0.477500 0.630000 0.022500
0.540000 0.630000 0.022500
0.602500 0.630000 0.022500
0.665000 0.630000 0.022500
0.727500 0.630000 0.022500
0.790000 0.630000 0.022500
0.852500 0.630000 0.022500
0.915000 0.630000 0.022500
0.977500 0.630000 0.022500
1.000000 0.630000 0.022500
0.040000 0.692500 0.022500
0.102500 0.692500 0.022500
0.165000 0.692500 0.022500
0.227500 0.692500 0.022500
0.290000 0.692500 0.022500
0.352500 0.692500 0.022500
0.415000 0.692500 0.022500
0.477500 0.692500 0.022500
0.540000 0.692500 0.022500
0.602500 0.692500 0.022500
0.665000 0.692500 0.022500
0.727500 0.692500 0.022500
0.790000 0.692500 0.022500
0.852500 0.692500 0.022500
0.915000 0.692500 0.022500
0.977500 0.692500 0.022500
1.000000 0.692500 0.022500
0.040000 0.755000 0.022500
0.102500 0.755000 0.022500
0.165000 0.755000 0.022500
0.227500 0.755000 0.022500
0.290000 0.755000 0.022500
0.352500 0.755000 0.022500
0.415000 0.755000 0.022500
0.477500 0.755000 0.022500
0.540000 0.755000 0.022500
0.602500 0.755000 0.022500
0.665000 0.755000 0.022500
0.727500 0.755000 0.022500
0.790000 0.755000 0.022500
0.852500 0.755000 0.022500
0.915000 0.755000 0.022500
0.977500 0.755000 0.022500
1.000000 0.755000 0.022500
0.040000 0.817500 0.022500
0.102500 0.817500 0.022500
0.165000 0.817500 0.022500
0.227500 0.817500 0.022500
0.290000 0.817500 0.022500
0.352500 0.817500 0.022500
0.415000 0.817500 0.022500
0.477500 0.817500 0.022500
0.540000 0.817500 0.022500
0.602500 0.817500 0.022500
0.665000 0.817500 0.022500
0.727500 0.817500 0.022500
0.790000 0.817500 0.022500
0.852500 0.817500 0.022500
0.915000 0.817500 0.022500
0.977500 0.817500 0.022500
1.000000 0.817500 0.022500
0.040000 0.880000 0.022500
0.102500 0.880000 0.022500
0.165000 0.880000 0.022500
0.227500 0.880000 0.022500
0.290000 0.880000 0.022500
0.352500 0.880000 0.022500
0.415000 0.880000 0.022500
0.477500 0.880000 0.022500
0.540000 0.880000 0.022500
0.602500 0.880000 0.022500
0.665000 0.880000 0.022500
0.727500 0.880000 0.022500
0.790000 0.880000 0.022500
0.852500 0.880000 0.022500
0.915000 0.880000 0.022500
0.977500 0.880000 0.022500
1.000000 0.880000 0.022500
0.040000 0.942500 0.022500
0.102500 0.942500 0.022500
0.165000 0.942500 0.022500
0.227500 0.942500 0.022500
0.290000 0.942500 0.022500
0.352500 0.942500 0.022500
0.415000 0.942500 0.022500
0.477500 0.942500 0.022500
0.540000 0.942500 0.022500
0.602500 0.942500 0.022500
0.665000 0.942500 0.022500
0.727500 0.942500 0.022500
0.790000 0.942500 0.022500
0.852500 0.942500 0.022500
0.915000 0.942500 0.022500
0.977500 0.942500 0.022500
1.000000 0.942500 0.022500
0.040000 1.000000 0.022500
0.102500 1.000000 0.022500
0.165000 1.000000 0.022500
0.227500 1.000000 0.022500
0.290000 1.000000 0.022500
0.352500 1.000000 0.022500
0.415000 1.000000 0.022500
0.477500 1.000000 0.022500
0.540000 1.000000 0.022500
0.602500 1.000000 0.022500
0.665000 1.000000 0.022500
0.727500 1.000000 0.022500
0.790000 1.000000 0.022500
0.852500 1.000000 0.022500
0.915000 1.000000 0.022500
0.977500 1.000000 0.022500
1.000000 1.000000 0.022500
0.040000 0.005000 0.085000
0.102500 0.005000 0.085000
0.165000 0.005000 0.085000
0.227500 0.005000 0.085000
0.290000 0.005000 0.085000
0.352500 0.005000 0.085000
0.415000 0.005000 0.085000
0.477500 0.005000 0.085000
0.540000 0.005000 0.085000
0.602500 0.005000 0.085000
0.665000 0.005000 0.085000
0.727500 0.005000 0.085000
0.790000 0.005000 0.085000
0.852500 0.005000 0.085000
0.915000 0.005000 0.085000
0.977500 0.005000 0.085000
1.000000 0.005000 0.085000
0.040000 0.067500 0.085000
0.102500 0.067500 0.085000
0.165000 0.067500 0.085000
0.227500 0.067500 0.085000
0.290000 0.067500 0.085000
0.352500 0.067500 0.085000
0.415000 0.067500 0.085000
0.477500 0.067500 0.085000
0.540000 0.067500 0.085000
0.602500 0.067500 0.085000
0.665000 0.067500 0.085000
0.727500 0.067500 0.085000
0.790000 0.067500 0.085000
0.852500 0.067500 0.085000
0.915000 0.067500 0.085000
0.977500 0.067500 0.085000
1.000000 0.067500 0.085000
0.040000 0.130000 0.085000
0.102500 0.130000 0.085000
0.165000 0.130000 0.085000
0.227500 0.130000 0.085000
0.290000 0.130000 0.085000
0.352500 0.130000 0.085000
0.415000 0.130000 0.085000
0.477500 0.130000 0.085000
0.540000 0.130000 0.085000
0.602500 0.130000 0.085000
0.665000 0.130000 0.085000
0.727500 0.130000 0.085000
0.790000 0.130000 0.085000
0.852500 0.130000 0.085000
0.915000 0.130000 0.085000
0.977500 0.130000 0.085000
1.000000 0.130000 0.085000
0.040000 0.192500 0.085000
0.102500 0.192500 0.085000
0.165000 0.192500 0.085000
0.227500 0.192500 0.085000
0.290000 0.192500 0.085000
0.352500 0.192500 0.085000
0.415000 0.192500 0.085000
0.477500 0.192500 0.085000
0.540000 0.192500 0.085000
0.602500 0.192500 0.085000
0.665000 0.192500 0.085000
0.727500 0.192500 0.085000
0.790000 0.192500 0.085000
0.852500 0.192500 0.085000
0.915000 0.192500 0.085000
0.977500 0.192500 0.085000
1.000000 0.192500 0.085000
0.040000 0.255000 0.085000
0.102500 0.255000 0.085000
0.165000 0.255000 0.085000
0.227500 0.255000 0.085000
0.290000 0.255000 0.085000
0.352500 0.255000 0.085000
0.415000 0.255000 0.085000
0.477500 0.255000 0.085000
0.540000 0.255000 0.085000
0.602500 0.255000 0.085000
0.665000 0.255000 0.085000
0.727500 0.255000 0.085000
0.790000 0.255000 0.085000
0.852500 0.255000 0.085000
0.915000 0.255000 0.085000
0.977500 0.255000 0.085000
1.000000 0.255000 0.085000
0.040000 0.317500 0.085000
0.102500 0.317500 0.085000
0.165000 0.317500 0.085000
0.227500 0.317500 0.085000
0.290000 0.317500 0.085000
0.352500 0.317500 0.085000
0.415000 0.317500 0.085000
0.477500 0.317500 0.085000
0.540000 0.317500 0.085000
0.602500 0.317500 0.085000
0.665000 0.317500 0.085000
0.727500 0.317500 0.085000
0.790000 0.317500 0.085000
0.852500 0.317500 0.085000
0.915000 0.317500 0.085000
0.977500 0.317500 0.085000
1.000000 0.317500 0.085000
0.040000 0.380000 0.085000
0.102500 0.380000 0.085000
0.165000 0.380000 0.085000
0.227500 0.380000 0.085000
0.290000 0.380000 0.085000
0.352500 0.380000 0.085000
0.415000 0.380000 0.085000
0.477500 0.380000 0.085000
0.540000 0.380000 0.085000
0.602500 0.380000 0.085000
0.665000 0.380000 0.085000
0.727500 0.380000 0.085000
0.790000 0.380000 0.085000
0.852500 0.380000 0.085000
0.915000 0.380000 0.085000
0.977500 0.380000 0.085000
1.000000 0.380000 0.085000
0.040000 0.442500 0.085000
0.102500 0.442500 0.085000
0.165000 0.442500 0.085000
0.227500 0.442500 0.085000
0.290000 0.442500 0.085000
0.352500 0.442500 0.085000
0.415000 0.442500 0.085000
0.477500 0.442500 0.085000
0.540000 0.442500 0.085000
0.602500 0.442500 0.085000
0.665000 0.442500 0.085000
0.727500 0.442500 0.085000
0.790000 0.442500 0.085000
0.852500 0.442500 0.085000
0.915000 0.442500 0.085000
0.977500 0.442500 0.085000
1.000000 0.442500 0.085000
0.040000 0.505000 0.085000
0.102500 0.505000 0.085000
0.165000 0.505000 0.085000
0.227500 0.505000 0.085000
0.290000 0.505000 0.085000
0.352500 0.505000 0.085000
0.415000 0.505000 0.085000
0.477500 0.505000 0.085000
0.540000 0.505000 0.085000
0.602500 0.505000 0.085000
0.665000 0.505000 0.085000
0.727500 0.505000 0.085000
0.790000 0.505000 0.085000
0.852500 0.505000 0.085000
0.915000 0.505000 0.085000
0.977500 0.505000 0.085000
1.000000 0.505000 0.085000
0.040000 0.567500 0.085000
0.102500 0.567500 0.085000
0.165000 0.567500 0.085000
0.227500 0.567500 0.085000
0.290000 0.567500 0.085000
0.352500 0.567500 0.085000
0.415000 0.567500 0.085000
0.477500 0.567500 0.085000
0.540000 0.567500 0.085000
0.602500 0.567500 0.085000
0.665000 0.567500 0.085000
0.727500 0.567500 0.085000
0.790000 0.567500 0.085000
0.852500 0.567500 0.085000
0.915000 0.567500 0.085000
0.977500 0.567500 0.085000
1.000000 0.567500 0.085000
0.040000 0.630000 0.085000
0.102500 0.630000 0.085000
0.165000 0.630000 0.085000
0.227500 0.630000 0.085000
0.290000 0.630000 0.085000
0.352500 0.630000 0.085000
0.415000 0.630000 0.085000
0.477500 0.630000 0.085000
0.540000 0.630000 0.085000
0.602500 0.630000 0.085000
0.665000 0.630000 0.085000
0.727500 0.630000 0.085000
0.790000 0.630000 0.085000
0.852500 0.630000 0.085000
0.915000 0.630000 0.085000
0.977500 0.630000 0.085000
1.000000 0.630000 0.085000
0.040000 0.692500 0.085000
0.102500 0.692500 0.085000
0.165000 0.692500 0.085000
0.227500 0.692500 0.085000
0.290000 0.692500 0.085000
0.352500 0.692500 0.085000
0.415000 0.692500 0.085000
0.477500 0.692500 0.085000
0.540000 0.692500 0.085000
0.602500 0.692500 0.085000
0.665000 0.692500 0.085000
0.727500 0.692500 0.085000
0.790000 0.692500 0.085000
0.852500 0.692500 0.085000
0.915000 0.692500 0.085000
0.977500 0.692500 0.085000
1.000000 0.692500 0.085000
0.040000 0.755000 0.085000
0.102500 0.755000 0.085000
0.165000 0.755000 0.085000
0.227500 0.755000 0.085000
0.290000 0.755000 0.085000
0.352500 0.755000 0.085000
0.415000 0.755000 0.085000
0.477500 0.755000 0.085000
0.540000 0.755000 0.085000
0.602500 0.755000 0.085000
0.665000 0.755000 0.085000
0.727500 0.755000 0.085000
0.790000 0.755000 0.085000
0.852500 0.755000 0.085000
0.915000 0.755000 0.085000
0.977500 0.755000 0.085000
1.000000 0.755000 0.085000
0.040000 0.817500 0.085000
0.102500 0.817500 0.085000
0.165000 0.817500 0.085000
0.227500 0.817500 0.085000
0.290000 0.817500 0.085000
0.352500 0.817500 0.085000
0.415000 0.817500 0.085000
0.477500 0.817500 0.085000
0.540000 0.817500 0.085000
0.602500 0.817500 0.085000
0.665000 0.817500 0.085000
0.727500 0.817500 0.085000
0.790000 0.817500 0.085000
0.852500 0.817500 0.085000
0.915000 0.817500 0.085000
0.977500 0.817500 0.085000
1.000000 0.817500 0.085000
0.040000 0.880000 0.085000
0.102500 0.880000 0.085000
0.165000 0.880000 0.085000
0.227500 0.880000 0.085000
0.290000 0.880000 0.085000
0.352500 0.880000 0.085000
0.415000 0.880000 0.085000
0.477500 0.880000 0.085000
0.540000 0.880000 0.085000
0.602500 0.880000 0.085000
0.665000 0.880000 0.085000
0.727500 0.880000 0.085000
0.790000 0.880000 0.085000
0.852500 0.880000 0.085000
0.915000 0.880000 0.085000
0.977500 0.880000 0.085000
1.000000 0.880000 0.085000
0.040000 0.942500 0.085000
0.102500 0.942500 0.085000
0.165000 0.942500 0.085000
0.227500 0.942500 0.085000
0.290000 0.942500 0.085000
0.352500 0.942500 0.085000
0.415000 0.942500 0.085000
0.477500 0.942500 0.085000
0.540000 0.942500 0.085000
0.602500 0.942500 0.085000
0.665000 0.942500 0.085000
0.727500 0.942500 0.085000
0.790000 0.942500 0.085000
0.852500 0.942500 0.085000
0.915000 0.942500 0.085000
0.977500 0.942500 0.085000
1.000000 0.942500 0.085000
0.040000 1.000000 0.085000
0.102500 1.000000 0.085000
0.165000 1.000000 0.085000
0.227500 1.000000 0.085000
0.290000 1.000000 0.085000
0.352500 1.000000 0.085000
0.415000 1.000000 0.085000
0.477500 1.000000 0.085000
0.540000 1.000000 0.085000
0.602500 1.000000 0.085000
0.665000 1.000000 0.085000
0.727500 1.000000 0.085000
0.790000 1.000000 0.085000
0.852500 1.000000 0.085000
0.915000 1.000000 0.085000
0.977500 1.000000 0.085000
1.000000 1.000000 0.085000
0.040000 0.005000 0.147500
0.102500 0.005000 0.147500
0.165000 0.005000 0.147500
0.227500 0.005000 0.147500
0.290000 0.005000 0.147500
0.352500 0.005000 0.147500
0.415000 0.005000 0.147500
0.477500 0.005000 0.147500
0.540000 0.005000 0.147500
0.602500 0.005000 0.147500
0.665000 0.005000 0.147500
0.727500 0.005000 0.147500
0.790000 0.005000 0.147500
0.852500 0.005000 0.147500
0.915000 0.005000 0.147500
0.977500 0.005000 0.147500
1.000000 0.005000 0.147500
0.040000 0.067500 0.147500
0.102500 0.067500 0.147500
