lut_features/tests/fixtures/cool_shift.cube
LUT_3D_SIZE 17
DOMAIN_MIN 0.0 0.0 0.0
DOMAIN_MAX 1.0 1.0 1.0
0.000000 0.000000 0.070000
0.000000 0.000000 0.070000
0.055000 0.000000 0.070000
0.117500 0.000000 0.070000
0.180000 0.000000 0.070000
0.242500 0.000000 0.070000
0.305000 0.000000 0.070000
0.367500 0.000000 0.070000
0.430000 0.000000 0.070000
0.492500 0.000000 0.070000
0.555000 0.000000 0.070000
0.617500 0.000000 0.070000
0.680000 0.000000 0.070000
0.742500 0.000000 0.070000
0.805000 0.000000 0.070000
0.867500 0.000000 0.070000
0.930000 0.000000 0.070000
0.000000 0.052500 0.070000
0.000000 0.052500 0.070000
0.055000 0.052500 0.070000
0.117500 0.052500 0.070000
0.180000 0.052500 0.070000
0.242500 0.052500 0.070000
0.305000 0.052500 0.070000
0.367500 0.052500 0.070000
0.430000 0.052500 0.070000
0.492500 0.052500 0.070000
0.555000 0.052500 0.070000
0.617500 0.052500 0.070000
0.680000 0.052500 0.070000
0.742500 0.052500 0.070000
0.805000 0.052500 0.070000
0.867500 0.052500 0.070000
0.930000 0.052500 0.070000
0.000000 0.115000 0.070000
0.000000 0.115000 0.070000
0.055000 0.115000 0.070000
0.117500 0.115000 0.070000
0.180000 0.115000 0.070000
0.242500 0.115000 0.070000
0.305000 0.115000 0.070000
0.367500 0.115000 0.070000
0.430000 0.115000 0.070000
0.492500 0.115000 0.070000
0.555000 0.115000 0.070000
0.617500 0.115000 0.070000
0.680000 0.115000 0.070000
0.742500 0.115000 0.070000
0.805000 0.115000 0.070000
0.867500 0.115000 0.070000
0.930000 0.115000 0.070000
0.000000 0.177500 0.070000
0.000000 0.177500 0.070000
0.055000 0.177500 0.070000
0.117500 0.177500 0.070000
0.180000 0.177500 0.070000
0.242500 0.177500 0.070000
0.305000 0.177500 0.070000
0.367500 0.177500 0.070000
0.430000 0.177500 0.070000
0.492500 0.177500 0.070000
0.555000 0.177500 0.070000
0.617500 0.177500 0.070000
0.680000 0.177500 0.070000
0.742500 0.177500 0.070000
0.805000 0.177500 0.070000
0.867500 0.177500 0.070000
0.930000 0.177500 0.070000
0.000000 0.240000 0.070000
0.000000 0.240000 0.070000
0.055000 0.240000 0.070000
0.117500 0.240000 0.070000
0.180000 0.240000 0.070000
0.242500 0.240000 0.070000
0.305000 0.240000 0.070000
0.367500 0.240000 0.070000
0.430000 0.240000 0.070000
0.492500 0.240000 0.070000
0.555000 0.240000 0.070000
0.617500 0.240000 0.070000
0.680000 0.240000 0.070000
0.742500 0.240000 0.070000
0.805000 0.240000 0.070000
0.867500 0.240000 0.070000
0.930000 0.240000 0.070000
0.000000 0.302500 0.070000
0.000000 0.302500 0.070000
0.055000 0.302500 0.070000
0.117500 0.302500 0.070000
0.180000 0.302500 0.070000
0.242500 0.302500 0.070000
0.305000 0.302500 0.070000
0.367500 0.302500 0.070000
0.430000 0.302500 0.070000
0.492500 0.302500 0.070000
0.555000 0.302500 0.070000
0.617500 0.302500 0.070000
0.680000 0.302500 0.070000
0.742500 0.302500 0.070000
0.805000 0.302500 0.070000
0.867500 0.302500 0.070000
0.930000 0.302500 0.070000
0.000000 0.365000 0.070000
0.000000 0.365000 0.070000
0.055000 0.365000 0.070000
0.117500 0.365000 0.070000
0.180000 0.365000 0.070000
0.242500 0.365000 0.070000
0.305000 0.365000 0.070000
0.367500 0.365000 0.070000
0.430000 0.365000 0.070000
0.492500 0.365000 0.070000
0.555000 0.365000 0.070000
0.617500 0.365000 0.070000
0.680000 0.365000 0.070000
0.742500 0.365000 0.070000
0.805000 0.365000 0.070000
0.867500 0.365000 0.070000
0.930000 0.365000 0.070000
0.000000 0.427500 0.070000
0.000000 0.427500 0.070000
0.055000 0.427500 0.070000
0.117500 0.427500 0.070000
0.180000 0.427500 0.070000
0.242500 0.427500 0.070000
0.305000 0.427500 0.070000
0.367500 0.427500 0.070000
0.430000 0.427500 0.070000
0.492500 0.427500 0.070000
0.555000 0.427500 0.070000
0.617500 0.427500 0.070000
0.680000 0.427500 0.070000
0.742500 0.427500 0.070000
0.805000 0.427500 0.070000
0.867500 0.427500 0.070000
0.930000 0.427500 0.070000
0.000000 0.490000 0.070000
0.000000 0.490000 0.070000
0.055000 0.490000 0.070000
0.117500 0.490000 0.070000
0.180000 0.490000 0.070000
0.242500 0.490000 0.070000
0.305000 0.490000 0.070000
0.367500 0.490000 0.070000
0.430000 0.490000 0.070000
0.492500 0.490000 0.070000
0.555000 0.490000 0.070000
0.617500 0.490000 0.070000
0.680000 0.490000 0.070000
0.742500 0.490000 0.070000
0.805000 0.490000 0.070000
0.867500 0.490000 0.070000
0.930000 0.490000 0.070000
0.000000 0.552500 0.070000
0.000000 0.552500 0.070000
0.055000 0.552500 0.070000
0.117500 0.552500 0.070000
0.180000 0.552500 0.070000
0.242500 0.552500 0.070000
0.305000 0.552500 0.070000
0.367500 0.552500 0.070000
0.430000 0.552500 0.070000
0.492500 0.552500 0.070000
0.555000 0.552500 0.070000
0.617500 0.552500 0.070000
0.680000 0.552500 0.070000
0.742500 0.552500 0.070000
0.805000 0.552500 0.070000
0.867500 0.552500 0.070000
0.930000 0.552500 0.070000
0.000000 0.615000 0.070000
0.000000 0.615000 0.070000
0.055000 0.615000 0.070000
0.117500 0.615000 0.070000
0.180000 0.615000 0.070000
0.242500 0.615000 0.070000
0.305000 0.615000 0.070000
0.367500 0.615000 0.070000
0.430000 0.615000 0.070000
0.492500 0.615000 0.070000
0.555000 0.615000 0.070000
0.617500 0.615000 0.070000
0.680000 0.615000 0.070000
0.742500 0.615000 0.070000
0.805000 0.615000 0.070000
0.867500 0.615000 0.070000
0.930000 0.615000 0.070000
0.000000 0.677500 0.070000
0.000000 0.677500 0.070000
0.055000 0.677500 0.070000
0.117500 0.677500 0.070000
0.180000 0.677500 0.070000
0.242500 0.677500 0.070000
0.305000 0.677500 0.070000
0.367500 0.677500 0.070000
0.430000 0.677500 0.070000
0.492500 0.677500 0.070000
0.555000 0.677500 0.070000
0.617500 0.677500 0.070000
0.680000 0.677500 0.070000
0.742500 0.677500 0.070000
0.805000 0.677500 0.070000
0.867500 0.677500 0.070000
0.930000 0.677500 0.070000
0.000000 0.740000 0.070000
0.000000 0.740000 0.070000
0.055000 0.740000 0.070000
0.117500 0.740000 0.070000
0.180000 0.740000 0.070000
0.242500 0.740000 0.070000
0.305000 0.740000 0.070000
0.367500 0.740000 0.070000
0.430000 0.740000 0.070000
0.492500 0.740000 0.070000
0.555000 0.740000 0.070000
0.617500 0.740000 0.070000
0.680000 0.740000 0.070000
0.742500 0.740000 0.070000
0.805000 0.740000 0.070000
0.867500 0.740000 0.070000
0.930000 0.740000 0.070000
0.000000 0.802500 0.070000
0.000000 0.802500 0.070000
0.055000 0.802500 0.070000
0.117500 0.802500 0.070000
0.180000 0.802500 0.070000
0.242500 0.802500 0.070000
0.305000 0.802500 0.070000
0.367500 0.802500 0.070000
0.430000 0.802500 0.070000
0.492500 0.802500 0.070000
0.555000 0.802500 0.070000
0.617500 0.802500 0.070000
0.680000 0.802500 0.070000
0.742500 0.802500 0.070000
0.805000 0.802500 0.070000
0.867500 0.802500 0.070000
0.930000 0.802500 0.070000
0.000000 0.865000 0.070000
0.000000 0.865000 0.070000
0.055000 0.865000 0.070000
0.117500 0.865000 0.070000
0.180000 0.865000 0.070000
0.242500 0.865000 0.070000
0.305000 0.865000 0.070000
0.367500 0.865000 0.070000
0.430000 0.865000 0.070000
0.492500 0.865000 0.070000
0.555000 0.865000 0.070000
0.617500 0.865000 0.070000
0.680000 0.865000 0.070000
0.742500 0.865000 0.070000
0.805000 0.865000 0.070000
0.867500 0.865000 0.070000
0.930000 0.865000 0.070000
0.000000 0.927500 0.070000
0.000000 0.927500 0.070000
0.055000 0.927500 0.070000
0.117500 0.927500 0.070000
0.180000 0.927500 0.070000
0.242500 0.927500 0.070000
0.305000 0.927500 0.070000
0.367500 0.927500 0.070000
0.430000 0.927500 0.070000
0.492500 0.927500 0.070000
0.555000 0.927500 0.070000
0.617500 0.927500 0.070000
0.680000 0.927500 0.070000
0.742500 0.927500 0.070000
0.805000 0.927500 0.070000
0.867500 0.927500 0.070000
0.930000 0.927500 0.070000
0.000000 0.990000 0.070000
0.000000 0.990000 0.070000
0.055000 0.990000 0.070000
0.117500 0.990000 0.070000
0.180000 0.990000 0.070000
0.242500 0.990000 0.070000
0.305000 0.990000 0.070000
0.367500 0.990000 0.070000
0.430000 0.990000 0.070000
0.492500 0.990000 0.070000
0.555000 0.990000 0.070000
0.617500 0.990000 0.070000
0.680000 0.990000 0.070000
0.742500 0.990000 0.070000
0.805000 0.990000 0.070000
0.867500 0.990000 0.070000
0.930000 0.990000 0.070000
0.000000 0.000000 0.132500
0.000000 0.000000 0.132500
0.055000 0.000000 0.132500
0.117500 0.000000 0.132500
0.180000 0.000000 0.132500
0.242500 0.000000 0.132500
0.305000 0.000000 0.132500
0.367500 0.000000 0.132500
0.430000 0.000000 0.132500
0.492500 0.000000 0.132500
0.555000 0.000000 0.132500
0.617500 0.000000 0.132500
0.680000 0.000000 0.132500
0.742500 0.000000 0.132500
0.805000 0.000000 0.132500
0.867500 0.000000 0.132500
0.930000 0.000000 0.132500
0.000000 0.052500 0.132500
0.000000 0.052500 0.132500
0.055000 0.052500 0.132500
0.117500 0.052500 0.132500
0.180000 0.052500 0.132500
0.242500 0.052500 0.132500
0.305000 0.052500 0.132500
0.367500 0.052500 0.132500
0.430000 0.052500 0.132500
0.492500 0.052500 0.132500
0.555000 0.052500 0.132500
0.617500 0.052500 0.132500
0.680000 0.052500 0.132500
0.742500 0.052500 0.132500
0.805000 0.052500 0.132500
0.867500 0.052500 0.132500
0.930000 0.052500 0.132500
0.000000 0.115000 0.132500
0.000000 0.115000 0.132500
0.055000 0.115000 0.132500
0.117500 0.115000 0.132500
0.180000 0.115000 0.132500
0.242500 0.115000 0.132500
0.305000 0.115000 0.132500
0.367500 0.115000 0.132500
0.430000 0.115000 0.132500
0.492500 0.115000 0.132500
0.555000 0.115000 0.132500
0.617500 0.115000 0.132500
0.680000 0.115000 0.132500
0.742500 0.115000 0.132500
0.805000 0.115000 0.132500
0.867500 0.115000 0.132500
0.930000 0.115000 0.132500
0.000000 0.177500 0.132500
0.000000 0.177500 0.132500
0.055000 0.177500 0.132500
0.117500 0.177500 0.132500
0.180000 0.177500 0.132500
0.242500 0.177500 0.132500
0.305000 0.177500 0.132500
0.367500 0.177500 0.132500
0.430000 0.177500 0.132500
0.492500 0.177500 0.132500
0.555000 0.177500 0.132500
0.617500 0.177500 0.132500
0.680000 0.177500 0.132500
0.742500 0.177500 0.132500
0.805000 0.177500 0.132500
0.867500 0.177500 0.132500
0.930000 0.177500 0.132500
0.000000 0.240000 0.132500
0.000000 0.240000 0.132500
0.055000 0.240000 0.132500
0.117500 0.240000 0.132500
0.180000 0.240000 0.132500
0.242500 0.240000 0.132500
0.305000 0.240000 0.132500
0.367500 0.240000 0.132500
0.430000 0.240000 0.132500
0.492500 0.240000 0.132500
0.555000 0.240000 0.132500
0.617500 0.240000 0.132500
0.680000 0.240000 0.132500
0.742500 0.240000 0.132500
0.805000 0.240000 0.132500
0.867500 0.240000 0.132500
0.930000 0.240000 0.132500
0.000000 0.302500 0.132500
0.000000 0.302500 0.132500
0.055000 0.302500 0.132500
0.117500 0.302500 0.132500
0.180000 0.302500 0.132500
0.242500 0.302500 0.132500
0.305000 0.302500 0.132500
0.367500 0.302500 0.132500
0.430000 0.302500 0.132500
0.492500 0.302500 0.132500
0.555000 0.302500 0.132500
0.617500 0.302500 0.132500
0.680000 0.302500 0.132500
0.742500 0.302500 0.132500
0.805000 0.302500 0.132500
0.867500 0.302500 0.132500
0.930000 0.302500 0.132500
0.000000 0.365000 0.132500
0.000000 0.365000 0.132500
0.055000 0.365000 0.132500
0.117500 0.365000 0.132500
0.180000 0.365000 0.132500
0.242500 0.365000 0.132500
0.305000 0.365000 0.132500
0.367500 0.365000 0.132500
0.430000 0.365000 0.132500
0.492500 0.365000 0.132500
0.555000 0.365000 0.132500
0.617500 0.365000 0.132500
0.680000 0.365000 0.132500
0.742500 0.365000 0.132500
0.805000 0.365000 0.132500
0.867500 0.365000 0.132500
0.930000 0.365000 0.132500
0.000000 0.427500 0.132500
0.000000 0.427500 0.132500
0.055000 0.427500 0.132500
0.117500 0.427500 0.132500
0.180000 0.427500 0.132500
0.242500 0.427500 0.132500
0.305000 0.427500 0.132500
0.367500 0.427500 0.132500
0.430000 0.427500 0.132500
0.492500 0.427500 0.132500
0.555000 0.427500 0.132500
0.617500 0.427500 0.132500
0.680000 0.427500 0.132500
0.742500 0.427500 0.132500
0.805000 0.427500 0.132500
0.867500 0.427500 0.132500
0.930000 0.427500 0.132500
0.000000 0.490000 0.132500
0.000000 0.490000 0.132500
0.055000 0.490000 0.132500
0.117500 0.490000 0.132500
0.180000 0.490000 0.132500
0.242500 0.490000 0.132500
0.305000 0.490000 0.132500
0.367500 0.490000 0.132500
0.430000 0.490000 0.132500
0.492500 0.490000 0.132500
0.555000 0.490000 0.132500
0.617500 0.490000 0.132500
0.680000 0.490000 0.132500
0.742500 0.490000 0.132500
0.805000 0.490000 0.132500
0.867500 0.490000 0.132500
0.930000 0.490000 0.132500
0.000000 0.552500 0.132500
0.000000 0.552500 0.132500
0.055000 0.552500 0.132500
0.117500 0.552500 0.132500
0.180000 0.552500 0.132500
0.242500 0.552500 0.132500
0.305000 0.552500 0.132500
0.367500 0.552500 0.132500
0.430000 0.552500 0.132500
0.492500 0.552500 0.132500
0.555000 0.552500 0.132500
0.617500 0.552500 0.132500
0.680000 0.552500 0.132500
0.742500 0.552500 0.132500
0.805000 0.552500 0.132500
0.867500 0.552500 0.132500
0.930000 0.552500 0.132500
0.000000 0.615000 0.132500
0.000000 0.615000 0.132500
0.055000 0.615000 0.132500
0.117500 0.615000 0.132500
0.180000 0.615000 0.132500
0.242500 0.615000 0.132500
0.305000 0.615000 0.132500
0.367500 0.615000 0.132500
0.430000 0.615000 0.132500
0.492500 0.615000 0.132500
0.555000 0.615000 0.132500
0.617500 0.615000 0.132500
0.680000 0.615000 0.132500
0.742500 0.615000 0.132500
0.805000 0.615000 0.132500
0.867500 0.615000 0.132500
0.930000 0.615000 0.132500
0.000000 0.677500 0.132500
0.000000 0.677500 0.132500
0.055000 0.677500 0.132500
0.117500 0.677500 0.132500
0.180000 0.677500 0.132500
0.242500 0.677500 0.132500
0.305000 0.677500 0.132500
0.367500 0.677500 0.132500
0.430000 0.677500 0.132500
0.492500 0.677500 0.132500
0.555000 0.677500 0.132500
0.617500 0.677500 0.132500
0.680000 0.677500 0.132500
0.742500 0.677500 0.132500
0.805000 0.677500 0.132500
0.867500 0.677500 0.132500
0.930000 0.677500 0.132500
0.000000 0.740000 0.132500
0.000000 0.740000 0.132500
0.055000 0.740000 0.132500
0.117500 0.740000 0.132500
0.180000 0.740000 0.132500
0.242500 0.740000 0.132500
0.305000 0.740000 0.132500
0.367500 0.740000 0.132500
0.430000 0.740000 0.132500
0.492500 0.740000 0.132500
0.555000 0.740000 0.132500
0.617500 0.740000 0.132500
0.680000 0.740000 0.132500
0.742500 0.740000 0.132500
0.805000 0.740000 0.132500
0.867500 0.740000 0.132500
0.930000 0.740000 0.132500
0.000000 0.802500 0.132500
0.000000 0.802500 0.132500
0.055000 0.802500 0.132500
0.117500 0.802500 0.132500
0.180000 0.802500 0.132500
0.242500 0.802500 0.132500
0.305000 0.802500 0.132500
0.367500 0.802500 0.132500
0.430000 0.802500 0.132500
0.492500 0.802500 0.132500
0.555000 0.802500 0.132500
0.617500 0.802500 0.132500
0.680000 0.802500 0.132500
0.742500 0.802500 0.132500
0.805000 0.802500 0.132500
0.867500 0.802500 0.132500
0.930000 0.802500 0.132500
0.000000 0.865000 0.132500
0.000000 0.865000 0.132500
0.055000 0.865000 0.132500
0.117500 0.865000 0.132500
0.180000 0.865000 0.132500
0.242500 0.865000 0.132500
0.305000 0.865000 0.132500
0.367500 0.865000 0.132500
0.430000 0.865000 0.132500
0.492500 0.865000 0.132500
0.555000 0.865000 0.132500
0.617500 0.865000 0.132500
0.680000 0.865000 0.132500
0.742500 0.865000 0.132500
0.805000 0.865000 0.132500
0.867500 0.865000 0.132500
0.930000 0.865000 0.132500
0.000000 0.927500 0.132500
0.000000 0.927500 0.132500
0.055000 0.927500 0.132500
0.117500 0.927500 0.132500
0.180000 0.927500 0.132500
0.242500 0.927500 0.132500
0.305000 0.927500 0.132500
0.367500 0.927500 0.132500
0.430000 0.927500 0.132500
0.492500 0.927500 0.132500
0.555000 0.927500 0.132500
0.617500 0.927500 0.132500
0.680000 0.927500 0.132500
0.742500 0.927500 0.132500
0.805000 0.927500 0.132500
0.867500 0.927500 0.132500
0.930000 0.927500 0.132500
0.000000 0.990000 0.132500
0.000000 0.990000 0.132500
0.055000 0.990000 0.132500
0.117500 0.990000 0.132500
0.180000 0.990000 0.132500
0.242500 0.990000 0.132500
0.305000 0.990000 0.132500
0.367500 0.990000 0.132500
0.430000 0.990000 0.132500
0.492500 0.990000 0.132500
0.555000 0.990000 0.132500
0.617500 0.990000 0.132500
0.680000 0.990000 0.132500
0.742500 0.990000 0.132500
0.805000 0.990000 0.132500
0.867500 0.990000 0.132500
0.930000 0.990000 0.132500
0.000000 0.000000 0.195000
0.000000 0.000000 0.195000
0.055000 0.000000 0.195000
0.117500 0.000000 0.195000
0.180000 0.000000 0.195000
0.242500 0.000000 0.195000
0.305000 0.000000 0.195000
0.367500 0.000000 0.195000
0.430000 0.000000 0.195000
0.492500 0.000000 0.195000
0.555000 0.000000 0.195000
0.617500 0.000000 0.195000
0.680000 0.000000 0.195000
0.742500 0.000000 0.195000
0.805000 0.000000 0.195000
0.867500 0.000000 0.195000
0.930000 0.000000 0.195000
0.000000 0.052500 0.195000
0.000000 0.052500 0.195000
0.055000 0.052500 0.195000
0.117500 0.052500 0.195000
0.180000 0.052500 0.195000
0.242500 0.052500 0.195000
0.305000 0.052500 0.195000
0.367500 0.052500 0.195000
0.430000 0.052500 0.195000
0.492500 0.052500 0.195000
0.555000 0.052500 0.195000
0.617500 0.052500 0.195000
0.680000 0.052500 0.195000
0.742500 0.052500 0.195000
0.805000 0.052500 0.195000
0.867500 0.052500 0.195000
0.930000 0.052500 0.195000
0.000000 0.115000 0.195000
0.000000 0.115000 0.195000
0.055000 0.115000 0.195000
0.117500 0.115000 0.195000
0.180000 0.115000 0.195000
0.242500 0.115000 0.195000
0.305000 0.115000 0.195000
0.367500 0.115000 0.195000
0.430000 0.115000 0.195000
0.492500 0.115000 0.195000
0.555000 0.115000 0.195000
0.617500 0.115000 0.195000
0.680000 0.115000 0.195000
0.742500 0.115000 0.195000
0.805000 0.115000 0.195000
0.867500 0.115000 0.195000
0.930000 0.115000 0.195000
0.000000 0.177500 0.195000
0.000000 0.177500 0.195000
0.055000 0.177500 0.195000
0.117500 0.177500 0.195000
0.180000 0.177500 0.195000
0.242500 0.177500 0.195000
0.305000 0.177500 0.195000
0.367500 0.177500 0.195000
0.430000 0.177500 0.195000
0.492500 0.177500 0.195000
0.555000 0.177500 0.195000
0.617500 0.177500 0.195000
0.680000 0.177500 0.195000
0.742500 0.177500 0.195000
0.805000 0.177500 0.195000
0.867500 0.177500 0.195000
0.930000 0.177500 0.195000
0.000000 0.240000 0.195000
0.000000 0.240000 0.195000
0.055000 0.240000 0.195000
0.117500 0.240000 0.195000
0.180000 0.240000 0.195000
0.242500 0.240000 0.195000
0.305000 0.240000 0.195000
0.367500 0.240000 0.195000
0.430000 0.240000 0.195000
0.492500 0.240000 0.195000
0.555000 0.240000 0.195000
0.617500 0.240000 0.195000
0.680000 0.240000 0.195000
0.742500 0.240000 0.195000
0.805000 0.240000 0.195000
0.867500 0.240000 0.195000
0.930000 0.240000 0.195000
0.000000 0.302500 0.195000
0.000000 0.302500 0.195000
0.055000 0.302500 0.195000
0.117500 0.302500 0.195000
0.180000 0.302500 0.195000
0.242500 0.302500 0.195000
0.305000 0.302500 0.195000
0.367500 0.302500 0.195000
0.430000 0.302500 0.195000
0.492500 0.302500 0.195000
0.555000 0.302500 0.195000
0.617500 0.302500 0.195000
0.680000 0.302500 0.195000
0.742500 0.302500 0.195000
0.805000 0.302500 0.195000
0.867500 0.302500 0.195000
0.930000 0.302500 0.195000
0.000000 0.365000 0.195000
0.000000 0.365000 0.195000
0.055000 0.365000 0.195000
0.117500 0.365000 0.195000
0.180000 0.365000 0.195000
0.242500 0.365000 0.195000
0.305000 0.365000 0.195000
0.367500 0.365000 0.195000
0.430000 0.365000 0.195000
0.492500 0.365000 0.195000
0.555000 0.365000 0.195000
0.617500 0.365000 0.195000
0.680000 0.365000 0.195000
0.742500 0.365000 0.195000
0.805000 0.365000 0.195000
0.867500 0.365000 0.195000
0.930000 0.365000 0.195000
0.000000 0.427500 0.195000
0.000000 0.427500 0.195000
0.055000 0.427500 0.195000
0.117500 0.427500 0.195000
0.180000 0.427500 0.195000
0.242500 0.427500 0.195000
0.305000 0.427500 0.195000
0.367500 0.427500 0.195000
0.430000 0.427500 0.195000
0.492500 0.427500 0.195000
0.555000 0.427500 0.195000
0.617500 0.427500 0.195000
0.680000 0.427500 0.195000
0.742500 0.427500 0.195000
0.805000 0.427500 0.195000
0.867500 0.427500 0.195000
0.930000 0.427500 0.195000
0.000000 0.490000 0.195000
0.000000 0.490000 0.195000
0.055000 0.490000 0.195000
0.117500 0.490000 0.195000
0.180000 0.490000 0.195000
0.242500 0.490000 0.195000
0.305000 0.490000 0.195000
0.367500 0.490000 0.195000
0.430000 0.490000 0.195000
0.492500 0.490000 0.195000
0.555000 0.490000 0.195000
0.617500 0.490000 0.195000
0.680000 0.490000 0.195000
0.742500 0.490000 0.195000
0.805000 0.490000 0.195000
0.867500 0.490000 0.195000
0.930000 0.490000 0.195000
0.000000 0.552500 0.195000
0.000000 0.552500 0.195000
0.055000 0.552500 0.195000
0.117500 0.552500 0.195000
0.180000 0.552500 0.195000
0.242500 0.552500 0.195000
0.305000 0.552500 0.195000
0.367500 0.552500 0.195000
0.430000 0.552500 0.195000
0.492500 0.552500 0.195000
0.555000 0.552500 0.195000
0.617500 0.552500 0.195000
0.680000 0.552500 0.195000
0.742500 0.552500 0.195000
0.805000 0.552500 0.195000
0.867500 0.552500 0.195000
0.930000 0.552500 0.195000
0.000000 0.615000 0.195000
0.000000 0.615000 0.195000
0.055000 0.615000 0.195000
0.117500 0.615000 0.195000
0.180000 0.615000 0.195000
0.242500 0.615000 0.195000
0.305000 0.615000 0.195000
0.367500 0.615000 0.195000
0.430000 0.615000 0.195000
0.492500 0.615000 0.195000
0.555000 0.615000 0.195000
0.617500 0.615000 0.195000
0.680000 0.615000 0.195000
0.742500 0.615000 0.195000
0.805000 0.615000 0.195000
0.867500 0.615000 0.195000
0.930000 0.615000 0.195000
0.000000 0.677500 0.195000
0.000000 0.677500 0.195000
0.055000 0.677500 0.195000
0.117500 0.677500 0.195000
0.180000 0.677500 0.195000
0.242500 0.677500 0.195000
0.305000 0.677500 0.195000
0.367500 0.677500 0.195000
0.430000 0.677500 0.195000
0.492500 0.677500 0.195000
0.555000 0.677500 0.195000
0.617500 0.677500 0.195000
0.680000 0.677500 0.195000
0.742500 0.677500 0.195000
0.805000 0.677500 0.195000
0.867500 0.677500 0.195000
0.930000 0.677500 0.195000
0.000000 0.740000 0.195000
0.000000 0.740000 0.195000
0.055000 0.740000 0.195000
0.117500 0.740000 0.195000
0.180000 0.740000 0.195000
0.242500 0.740000 0.195000
0.305000 0.740000 0.195000
0.367500 0.740000 0.195000
0.430000 0.740000 0.195000
0.492500 0.740000 0.195000
0.555000 0.740000 0.195000
0.617500 0.740000 0.195000
0.680000 0.740000 0.195000
0.742500 0.740000 0.195000
0.805000 0.740000 0.195000
0.867500 0.740000 0.195000
0.930000 0.740000 0.195000
0.000000 0.802500 0.195000
0.000000 0.802500 0.195000
0.055000 0.802500 0.195000
0.117500 0.802500 0.195000
0.180000 0.802500 0.195000
0.242500 0.802500 0.195000
0.305000 0.802500 0.195000
0.367500 0.802500 0.195000
0.430000 0.802500 0.195000
0.492500 0.802500 0.195000
0.555000 0.802500 0.195000
0.617500 0.802500 0.195000
0.680000 0.802500 0.195000
0.742500 0.802500 0.195000
0.805000 0.802500 0.195000
0.867500 0.802500 0.195000
0.930000 0.802500 0.195000
0.000000 0.865000 0.195000
0.000000 0.865000 0.195000
0.055000 0.865000 0.195000
0.117500 0.865000 0.195000
0.180000 0.865000 0.195000
0.242500 0.865000 0.195000
0.305000 0.865000 0.195000
0.367500 0.865000 0.195000
0.430000 0.865000 0.195000
0.492500 0.865000 0.195000
0.555000 0.865000 0.195000
0.617500 0.865000 0.195000
0.680000 0.865000 0.195000
0.742500 0.865000 0.195000
0.805000 0.865000 0.195000
0.867500 0.865000 0.195000
0.930000 0.865000 0.195000
0.000000 0.927500 0.195000
0.000000 0.927500 0.195000
0.055000 0.927500 0.195000
0.117500 0.927500 0.195000
0.180000 0.927500 0.195000
0.242500 0.927500 0.195000
0.305000 0.927500 0.195000
0.367500 0.927500 0.195000
0.430000 0.927500 0.195000
0.492500 0.927500 0.195000
0.555000 0.927500 0.195000
0.617500 0.927500 0.195000
0.680000 0.927500 0.195000
0.742500 0.927500 0.195000
0.805000 0.927500 0.195000
0.867500 0.927500 0.195000
0.930000 0.927500 0.195000
0.000000 0.990000 0.195000
0.000000 0.990000 0.195000
0.055000 0.990000 0.195000
0.117500 0.990000 0.195000
0.180000 0.990000 0.195000
0.242500 0.990000 0.195000
0.305000 0.990000 0.195000
0.367500 0.990000 0.195000
0.430000 0.990000 0.195000
0.492500 0.990000 0.195000
0.555000 0.990000 0.195000
0.617500 0.990000 0.195000
0.680000 0.990000 0.195000
0.742500 0.990000 0.195000
0.805000 0.990000 0.195000
0.867500 0.990000 0.195000
0.930000 0.990000 0.195000
0.000000 0.000000 0.257500
0.000000 0.000000 0.257500
0.055000 0.000000 0.257500
0.117500 0.000000 0.257500
0.180000 0.000000 0.257500
0.242500 0.000000 0.257500
0.305000 0.000000 0.257500
0.367500 0.000000 0.257500
0.430000 0.000000 0.257500
0.492500 0.000000 0.257500
0.555000 0.000000 0.257500
0.617500 0.000000 0.257500
0.680000 0.000000 0.257500
0.742500 0.000000 0.257500
0.805000 0.000000 0.257500
0.867500 0.000000 0.257500
0.930000 0.000000 0.257500
0.000000 0.052500 0.257500
0.000000 0.052500 0.257500
