lut_features/tests/fixtures/cool_shift.cube
LUT_3D_SIZE 5
DOMAIN_MIN 0.0 0.0 0.0
DOMAIN_MAX 1.0 1.0 1.0
0.000000 0.000000 0.070000
0.180000 0.000000 0.070000
0.430000 0.000000 0.070000
0.680000 0.000000 0.070000
0.930000 0.000000 0.070000
0.000000 0.240000 0.070000
0.180000 0.240000 0.070000
0.430000 0.240000 0.070000
0.680000 0.240000 0.070000
0.930000 0.240000 0.070000
0.000000 0.490000 0.070000
0.180000 0.490000 0.070000
0.430000 0.490000 0.070000
0.680000 0.490000 0.070000
0.930000 0.490000 0.070000
0.000000 0.740000 0.070000
0.180000 0.740000 0.070000
0.430000 0.740000 0.070000
0.680000 0.740000 0.070000
0.930000 0.740000 0.070000
0.000000 0.990000 0.070000
0.180000 0.990000 0.070000
0.430000 0.990000 0.070000
0.680000 0.990000 0.070000
0.930000 0.990000 0.070000
0.000000 0.000000 0.320000
0.180000 0.000000 0.320000
0.430000 0.000000 0.320000
0.680000 0.000000 0.320000
0.930000 0.000000 0.320000
0.000000 0.240000 0.320000
0.180000 0.240000 0.320000
0.430000 0.240000 0.320000
0.680000 0.240000 0.320000
0.930000 0.240000 0.320000
0.000000 0.490000 0.320000
0.180000 0.490000 0.320000
0.430000 0.490000 0.320000
0.680000 0.490000 0.320000
0.930000 0.490000 0.320000
0.000000 0.740000 0.320000
0.180000 0.740000 0.320000
0.430000 0.740000 0.320000
0.680000 0.740000 0.320000
0.930000 0.740000 0.320000
0.000000 0.990000 0.320000
0.180000 0.990000 0.320000
0.430000 0.990000 0.320000
0.680000 0.990000 0.320000
0.930000 0.990000 0.320000
0.000000 0.000000 0.570000
0.180000 0.000000 0.570000
0.430000 0.000000 0.570000
0.680000 0.000000 0.570000
0.930000 0.000000 0.570000
0.000000 0.240000 0.570000
0.180000 0.240000 0.570000
0.430000 0.240000 0.570000
0.680000 0.240000 0.570000
0.930000 0.240000 0.570000
0.000000 0.490000 0.570000
0.180000 0.490000 0.570000
0.430000 0.490000 0.570000
0.680000 0.490000 0.570000
0.930000 0.490000 0.570000
0.000000 0.740000 0.570000
0.180000 0.740000 0.570000
0.430000 0.740000 0.570000
0.680000 0.740000 0.570000
0.930000 0.740000 0.570000
0.000000 0.990000 0.570000
0.180000 0.990000 0.570000
0.430000 0.990000 0.570000
0.680000 0.990000 0.570000
0.930000 0.990000 0.570000
0.000000 0.000000 0.820000
0.180000 0.000000 0.820000
0.430000 0.000000 0.820000
0.680000 0.000000 0.820000
0.930000 0.000000 0.820000
0.000000 0.240000 0.820000
0.180000 0.240000 0.820000
0.430000 0.240000 0.820000
0.680000 0.240000 0.820000
0.930000 0.240000 0.820000
0.000000 0.490000 0.820000
0.180000 0.490000 0.820000
0.430000 0.490000 0.820000
0.680000 0.490000 0.820000
0.930000 0.490000 0.820000
0.000000 0.740000 0.820000
0.180000 0.740000 0.820000
0.430000 0.740000 0.820000
0.680000 0.740000 0.820000
0.930000 0.740000 0.820000
0.000000 0.990000 0.820000
0.180000 0.990000 0.820000
0.430000 0.990000 0.820000
0.680000 0.990000 0.820000
0.930000 0.990000 0.820000
0.000000 0.000000 1.000000
0.180000 0.000000 1.000000
0.430000 0.000000 1.000000
0.680000 0.000000 1.000000
0.930000 0.000000 1.000000
0.000000 0.240000 1.000000
0.180000 0.240000 1.000000
0.430000 0.240000 1.000000
0.680000 0.240000 1.000000
0.930000 0.240000 1.000000
0.000000 0.490000 1.000000
0.180000 0.490000 1.000000
0.430000 0.490000 1.000000
0.680000 0.490000 1.000000
0.930000 0.490000 1.000000
0.000000 0.740000 1.000000
0.180000 0.740000 1.000000
0.430000 0.740000 1.000000
0.680000 0.740000 1.000000
0.930000 0.740000 1.000000
0.000000 0.990000 1.000000
0.180000 0.990000 1.000000
0.430000 0.990000 1.000000
0.680000 0.990000 1.000000
0.930000 0.990000 1.000000
