lut_features/tests/fixtures/cool_shift.cube
LUT_3D_SIZE 9
DOMAIN_MIN 0.0 0.0 0.0
DOMAIN_MAX 1.0 1.0 1.0
0.000000 0.000000 0.070000
0.055000 0.000000 0.070000
0.180000 0.000000 0.070000
0.305000 0.000000 0.070000
0.430000 0.000000 0.070000
0.555000 0.000000 0.070000
0.680000 0.000000 0.070000
0.805000 0.000000 0.070000
0.930000 0.000000 0.070000
0.000000 0.115000 0.070000
0.055000 0.115000 0.070000
0.180000 0.115000 0.070000
0.305000 0.115000 0.070000
0.430000 0.115000 0.070000
0.555000 0.115000 0.070000
0.680000 0.115000 0.070000
0.805000 0.115000 0.070000
0.930000 0.115000 0.070000
0.000000 0.240000 0.070000
0.055000 0.240000 0.070000
0.180000 0.240000 0.070000
0.305000 0.240000 0.070000
0.430000 0.240000 0.070000
0.555000 0.240000 0.070000
0.680000 0.240000 0.070000
0.805000 0.240000 0.070000
0.930000 0.240000 0.070000
0.000000 0.365000 0.070000
0.055000 0.365000 0.070000
0.180000 0.365000 0.070000
0.305000 0.365000 0.070000
0.430000 0.365000 0.070000
0.555000 0.365000 0.070000
0.680000 0.365000 0.070000
0.805000 0.365000 0.070000
0.930000 0.365000 0.070000
0.000000 0.490000 0.070000
0.055000 0.490000 0.070000
0.180000 0.490000 0.070000
0.305000 0.490000 0.070000
0.430000 0.490000 0.070000
0.555000 0.490000 0.070000
0.680000 0.490000 0.070000
0.805000 0.490000 0.070000
0.930000 0.490000 0.070000
0.000000 0.615000 0.070000
0.055000 0.615000 0.070000
0.180000 0.615000 0.070000
0.305000 0.615000 0.070000
0.430000 0.615000 0.070000
0.555000 0.615000 0.070000
0.680000 0.615000 0.070000
0.805000 0.615000 0.070000
0.930000 0.615000 0.070000
0.000000 0.740000 0.070000
0.055000 0.740000 0.070000
0.180000 0.740000 0.070000
0.305000 0.740000 0.070000
0.430000 0.740000 0.070000
0.555000 0.740000 0.070000
0.680000 0.740000 0.070000
0.805000 0.740000 0.070000
0.930000 0.740000 0.070000
0.000000 0.865000 0.070000
0.055000 0.865000 0.070000
0.180000 0.865000 0.070000
0.305000 0.865000 0.070000
0.430000 0.865000 0.070000
0.555000 0.865000 0.070000
0.680000 0.865000 0.070000
0.805000 0.865000 0.070000
0.930000 0.865000 0.070000
0.000000 0.990000 0.070000
0.055000 0.990000 0.070000
0.180000 0.990000 0.070000
0.305000 0.990000 0.070000
0.430000 0.990000 0.070000
0.555000 0.990000 0.070000
0.680000 0.990000 0.070000
0.805000 0.990000 0.070000
0.930000 0.990000 0.070000
0.000000 0.000000 0.195000
0.055000 0.000000 0.195000
0.180000 0.000000 0.195000
0.305000 0.000000 0.195000
0.430000 0.000000 0.195000
0.555000 0.000000 0.195000
0.680000 0.000000 0.195000
0.805000 0.000000 0.195000
0.930000 0.000000 0.195000
0.000000 0.115000 0.195000
0.055000 0.115000 0.195000
0.180000 0.115000 0.195000
0.305000 0.115000 0.195000
0.430000 0.115000 0.195000
0.555000 0.115000 0.195000
0.680000 0.115000 0.195000
0.805000 0.115000 0.195000
0.930000 0.115000 0.195000
0.000000 0.240000 0.195000
0.055000 0.240000 0.195000
0.180000 0.240000 0.195000
0.305000 0.240000 0.195000
0.430000 0.240000 0.195000
0.555000 0.240000 0.195000
0.680000 0.240000 0.195000
0.805000 0.240000 0.195000
0.930000 0.240000 0.195000
0.000000 0.365000 0.195000
0.055000 0.365000 0.195000
0.180000 0.365000 0.195000
0.305000 0.365000 0.195000
0.430000 0.365000 0.195000
0.555000 0.365000 0.195000
0.680000 0.365000 0.195000
0.805000 0.365000 0.195000
0.930000 0.365000 0.195000
0.000000 0.490000 0.195000
0.055000 0.490000 0.195000
0.180000 0.490000 0.195000
0.305000 0.490000 0.195000
0.430000 0.490000 0.195000
0.555000 0.490000 0.195000
0.680000 0.490000 0.195000
0.805000 0.490000 0.195000
0.930000 0.490000 0.195000
0.000000 0.615000 0.195000
0.055000 0.615000 0.195000
0.180000 0.615000 0.195000
0.305000 0.615000 0.195000
0.430000 0.615000 0.195000
0.555000 0.615000 0.195000
0.680000 0.615000 0.195000
0.805000 0.615000 0.195000
0.930000 0.615000 0.195000
0.000000 0.740000 0.195000
0.055000 0.740000 0.195000
0.180000 0.740000 0.195000
0.305000 0.740000 0.195000
0.430000 0.740000 0.195000
0.555000 0.740000 0.195000
0.680000 0.740000 0.195000
0.805000 0.740000 0.195000
0.930000 0.740000 0.195000
0.000000 0.865000 0.195000
0.055000 0.865000 0.195000
0.180000 0.865000 0.195000
0.305000 0.865000 0.195000
0.430000 0.865000 0.195000
0.555000 0.865000 0.195000
0.680000 0.865000 0.195000
0.805000 0.865000 0.195000
0.930000 0.865000 0.195000
0.000000 0.990000 0.195000
0.055000 0.990000 0.195000
0.180000 0.990000 0.195000
0.305000 0.990000 0.195000
0.430000 0.990000 0.195000
0.555000 0.990000 0.195000
0.680000 0.990000 0.195000
0.805000 0.990000 0.195000
0.930000 0.990000 0.195000
0.000000 0.000000 0.320000
0.055000 0.000000 0.320000
0.180000 0.000000 0.320000
0.305000 0.000000 0.320000
0.430000 0.000000 0.320000
0.555000 0.000000 0.320000
0.680000 0.000000 0.320000
0.805000 0.000000 0.320000
0.930000 0.000000 0.320000
0.000000 0.115000 0.320000
0.055000 0.115000 0.320000
0.180000 0.115000 0.320000
0.305000 0.115000 0.320000
0.430000 0.115000 0.320000
0.555000 0.115000 0.320000
0.680000 0.115000 0.320000
0.805000 0.115000 0.320000
0.930000 0.115000 0.320000
0.000000 0.240000 0.320000
0.055000 0.240000 0.320000
0.180000 0.240000 0.320000
0.305000 0.240000 0.320000
0.430000 0.240000 0.320000
0.555000 0.240000 0.320000
0.680000 0.240000 0.320000
0.805000 0.240000 0.320000
0.930000 0.240000 0.320000
0.000000 0.365000 0.320000
0.055000 0.365000 0.320000
0.180000 0.365000 0.320000
0.305000 0.365000 0.320000
0.430000 0.365000 0.320000
0.555000 0.365000 0.320000
0.680000 0.365000 0.320000
0.805000 0.365000 0.320000
0.930000 0.365000 0.320000
0.000000 0.490000 0.320000
0.055000 0.490000 0.320000
0.180000 0.490000 0.320000
0.305000 0.490000 0.320000
0.430000 0.490000 0.320000
0.555000 0.490000 0.320000
0.680000 0.490000 0.320000
0.805000 0.490000 0.320000
0.930000 0.490000 0.320000
0.000000 0.615000 0.320000
0.055000 0.615000 0.320000
0.180000 0.615000 0.320000
0.305000 0.615000 0.320000
0.430000 0.615000 0.320000
0.555000 0.615000 0.320000
0.680000 0.615000 0.320000
0.805000 0.615000 0.320000
0.930000 0.615000 0.320000
0.000000 0.740000 0.320000
0.055000 0.740000 0.320000
0.180000 0.740000 0.320000
0.305000 0.740000 0.320000
0.430000 0.740000 0.320000
0.555000 0.740000 0.320000
0.680000 0.740000 0.320000
0.805000 0.740000 0.320000
0.930000 0.740000 0.320000
0.000000 0.865000 0.320000
0.055000 0.865000 0.320000
0.180000 0.865000 0.320000
0.305000 0.865000 0.320000
0.430000 0.865000 0.320000
0.555000 0.865000 0.320000
0.680000 0.865000 0.320000
0.805000 0.865000 0.320000
0.930000 0.865000 0.320000
0.000000 0.990000 0.320000
0.055000 0.990000 0.320000
0.180000 0.990000 0.320000
0.305000 0.990000 0.320000
0.430000 0.990000 0.320000
0.555000 0.990000 0.320000
0.680000 0.990000 0.320000
0.805000 0.990000 0.320000
0.930000 0.990000 0.320000
0.000000 0.000000 0.445000
0.055000 0.000000 0.445000
0.180000 0.000000 0.445000
0.305000 0.000000 0.445000
0.430000 0.000000 0.445000
0.555000 0.000000 0.445000
0.680000 0.000000 0.445000
0.805000 0.000000 0.445000
0.930000 0.000000 0.445000
0.000000 0.115000 0.445000
0.055000 0.115000 0.445000
0.180000 0.115000 0.445000
0.305000 0.115000 0.445000
0.430000 0.115000 0.445000
0.555000 0.115000 0.445000
0.680000 0.115000 0.445000
0.805000 0.115000 0.445000
0.930000 0.115000 0.445000
0.000000 0.240000 0.445000
0.055000 0.240000 0.445000
0.180000 0.240000 0.445000
0.305000 0.240000 0.445000
0.430000 0.240000 0.445000
0.555000 0.240000 0.445000
0.680000 0.240000 0.445000
0.805000 0.240000 0.445000
0.930000 0.240000 0.445000
0.000000 0.365000 0.445000
0.055000 0.365000 0.445000
0.180000 0.365000 0.445000
0.305000 0.365000 0.445000
0.430000 0.365000 0.445000
0.555000 0.365000 0.445000
0.680000 0.365000 0.445000
0.805000 0.365000 0.445000
0.930000 0.365000 0.445000
0.000000 0.490000 0.445000
0.055000 0.490000 0.445000
0.180000 0.490000 0.445000
0.305000 0.490000 0.445000
0.430000 0.490000 0.445000
0.555000 0.490000 0.445000
0.680000 0.490000 0.445000
0.805000 0.490000 0.445000
0.930000 0.490000 0.445000
0.000000 0.615000 0.445000
0.055000 0.615000 0.445000
0.180000 0.615000 0.445000
0.305000 0.615000 0.445000
0.430000 0.615000 0.445000
0.555000 0.615000 0.445000
0.680000 0.615000 0.445000
0.805000 0.615000 0.445000
0.930000 0.615000 0.445000
0.000000 0.740000 0.445000
0.055000 0.740000 0.445000
0.180000 0.740000 0.445000
0.305000 0.740000 0.445000
0.430000 0.740000 0.445000
0.555000 0.740000 0.445000
0.680000 0.740000 0.445000
0.805000 0.740000 0.445000
0.930000 0.740000 0.445000
0.000000 0.865000 0.445000
0.055000 0.865000 0.445000
0.180000 0.865000 0.445000
0.305000 0.865000 0.445000
0.430000 0.865000 0.445000
0.555000 0.865000 0.445000
0.680000 0.865000 0.445000
0.805000 0.865000 0.445000
0.930000 0.865000 0.445000
0.000000 0.990000 0.445000
0.055000 0.990000 0.445000
0.180000 0.990000 0.445000
0.305000 0.990000 0.445000
0.430000 0.990000 0.445000
0.555000 0.990000 0.445000
0.680000 0.990000 0.445000
0.805000 0.990000 0.445000
0.930000 0.990000 0.445000
0.000000 0.000000 0.570000
0.055000 0.000000 0.570000
0.180000 0.000000 0.570000
0.305000 0.000000 0.570000
0.430000 0.000000 0.570000
0.555000 0.000000 0.570000
0.680000 0.000000 0.570000
0.805000 0.000000 0.570000
0.930000 0.000000 0.570000
0.000000 0.115000 0.570000
0.055000 0.115000 0.570000
0.180000 0.115000 0.570000
0.305000 0.115000 0.570000
0.430000 0.115000 0.570000
0.555000 0.115000 0.570000
0.680000 0.115000 0.570000
0.805000 0.115000 0.570000
0.930000 0.115000 0.570000
0.000000 0.240000 0.570000
0.055000 0.240000 0.570000
0.180000 0.240000 0.570000
0.305000 0.240000 0.570000
0.430000 0.240000 0.570000
0.555000 0.240000 0.570000
0.680000 0.240000 0.570000
0.805000 0.240000 0.570000
0.930000 0.240000 0.570000
0.000000 0.365000 0.570000
0.055000 0.365000 0.570000
0.180000 0.365000 0.570000
0.305000 0.365000 0.570000
0.430000 0.365000 0.570000
0.555000 0.365000 0.570000
0.680000 0.365000 0.570000
0.805000 0.365000 0.570000
0.930000 0.365000 0.570000
0.000000 0.490000 0.570000
0.055000 0.490000 0.570000
0.180000 0.490000 0.570000
0.305000 0.490000 0.570000
0.430000 0.490000 0.570000
0.555000 0.490000 0.570000
0.680000 0.490000 0.570000
0.805000 0.490000 0.570000
0.930000 0.490000 0.570000
0.000000 0.615000 0.570000
0.055000 0.615000 0.570000
0.180000 0.615000 0.570000
0.305000 0.615000 0.570000
0.430000 0.615000 0.570000
0.555000 0.615000 0.570000
0.680000 0.615000 0.570000
0.805000 0.615000 0.570000
0.930000 0.615000 0.570000
0.000000 0.740000 0.570000
0.055000 0.740000 0.570000
0.180000 0.740000 0.570000
0.305000 0.740000 0.570000
0.430000 0.740000 0.570000
0.555000 0.740000 0.570000
0.680000 0.740000 0.570000
0.805000 0.740000 0.570000
0.930000 0.740000 0.570000
0.000000 0.865000 0.570000
0.055000 0.865000 0.570000
0.180000 0.865000 0.570000
0.305000 0.865000 0.570000
0.430000 0.865000 0.570000
0.555000 0.865000 0.570000
0.680000 0.865000 0.570000
0.805000 0.865000 0.570000
0.930000 0.865000 0.570000
0.000000 0.990000 0.570000
0.055000 0.990000 0.570000
0.180000 0.990000 0.570000
0.305000 0.990000 0.570000
0.430000 0.990000 0.570000
0.555000 0.990000 0.570000
0.680000 0.990000 0.570000
0.805000 0.990000 0.570000
0.930000 0.990000 0.570000
0.000000 0.000000 0.695000
0.055000 0.000000 0.695000
0.180000 0.000000 0.695000
0.305000 0.000000 0.695000
0.430000 0.000000 0.695000
0.555000 0.000000 0.695000
0.680000 0.000000 0.695000
0.805000 0.000000 0.695000
0.930000 0.000000 0.695000
0.000000 0.115000 0.695000
0.055000 0.115000 0.695000
0.180000 0.115000 0.695000
0.305000 0.115000 0.695000
0.430000 0.115000 0.695000
0.555000 0.115000 0.695000
0.680000 0.115000 0.695000
0.805000 0.115000 0.695000
0.930000 0.115000 0.695000
0.000000 0.240000 0.695000
0.055000 0.240000 0.695000
0.180000 0.240000 0.695000
0.305000 0.240000 0.695000
0.430000 0.240000 0.695000
0.555000 0.240000 0.695000
0.680000 0.240000 0.695000
0.805000 0.240000 0.695000
0.930000 0.240000 0.695000
0.000000 0.365000 0.695000
0.055000 0.365000 0.695000
0.180000 0.365000 0.695000
0.305000 0.365000 0.695000
0.430000 0.365000 0.695000
0.555000 0.365000 0.695000
0.680000 0.365000 0.695000
0.805000 0.365000 0.695000
0.930000 0.365000 0.695000
0.000000 0.490000 0.695000
0.055000 0.490000 0.695000
0.180000 0.490000 0.695000
0.305000 0.490000 0.695000
0.430000 0.490000 0.695000
0.555000 0.490000 0.695000
0.680000 0.490000 0.695000
0.805000 0.490000 0.695000
0.930000 0.490000 0.695000
0.000000 0.615000 0.695000
0.055000 0.615000 0.695000
0.180000 0.615000 0.695000
0.305000 0.615000 0.695000
0.430000 0.615000 0.695000
0.555000 0.615000 0.695000
0.680000 0.615000 0.695000
0.805000 0.615000 0.695000
0.930000 0.615000 0.695000
0.000000 0.740000 0.695000
0.055000 0.740000 0.695000
0.180000 0.740000 0.695000
0.305000 0.740000 0.695000
0.430000 0.740000 0.695000
0.555000 0.740000 0.695000
0.680000 0.740000 0.695000
0.805000 0.740000 0.695000
0.930000 0.740000 0.695000
0.000000 0.865000 0.695000
0.055000 0.865000 0.695000
0.180000 0.865000 0.695000
0.305000 0.865000 0.695000
0.430000 0.865000 0.695000
0.555000 0.865000 0.695000
0.680000 0.865000 0.695000
0.805000 0.865000 0.695000
0.930000 0.865000 0.695000
0.000000 0.990000 0.695000
0.055000 0.990000 0.695000
0.180000 0.990000 0.695000
0.305000 0.990000 0.695000
0.430000 0.990000 0.695000
0.555000 0.990000 0.695000
0.680000 0.990000 0.695000
0.805000 0.990000 0.695000
0.930000 0.990000 0.695000
0.000000 0.000000 0.820000
0.055000 0.000000 0.820000
0.180000 0.000000 0.820000
0.305000 0.000000 0.820000
0.430000 0.000000 0.820000
0.555000 0.000000 0.820000
0.680000 0.000000 0.820000
0.805000 0.000000 0.820000
0.930000 0.000000 0.820000
0.000000 0.115000 0.820000
0.055000 0.115000 0.820000
0.180000 0.115000 0.820000
0.305000 0.115000 0.820000
0.430000 0.115000 0.820000
0.555000 0.115000 0.820000
0.680000 0.115000 0.820000
0.805000 0.115000 0.820000
0.930000 0.115000 0.820000
0.000000 0.240000 0.820000
0.055000 0.240000 0.820000
0.180000 0.240000 0.820000
0.305000 0.240000 0.820000
0.430000 0.240000 0.820000
0.555000 0.240000 0.820000
0.680000 0.240000 0.820000
0.805000 0.240000 0.820000
0.930000 0.240000 0.820000
0.000000 0.365000 0.820000
0.055000 0.365000 0.820000
0.180000 0.365000 0.820000
0.305000 0.365000 0.820000
0.430000 0.365000 0.820000
0.555000 0.365000 0.820000
0.680000 0.365000 0.820000
0.805000 0.365000 0.820000
0.930000 0.365000 0.820000
0.000000 0.490000 0.820000
0.055000 0.490000 0.820000
0.180000 0.490000 0.820000
0.305000 0.490000 0.820000
0.430000 0.490000 0.820000
0.555000 0.490000 0.820000
0.680000 0.490000 0.820000
0.805000 0.490000 0.820000
0.930000 0.490000 0.820000
0.000000 0.615000 0.820000
0.055000 0.615000 0.820000
0.180000 0.615000 0.820000
0.305000 0.615000 0.820000
0.430000 0.615000 0.820000
0.555000 0.615000 0.820000
0.680000 0.615000 0.820000
0.805000 0.615000 0.820000
0.930000 0.615000 0.820000
0.000000 0.740000 0.820000
0.055000 0.740000 0.820000
0.180000 0.740000 0.820000
0.305000 0.740000 0.820000
0.430000 0.740000 0.820000
0.555000 0.740000 0.820000
0.680000 0.740000 0.820000
0.805000 0.740000 0.820000
0.930000 0.740000 0.820000
0.000000 0.865000 0.820000
0.055000 0.865000 0.820000
0.180000 0.865000 0.820000
0.305000 0.865000 0.820000
0.430000 0.865000 0.820000
0.555000 0.865000 0.820000
0.680000 0.865000 0.820000
0.805000 0.865000 0.820000
0.930000 0.865000 0.820000
0.000000 0.990000 0.820000
0.055000 0.990000 0.820000
0.180000 0.990000 0.820000
0.305000 0.990000 0.820000
0.430000 0.990000 0.820000
0.555000 0.990000 0.820000
0.680000 0.990000 0.820000
0.805000 0.990000 0.820000
0.930000 0.990000 0.820000
0.000000 0.000000 0.945000
0.055000 0.000000 0.945000
0.180000 0.000000 0.945000
0.305000 0.000000 0.945000
0.430000 0.000000 0.945000
0.555000 0.000000 0.945000
0.680000 0.000000 0.945000
0.805000 0.000000 0.945000
0.930000 0.000000 0.945000
0.000000 0.115000 0.945000
0.055000 0.115000 0.945000
0.180000 0.115000 0.945000
0.305000 0.115000 0.945000
0.430000 0.115000 0.945000
0.555000 0.115000 0.945000
0.680000 0.115000 0.945000
0.805000 0.115000 0.945000
0.930000 0.115000 0.945000
0.000000 0.240000 0.945000
0.055000 0.240000 0.945000
0.180000 0.240000 0.945000
0.305000 0.240000 0.945000
0.430000 0.240000 0.945000
0.555000 0.240000 0.945000
0.680000 0.240000 0.945000
0.805000 0.240000 0.945000
0.930000 0.240000 0.945000
0.000000 0.365000 0.945000
0.055000 0.365000 0.945000
0.180000 0.365000 0.945000
0.305000 0.365000 0.945000
0.430000 0.365000 0.945000
0.555000 0.365000 0.945000
0.680000 0.365000 0.945000
0.805000 0.365000 0.945000
0.930000 0.365000 0.945000
0.000000 0.490000 0.945000
0.055000 0.490000 0.945000
0.180000 0.490000 0.945000
0.305000 0.490000 0.945000
0.430000 0.490000 0.945000
0.555000 0.490000 0.945000
0.680000 0.490000 0.945000
0.805000 0.490000 0.945000
0.930000 0.490000 0.945000
0.000000 0.615000 0.945000
0.055000 0.615000 0.945000
0.180000 0.615000 0.945000
0.305000 0.615000 0.945000
0.430000 0.615000 0.945000
0.555000 0.615000 0.945000
0.680000 0.615000 0.945000
0.805000 0.615000 0.945000
0.930000 0.615000 0.945000
0.000000 0.740000 0.945000
0.055000 0.740000 0.945000
0.180000 0.740000 0.945000
0.305000 0.740000 0.945000
0.430000 0.740000 0.945000
0.555000 0.740000 0.945000
0.680000 0.740000 0.945000
0.805000 0.740000 0.945000
0.930000 0.740000 0.945000
0.000000 0.865000 0.945000
0.055000 0.865000 0.945000
0.180000 0.865000 0.945000
0.305000 0.865000 0.945000
0.430000 0.865000 0.945000
0.555000 0.865000 0.945000
0.680000 0.865000 0.945000
0.805000 0.865000 0.945000
0.930000 0.865000 0.945000
0.000000 0.990000 0.945000
0.055000 0.990000 0.945000
0.180000 0.990000 0.945000
0.305000 0.990000 0.945000
0.430000 0.990000 0.945000
0.555000 0.990000 0.945000
0.680000 0.990000 0.945000
0.805000 0.990000 0.945000
0.930000 0.990000 0.945000
0.000000 0.000000 1.000000
0.055000 0.000000 1.000000
0.180000 0.000000 1.000000
0.305000 0.000000 1.000000
0.430000 0.000000 1.000000
0.555000 0.000000 1.000000
0.680000 0.000000 1.000000
0.805000 0.000000 1.000000
0.930000 0.000000 1.000000
0.000000 0.115000 1.000000
0.055000 0.115000 1.000000
0.180000 0.115000 1.000000
0.305000 0.115000 1.000000
0.430000 0.115000 1.000000
0.555000 0.115000 1.000000
0.680000 0.115000 1.000000
0.805000 0.115000 1.000000
0.930000 0.115000 1.000000
0.000000 0.240000 1.000000
0.055000 0.240000 1.000000
0.180000 0.240000 1.000000
0.305000 0.240000 1.000000
0.430000 0.240000 1.000000
0.555000 0.240000 1.000000
0.680000 0.240000 1.000000
0.805000 0.240000 1.000000
0.930000 0.240000 1.000000
0.000000 0.365000 1.000000
0.055000 0.365000 1.000000
0.180000 0.365000 1.000000
0.305000 0.365000 1.000000
0.430000 0.365000 1.000000
0.555000 0.365000 1.000000
0.680000 0.365000 1.000000
0.805000 0.365000 1.000000
0.930000 0.365000 1.000000
0.000000 0.490000 1.000000
0.055000 0.490000 1.000000
0.180000 0.490000 1.000000
0.305000 0.490000 1.000000
0.430000 0.490000 1.000000
0.555000 0.490000 1.000000
0.680000 0.490000 1.000000
0.805000 0.490000 1.000000
0.930000 0.490000 1.000000
0.000000 0.615000 1.000000
0.055000 0.615000 1.000000
0.180000 0.615000 1.000000
0.305000 0.615000 1.000000
0.430000 0.615000 1.000000
0.555000 0.615000 1.000000
0.680000 0.615000 1.000000
0.805000 0.615000 1.000000
0.930000 0.615000 1.000000
0.000000 0.740000 1.000000
0.055000 0.740000 1.000000
0.180000 0.740000 1.000000
0.305000 0.740000 1.000000
0.430000 0.740000 1.000000
0.555000 0.740000 1.000000
0.680000 0.740000 1.000000
0.805000 0.740000 1.000000
0.930000 0.740000 1.000000
0.000000 0.865000 1.000000
0.055000 0.865000 1.000000
0.180000 0.865000 1.000000
0.305000 0.865000 1.000000
0.430000 0.865000 1.000000
0.555000 0.865000 1.000000
0.680000 0.865000 1.000000
0.805000 0.865000 1.000000
0.930000 0.865000 1.000000
0.000000 0.990000 1.000000
0.055000 0.990000 1.000000
0.180000 0.990000 1.000000
0.305000 0.990000 1.000000
0.430000 0.990000 1.000000
0.555000 0.990000 1.000000
0.680000 0.990000 1.000000
0.805000 0.990000 1.000000
0.930000 0.990000 1.000000
