lut_features/tests/fixtures/desaturate.cube
LUT_3D_SIZE 5
DOMAIN_MIN 0.0 0.0 0.0
DOMAIN_MAX 1.0 1.0 1.0
0.000000 0.000000 0.000000
0.151575 0.026575 0.026575
0.303150 0.053150 0.053150
0.454725 0.079725 0.079725
0.606300 0.106300 0.106300
0.089400 0.214400 0.089400
0.240975 0.240975 0.115975
0.392550 0.267550 0.142550
0.544125 0.294125 0.169125
0.695700 0.320700 0.195700
0.178800 0.428800 0.178800
0.330375 0.455375 0.205375
0.481950 0.481950 0.231950
0.633525 0.508525 0.258525
0.785100 0.535100 0.285100
0.268200 0.643200 0.268200
0.419775 0.669775 0.294775
0.571350 0.696350 0.321350
0.722925 0.722925 0.347925
0.874500 0.749500 0.374500
0.357600 0.857600 0.357600
0.509175 0.884175 0.384175
0.660750 0.910750 0.410750
0.812325 0.937325 0.437325
0.963900 0.963900 0.463900
0.009025 0.009025 0.134025
0.160600 0.035600 0.160600
0.312175 0.062175 0.187175
0.463750 0.088750 0.213750
0.615325 0.115325 0.240325
0.098425 0.223425 0.223425
0.250000 0.250000 0.250000
0.401575 0.276575 0.276575
0.553150 0.303150 0.303150
0.704725 0.329725 0.329725
0.187825 0.437825 0.312825
0.339400 0.464400 0.339400
0.490975 0.490975 0.365975
0.642550 0.517550 0.392550
0.794125 0.544125 0.419125
0.277225 0.652225 0.402225
0.428800 0.678800 0.428800
0.580375 0.705375 0.455375
0.731950 0.731950 0.481950
0.883525 0.758525 0.508525
0.366625 0.866625 0.491625
0.518200 0.893200 0.518200
0.669775 0.919775 0.544775
0.821350 0.946350 0.571350
0.972925 0.972925 0.597925
0.018050 0.018050 0.268050
0.169625 0.044625 0.294625
0.321200 0.071200 0.321200
0.472775 0.097775 0.347775
0.624350 0.124350 0.374350
0.107450 0.232450 0.357450
0.259025 0.259025 0.384025
0.410600 0.285600 0.410600
0.562175 0.312175 0.437175
0.713750 0.338750 0.463750
0.196850 0.446850 0.446850
0.348425 0.473425 0.473425
0.500000 0.500000 0.500000
0.651575 0.526575 0.526575
0.803150 0.553150 0.553150
0.286250 0.661250 0.536250
0.437825 0.687825 0.562825
0.589400 0.714400 0.589400
0.740975 0.740975 0.615975
0.892550 0.767550 0.642550
0.375650 0.875650 0.625650
0.527225 0.902225 0.652225
0.678800 0.928800 0.678800
0.830375 0.955375 0.705375
0.981950 0.981950 0.731950
0.027075 0.027075 0.402075
0.178650 0.053650 0.428650
0.330225 0.080225 0.455225
0.481800 0.106800 0.481800
0.633375 0.133375 0.508375
0.116475 0.241475 0.491475
0.268050 0.268050 0.518050
0.419625 0.294625 0.544625
0.571200 0.321200 0.571200
0.722775 0.347775 0.597775
0.205875 0.455875 0.580875
0.357450 0.482450 0.607450
0.509025 0.509025 0.634025
0.660600 0.535600 0.660600
0.812175 0.562175 0.687175
0.295275 0.670275 0.670275
0.446850 0.696850 0.696850
0.598425 0.723425 0.723425
0.750000 0.750000 0.750000
0.901575 0.776575 0.776575
0.384675 0.884675 0.759675
0.536250 0.911250 0.786250
0.687825 0.937825 0.812825
0.839400 0.964400 0.839400
0.990975 0.990975 0.865975
0.036100 0.036100 0.536100
0.187675 0.062675 0.562675
0.339250 0.089250 0.589250
0.490825 0.115825 0.615825
0.642400 0.142400 0.642400
0.125500 0.250500 0.625500
0.277075 0.277075 0.652075
0.428650 0.303650 0.678650
0.580225 0.330225 0.705225
0.731800 0.356800 0.731800
0.214900 0.464900 0.714900
0.366475 0.491475 0.741475
0.518050 0.518050 0.768050
0.669625 0.544625 0.794625
0.821200 0.571200 0.821200
0.304300 0.679300 0.804300
0.455875 0.705875 0.830875
0.607450 0.732450 0.857450
0.759025 0.759025 0.884025
0.910600 0.785600 0.910600
0.393700 0.893700 0.893700
0.545275 0.920275 0.920275
0.696850 0.946850 0.946850
0.848425 0.973425 0.973425
1.000000 1.000000 1.000000
