lut_features/tests/fixtures/desaturate.cube
LUT_3D_SIZE 17
DOMAIN_MIN 0.0 0.0 0.0
DOMAIN_MAX 1.0 1.0 1.0
0.000000 0.000000 0.000000
0.037894 0.006644 0.006644
0.075788 0.013288 0.013288
0.113681 0.019931 0.019931
0.151575 0.026575 0.026575
0.189469 0.033219 0.033219
0.227362 0.039863 0.039863
0.265256 0.046506 0.046506
0.303150 0.053150 0.053150
0.341044 0.059794 0.059794
0.378938 0.066438 0.066438
0.416831 0.073081 0.073081
0.454725 0.079725 0.079725
0.492619 0.086369 0.086369
0.530512 0.093012 0.093012
0.568406 0.099656 0.099656
0.606300 0.106300 0.106300
0.022350 0.053600 0.022350
0.060244 0.060244 0.028994
0.098138 0.066888 0.035638
0.136031 0.073531 0.042281
0.173925 0.080175 0.048925
0.211819 0.086819 0.055569
0.249713 0.093463 0.062213
0.287606 0.100106 0.068856
0.325500 0.106750 0.075500
0.363394 0.113394 0.082144
0.401288 0.120038 0.088788
0.439181 0.126681 0.095431
0.477075 0.133325 0.102075
0.514969 0.139969 0.108719
0.552863 0.146612 0.115362
0.590756 0.153256 0.122006
0.628650 0.159900 0.128650
0.044700 0.107200 0.044700
0.082594 0.113844 0.051344
0.120487 0.120487 0.057987
0.158381 0.127131 0.064631
0.196275 0.133775 0.071275
0.234169 0.140419 0.077919
0.272062 0.147062 0.084562
0.309956 0.153706 0.091206
0.347850 0.160350 0.097850
0.385744 0.166994 0.104494
0.423638 0.173638 0.111138
0.461531 0.180281 0.117781
0.499425 0.186925 0.124425
0.537319 0.193569 0.131069
0.575213 0.200212 0.137712
0.613106 0.206856 0.144356
0.651000 0.213500 0.151000
0.067050 0.160800 0.067050
0.104944 0.167444 0.073694
0.142838 0.174088 0.080338
0.180731 0.180731 0.086981
0.218625 0.187375 0.093625
0.256519 0.194019 0.100269
0.294412 0.200662 0.106912
0.332306 0.207306 0.113556
0.370200 0.213950 0.120200
0.408094 0.220594 0.126844
0.445987 0.227238 0.133488
0.483881 0.233881 0.140131
0.521775 0.240525 0.146775
0.559669 0.247169 0.153419
0.597562 0.253812 0.160062
0.635456 0.260456 0.166706
0.673350 0.267100 0.173350
0.089400 0.214400 0.089400
0.127294 0.221044 0.096044
0.165187 0.227687 0.102687
0.203081 0.234331 0.109331
0.240975 0.240975 0.115975
0.278869 0.247619 0.122619
0.316763 0.254263 0.129263
0.354656 0.260906 0.135906
0.392550 0.267550 0.142550
0.430444 0.274194 0.149194
0.468338 0.280838 0.155838
0.506231 0.287481 0.162481
0.544125 0.294125 0.169125
0.582019 0.300769 0.175769
0.619912 0.307412 0.182412
0.657806 0.314056 0.189056
0.695700 0.320700 0.195700
0.111750 0.268000 0.111750
0.149644 0.274644 0.118394
0.187537 0.281288 0.125037
0.225431 0.287931 0.131681
0.263325 0.294575 0.138325
0.301219 0.301219 0.144969
0.339112 0.307862 0.151612
0.377006 0.314506 0.158256
0.414900 0.321150 0.164900
0.452794 0.327794 0.171544
0.490687 0.334437 0.178187
0.528581 0.341081 0.184831
0.566475 0.347725 0.191475
0.604369 0.354369 0.198119
0.642262 0.361012 0.204762
0.680156 0.367656 0.211406
0.718050 0.374300 0.218050
0.134100 0.321600 0.134100
0.171994 0.328244 0.140744
0.209888 0.334888 0.147388
0.247781 0.341531 0.154031
0.285675 0.348175 0.160675
0.323569 0.354819 0.167319
0.361463 0.361463 0.173962
0.399356 0.368106 0.180606
0.437250 0.374750 0.187250
0.475144 0.381394 0.193894
0.513038 0.388038 0.200538
0.550931 0.394681 0.207181
0.588825 0.401325 0.213825
0.626719 0.407969 0.220469
0.664613 0.414612 0.227112
0.702506 0.421256 0.233756
0.740400 0.427900 0.240400
0.156450 0.375200 0.156450
0.194344 0.381844 0.163094
0.232237 0.388487 0.169737
0.270131 0.395131 0.176381
0.308025 0.401775 0.183025
0.345919 0.408419 0.189669
0.383813 0.415063 0.196312
0.421706 0.421706 0.202956
0.459600 0.428350 0.209600
0.497494 0.434994 0.216244
0.535388 0.441638 0.222887
0.573281 0.448281 0.229531
0.611175 0.454925 0.236175
0.649069 0.461569 0.242819
0.686962 0.468212 0.249462
0.724856 0.474856 0.256106
0.762750 0.481500 0.262750
0.178800 0.428800 0.178800
0.216694 0.435444 0.185444
0.254587 0.442087 0.192087
0.292481 0.448731 0.198731
0.330375 0.455375 0.205375
0.368269 0.462019 0.212019
0.406162 0.468662 0.218662
0.444056 0.475306 0.225306
0.481950 0.481950 0.231950
0.519844 0.488594 0.238594
0.557737 0.495237 0.245237
0.595631 0.501881 0.251881
0.633525 0.508525 0.258525
0.671419 0.515169 0.265169
0.709313 0.521813 0.271813
0.747206 0.528456 0.278456
0.785100 0.535100 0.285100
0.201150 0.482400 0.201150
0.239044 0.489044 0.207794
0.276938 0.495688 0.214438
0.314831 0.502331 0.221081
0.352725 0.508975 0.227725
0.390619 0.515619 0.234369
0.428512 0.522262 0.241012
0.466406 0.528906 0.247656
0.504300 0.535550 0.254300
0.542194 0.542194 0.260944
0.580087 0.548837 0.267587
0.617981 0.555481 0.274231
0.655875 0.562125 0.280875
0.693769 0.568769 0.287519
0.731662 0.575412 0.294162
0.769556 0.582056 0.300806
0.807450 0.588700 0.307450
0.223500 0.536000 0.223500
0.261394 0.542644 0.230144
0.299287 0.549287 0.236787
0.337181 0.555931 0.243431
0.375075 0.562575 0.250075
0.412969 0.569219 0.256719
0.450862 0.575862 0.263362
0.488756 0.582506 0.270006
0.526650 0.589150 0.276650
0.564544 0.595794 0.283294
0.602437 0.602437 0.289937
0.640331 0.609081 0.296581
0.678225 0.615725 0.303225
0.716119 0.622369 0.309869
0.754012 0.629012 0.316512
0.791906 0.635656 0.323156
0.829800 0.642300 0.329800
0.245850 0.589600 0.245850
0.283744 0.596244 0.252494
0.321637 0.602888 0.259137
0.359531 0.609531 0.265781
0.397425 0.616175 0.272425
0.435319 0.622819 0.279069
0.473212 0.629463 0.285712
0.511106 0.636106 0.292356
0.549000 0.642750 0.299000
0.586894 0.649394 0.305644
0.624788 0.656038 0.312287
0.662681 0.662681 0.318931
0.700575 0.669325 0.325575
0.738469 0.675969 0.332219
0.776362 0.682612 0.338862
0.814256 0.689256 0.345506
0.852150 0.695900 0.352150
0.268200 0.643200 0.268200
0.306094 0.649844 0.274844
0.343988 0.656488 0.281488
0.381881 0.663131 0.288131
0.419775 0.669775 0.294775
0.457669 0.676419 0.301419
0.495563 0.683063 0.308063
0.533456 0.689706 0.314706
0.571350 0.696350 0.321350
0.609244 0.702994 0.327994
0.647138 0.709638 0.334638
0.685031 0.716281 0.341281
0.722925 0.722925 0.347925
0.760819 0.729569 0.354569
0.798712 0.736212 0.361212
0.836606 0.742856 0.367856
0.874500 0.749500 0.374500
0.290550 0.696800 0.290550
0.328444 0.703444 0.297194
0.366337 0.710087 0.303837
0.404231 0.716731 0.310481
0.442125 0.723375 0.317125
0.480019 0.730019 0.323769
0.517912 0.736662 0.330412
0.555806 0.743306 0.337056
0.593700 0.749950 0.343700
0.631594 0.756594 0.350344
0.669488 0.763238 0.356988
0.707381 0.769881 0.363631
0.745275 0.776525 0.370275
0.783169 0.783169 0.376919
0.821063 0.789813 0.383562
0.858956 0.796456 0.390206
0.896850 0.803100 0.396850
0.312900 0.750400 0.312900
0.350794 0.757044 0.319544
0.388687 0.763687 0.326187
0.426581 0.770331 0.332831
0.464475 0.776975 0.339475
0.502369 0.783619 0.346119
0.540262 0.790262 0.352762
0.578156 0.796906 0.359406
0.616050 0.803550 0.366050
0.653944 0.810194 0.372694
0.691837 0.816837 0.379337
0.729731 0.823481 0.385981
0.767625 0.830125 0.392625
0.805519 0.836769 0.399269
0.843412 0.843412 0.405912
0.881306 0.850056 0.412556
0.919200 0.856700 0.419200
0.335250 0.804000 0.335250
0.373144 0.810644 0.341894
0.411038 0.817287 0.348538
0.448931 0.823931 0.355181
0.486825 0.830575 0.361825
0.524719 0.837219 0.368469
0.562612 0.843862 0.375113
0.600506 0.850506 0.381756
0.638400 0.857150 0.388400
0.676294 0.863794 0.395044
0.714187 0.870437 0.401687
0.752081 0.877081 0.408331
0.789975 0.883725 0.414975
0.827869 0.890369 0.421619
0.865762 0.897012 0.428262
0.903656 0.903656 0.434906
0.941550 0.910300 0.441550
0.357600 0.857600 0.357600
0.395494 0.864244 0.364244
0.433387 0.870888 0.370887
0.471281 0.877531 0.377531
0.509175 0.884175 0.384175
0.547069 0.890819 0.390819
0.584963 0.897463 0.397462
0.622856 0.904106 0.404106
0.660750 0.910750 0.410750
0.698644 0.917394 0.417394
0.736537 0.924037 0.424037
0.774431 0.930681 0.430681
0.812325 0.937325 0.437325
0.850219 0.943969 0.443969
0.888112 0.950612 0.450612
0.926006 0.957256 0.457256
0.963900 0.963900 0.463900
0.002256 0.002256 0.033506
0.040150 0.008900 0.040150
0.078044 0.015544 0.046794
0.115937 0.022188 0.053437
0.153831 0.028831 0.060081
0.191725 0.035475 0.066725
0.229619 0.042119 0.073369
0.267512 0.048763 0.080013
0.305406 0.055406 0.086656
0.343300 0.062050 0.093300
0.381194 0.068694 0.099944
0.419088 0.075338 0.106588
0.456981 0.081981 0.113231
0.494875 0.088625 0.119875
0.532769 0.095269 0.126519
0.570662 0.101913 0.133163
0.608556 0.108556 0.139806
0.024606 0.055856 0.055856
0.062500 0.062500 0.062500
0.100394 0.069144 0.069144
0.138288 0.075788 0.075788
0.176181 0.082431 0.082431
0.214075 0.089075 0.089075
0.251969 0.095719 0.095719
0.289863 0.102362 0.102362
0.327756 0.109006 0.109006
0.365650 0.115650 0.115650
0.403544 0.122294 0.122294
0.441437 0.128937 0.128937
0.479331 0.135581 0.135581
0.517225 0.142225 0.142225
0.555119 0.148869 0.148869
0.593012 0.155512 0.155512
0.630906 0.162156 0.162156
0.046956 0.109456 0.078206
0.084850 0.116100 0.084850
0.122744 0.122744 0.091494
0.160637 0.129387 0.098138
0.198531 0.136031 0.104781
0.236425 0.142675 0.111425
0.274319 0.149319 0.118069
0.312213 0.155963 0.124712
0.350106 0.162606 0.131356
0.388000 0.169250 0.138000
0.425894 0.175894 0.144644
0.463788 0.182538 0.151288
0.501681 0.189181 0.157931
0.539575 0.195825 0.164575
0.577469 0.202469 0.171219
0.615363 0.209112 0.177862
0.653256 0.215756 0.184506
0.069306 0.163056 0.100556
0.107200 0.169700 0.107200
0.145094 0.176344 0.113844
0.182987 0.182987 0.120487
0.220881 0.189631 0.127131
0.258775 0.196275 0.133775
0.296669 0.202919 0.140419
0.334562 0.209562 0.147062
0.372456 0.216206 0.153706
0.410350 0.222850 0.160350
0.448244 0.229494 0.166994
0.486138 0.236137 0.173637
0.524031 0.242781 0.180281
0.561925 0.249425 0.186925
0.599819 0.256069 0.193569
0.637713 0.262713 0.200212
0.675606 0.269356 0.206856
0.091656 0.216656 0.122906
0.129550 0.223300 0.129550
0.167444 0.229944 0.136194
0.205338 0.236588 0.142838
0.243231 0.243231 0.149481
0.281125 0.249875 0.156125
0.319019 0.256519 0.162769
0.356912 0.263162 0.169412
0.394806 0.269806 0.176056
0.432700 0.276450 0.182700
0.470594 0.283094 0.189344
0.508487 0.289737 0.195987
0.546381 0.296381 0.202631
0.584275 0.303025 0.209275
0.622169 0.309669 0.215919
0.660062 0.316312 0.222562
0.697956 0.322956 0.229206
0.114006 0.270256 0.145256
0.151900 0.276900 0.151900
0.189794 0.283544 0.158544
0.227687 0.290187 0.165187
0.265581 0.296831 0.171831
0.303475 0.303475 0.178475
0.341369 0.310119 0.185119
0.379262 0.316762 0.191762
0.417156 0.323406 0.198406
0.455050 0.330050 0.205050
0.492944 0.336694 0.211694
0.530837 0.343337 0.218337
0.568731 0.349981 0.224981
0.606625 0.356625 0.231625
0.644519 0.363269 0.238269
0.682412 0.369912 0.244912
0.720306 0.376556 0.251556
0.136356 0.323856 0.167606
0.174250 0.330500 0.174250
0.212144 0.337144 0.180894
0.250038 0.343788 0.187537
0.287931 0.350431 0.194181
0.325825 0.357075 0.200825
0.363719 0.363719 0.207469
0.401612 0.370362 0.214112
0.439506 0.377006 0.220756
0.477400 0.383650 0.227400
0.515294 0.390294 0.234044
0.553187 0.396937 0.240687
0.591081 0.403581 0.247331
0.628975 0.410225 0.253975
0.666869 0.416869 0.260619
0.704762 0.423512 0.267262
0.742656 0.430156 0.273906
0.158706 0.377456 0.189956
0.196600 0.384100 0.196600
0.234494 0.390744 0.203244
0.272388 0.397388 0.209887
0.310281 0.404031 0.216531
0.348175 0.410675 0.223175
0.386069 0.417319 0.229819
0.423962 0.423962 0.236462
0.461856 0.430606 0.243106
0.499750 0.437250 0.249750
0.537644 0.443894 0.256394
0.575537 0.450537 0.263037
0.613431 0.457181 0.269681
0.651325 0.463825 0.276325
0.689219 0.470469 0.282969
0.727113 0.477112 0.289612
0.765006 0.483756 0.296256
0.181056 0.431056 0.212306
0.218950 0.437700 0.218950
0.256844 0.444344 0.225594
0.294737 0.450987 0.232237
0.332631 0.457631 0.238881
0.370525 0.464275 0.245525
0.408419 0.470919 0.252169
0.446313 0.477563 0.258813
0.484206 0.484206 0.265456
0.522100 0.490850 0.272100
0.559994 0.497494 0.278744
0.597888 0.504138 0.285388
0.635781 0.510781 0.292031
0.673675 0.517425 0.298675
0.711569 0.524069 0.305319
0.749462 0.530712 0.311962
0.787356 0.537356 0.318606
0.203406 0.484656 0.234656
0.241300 0.491300 0.241300
0.279194 0.497944 0.247944
0.317087 0.504587 0.254587
0.354981 0.511231 0.261231
0.392875 0.517875 0.267875
0.430769 0.524519 0.274519
0.468662 0.531162 0.281162
0.506556 0.537806 0.287806
0.544450 0.544450 0.294450
0.582344 0.551094 0.301094
0.620237 0.557737 0.307737
0.658131 0.564381 0.314381
0.696025 0.571025 0.321025
0.733919 0.577669 0.327669
0.771813 0.584313 0.334313
0.809706 0.590956 0.340956
0.225756 0.538256 0.257006
0.263650 0.544900 0.263650
0.301544 0.551544 0.270294
0.339437 0.558187 0.276937
0.377331 0.564831 0.283581
0.415225 0.571475 0.290225
0.453119 0.578119 0.296869
0.491013 0.584763 0.303513
0.528906 0.591406 0.310156
0.566800 0.598050 0.316800
0.604694 0.604694 0.323444
0.642587 0.611337 0.330087
0.680481 0.617981 0.336731
0.718375 0.624625 0.343375
0.756269 0.631269 0.350019
0.794162 0.637912 0.356662
0.832056 0.644556 0.363306
0.248106 0.591856 0.279356
0.286000 0.598500 0.286000
0.323894 0.605144 0.292644
0.361787 0.611787 0.299287
0.399681 0.618431 0.305931
0.437575 0.625075 0.312575
0.475469 0.631719 0.319219
0.513362 0.638362 0.325862
0.551256 0.645006 0.332506
0.589150 0.651650 0.339150
0.627044 0.658294 0.345794
0.664937 0.664937 0.352438
0.702831 0.671581 0.359081
0.740725 0.678225 0.365725
0.778619 0.684869 0.372369
0.816512 0.691512 0.379013
0.854406 0.698156 0.385656
0.270456 0.645456 0.301706
0.308350 0.652100 0.308350
0.346244 0.658744 0.314994
0.384138 0.665388 0.321638
0.422031 0.672031 0.328281
0.459925 0.678675 0.334925
0.497819 0.685319 0.341569
0.535713 0.691963 0.348212
0.573606 0.698606 0.354856
0.611500 0.705250 0.361500
0.649394 0.711894 0.368144
0.687288 0.718538 0.374787
0.725181 0.725181 0.381431
0.763075 0.731825 0.388075
0.800969 0.738469 0.394719
0.838863 0.745113 0.401363
0.876756 0.751756 0.408006
0.292806 0.699056 0.324056
0.330700 0.705700 0.330700
0.368594 0.712344 0.337344
0.406488 0.718988 0.343988
0.444381 0.725631 0.350631
0.482275 0.732275 0.357275
0.520169 0.738919 0.363919
0.558062 0.745562 0.370562
0.595956 0.752206 0.377206
0.633850 0.758850 0.383850
0.671744 0.765494 0.390494
0.709637 0.772137 0.397137
0.747531 0.778781 0.403781
0.785425 0.785425 0.410425
0.823319 0.792069 0.417069
0.861212 0.798712 0.423712
0.899106 0.805356 0.430356
0.315156 0.752656 0.346406
0.353050 0.759300 0.353050
0.390944 0.765944 0.359694
0.428837 0.772587 0.366337
0.466731 0.779231 0.372981
0.504625 0.785875 0.379625
0.542519 0.792519 0.386269
0.580412 0.799162 0.392912
0.618306 0.805806 0.399556
0.656200 0.812450 0.406200
0.694094 0.819094 0.412844
0.731988 0.825738 0.419487
0.769881 0.832381 0.426131
0.807775 0.839025 0.432775
0.845669 0.845669 0.439419
0.883563 0.852313 0.446062
0.921456 0.858956 0.452706
0.337506 0.806256 0.368756
0.375400 0.812900 0.375400
0.413294 0.819544 0.382044
0.451188 0.826188 0.388688
0.489081 0.832831 0.395331
0.526975 0.839475 0.401975
0.564869 0.846119 0.408619
0.602763 0.852763 0.415263
0.640656 0.859406 0.421906
0.678550 0.866050 0.428550
0.716444 0.872694 0.435194
0.754337 0.879337 0.441837
0.792231 0.885981 0.448481
0.830125 0.892625 0.455125
0.868019 0.899269 0.461769
0.905913 0.905913 0.468413
0.943806 0.912556 0.475056
0.359856 0.859856 0.391106
0.397750 0.866500 0.397750
0.435644 0.873144 0.404394
0.473538 0.879787 0.411038
0.511431 0.886431 0.417681
0.549325 0.893075 0.424325
0.587219 0.899719 0.430969
0.625112 0.906362 0.437613
0.663006 0.913006 0.444256
0.700900 0.919650 0.450900
0.738794 0.926294 0.457544
0.776687 0.932937 0.464187
0.814581 0.939581 0.470831
0.852475 0.946225 0.477475
0.890369 0.952869 0.484119
0.928262 0.959512 0.490762
0.966156 0.966156 0.497406
0.004513 0.004513 0.067013
0.042406 0.011156 0.073656
0.080300 0.017800 0.080300
0.118194 0.024444 0.086944
0.156087 0.031088 0.093588
0.193981 0.037731 0.100231
0.231875 0.044375 0.106875
0.269769 0.051019 0.113519
0.307663 0.057663 0.120163
0.345556 0.064306 0.126806
0.383450 0.070950 0.133450
0.421344 0.077594 0.140094
0.459238 0.084238 0.146738
0.497131 0.090881 0.153381
0.535025 0.097525 0.160025
0.572919 0.104169 0.166669
0.610812 0.110813 0.173313
0.026862 0.058112 0.089362
0.064756 0.064756 0.096006
0.102650 0.071400 0.102650
0.140544 0.078044 0.109294
0.178437 0.084687 0.115937
0.216331 0.091331 0.122581
0.254225 0.097975 0.129225
0.292119 0.104619 0.135869
0.330012 0.111263 0.142512
0.367906 0.117906 0.149156
0.405800 0.124550 0.155800
0.443694 0.131194 0.162444
0.481588 0.137838 0.169088
0.519481 0.144481 0.175731
0.557375 0.151125 0.182375
0.595269 0.157769 0.189019
0.633163 0.164413 0.195663
0.049212 0.111712 0.111712
0.087106 0.118356 0.118356
0.125000 0.125000 0.125000
0.162894 0.131644 0.131644
0.200788 0.138288 0.138288
0.238681 0.144931 0.144931
0.276575 0.151575 0.151575
0.314469 0.158219 0.158219
0.352363 0.164862 0.164862
0.390256 0.171506 0.171506
0.428150 0.178150 0.178150
0.466044 0.184794 0.184794
0.503938 0.191438 0.191438
0.541831 0.198081 0.198081
0.579725 0.204725 0.204725
0.617619 0.211369 0.211369
0.655512 0.218012 0.218012
0.071563 0.165313 0.134063
0.109456 0.171956 0.140706
0.147350 0.178600 0.147350
0.185244 0.185244 0.153994
0.223137 0.191887 0.160637
0.261031 0.198531 0.167281
0.298925 0.205175 0.173925
0.336819 0.211819 0.180569
0.374713 0.218463 0.187213
0.412606 0.225106 0.193856
0.450500 0.231750 0.200500
0.488394 0.238394 0.207144
0.526288 0.245037 0.213787
0.564181 0.251681 0.220431
0.602075 0.258325 0.227075
0.639969 0.264969 0.233719
0.677863 0.271613 0.240363
0.093912 0.218913 0.156413
0.131806 0.225556 0.163056
0.169700 0.232200 0.169700
0.207594 0.238844 0.176344
0.245487 0.245487 0.182987
0.283381 0.252131 0.189631
0.321275 0.258775 0.196275
0.359169 0.265419 0.202919
0.397062 0.272062 0.209563
0.434956 0.278706 0.216206
0.472850 0.285350 0.222850
0.510744 0.291994 0.229494
0.548638 0.298638 0.236138
0.586531 0.305281 0.242781
0.624425 0.311925 0.249425
0.662319 0.318569 0.256069
0.700213 0.325213 0.262713
0.116262 0.272512 0.178762
0.154156 0.279156 0.185406
0.192050 0.285800 0.192050
0.229944 0.292444 0.198694
0.267837 0.299087 0.205337
0.305731 0.305731 0.211981
0.343625 0.312375 0.218625
0.381519 0.319019 0.225269
0.419412 0.325662 0.231912
0.457306 0.332306 0.238556
0.495200 0.338950 0.245200
0.533094 0.345594 0.251844
0.570987 0.352237 0.258487
0.608881 0.358881 0.265131
0.646775 0.365525 0.271775
0.684669 0.372169 0.278419
0.722562 0.378812 0.285062
0.138612 0.326113 0.201112
0.176506 0.332756 0.207756
0.214400 0.339400 0.214400
0.252294 0.346044 0.221044
0.290188 0.352688 0.227688
0.328081 0.359331 0.234331
0.365975 0.365975 0.240975
0.403869 0.372619 0.247619
0.441763 0.379263 0.254263
0.479656 0.385906 0.260906
0.517550 0.392550 0.267550
0.555444 0.399194 0.274194
0.593337 0.405837 0.280837
0.631231 0.412481 0.287481
0.669125 0.419125 0.294125
0.707019 0.425769 0.300769
0.744912 0.432412 0.307412
0.160962 0.379713 0.223462
0.198856 0.386356 0.230106
0.236750 0.393000 0.236750
0.274644 0.399644 0.243394
0.312538 0.406288 0.250038
0.350431 0.412931 0.256681
0.388325 0.419575 0.263325
0.426219 0.426219 0.269969
0.464112 0.432862 0.276612
0.502006 0.439506 0.283256
0.539900 0.446150 0.289900
0.577794 0.452794 0.296544
0.615687 0.459437 0.303187
0.653581 0.466081 0.309831
0.691475 0.472725 0.316475
0.729369 0.479369 0.323119
0.767262 0.486012 0.329762
0.183312 0.433312 0.245812
0.221206 0.439956 0.252456
0.259100 0.446600 0.259100
0.296994 0.453244 0.265744
0.334888 0.459888 0.272388
0.372781 0.466531 0.279031
0.410675 0.473175 0.285675
0.448569 0.479819 0.292319
0.486463 0.486463 0.298963
0.524356 0.493106 0.305606
0.562250 0.499750 0.312250
0.600144 0.506394 0.318894
0.638038 0.513038 0.325537
0.675931 0.519681 0.332181
0.713825 0.526325 0.338825
0.751719 0.532969 0.345469
0.789613 0.539613 0.352112
0.205662 0.486912 0.268162
0.243556 0.493556 0.274806
0.281450 0.500200 0.281450
0.319344 0.506844 0.288094
0.357237 0.513487 0.294737
0.395131 0.520131 0.301381
0.433025 0.526775 0.308025
0.470919 0.533419 0.314669
0.508812 0.540062 0.321312
0.546706 0.546706 0.327956
0.584600 0.553350 0.334600
0.622494 0.559994 0.341244
0.660387 0.566637 0.347887
0.698281 0.573281 0.354531
0.736175 0.579925 0.361175
0.774069 0.586569 0.367819
0.811962 0.593212 0.374462
0.228012 0.540512 0.290512
0.265906 0.547156 0.297156
0.303800 0.553800 0.303800
0.341694 0.560444 0.310444
0.379587 0.567087 0.317087
0.417481 0.573731 0.323731
0.455375 0.580375 0.330375
0.493269 0.587019 0.337019
0.531162 0.593662 0.343662
0.569056 0.600306 0.350306
0.606950 0.606950 0.356950
0.644844 0.613594 0.363594
0.682737 0.620237 0.370237
0.720631 0.626881 0.376881
0.758525 0.633525 0.383525
0.796419 0.640169 0.390169
0.834313 0.646813 0.396812
0.250362 0.594113 0.312862
0.288256 0.600756 0.319506
0.326150 0.607400 0.326150
0.364044 0.614044 0.332794
0.401937 0.620687 0.339437
0.439831 0.627331 0.346081
0.477725 0.633975 0.352725
0.515619 0.640619 0.359369
0.553512 0.647262 0.366012
0.591406 0.653906 0.372656
0.629300 0.660550 0.379300
0.667194 0.667194 0.385944
0.705087 0.673837 0.392587
0.742981 0.680481 0.399231
0.780875 0.687125 0.405875
0.818769 0.693769 0.412519
0.856662 0.700412 0.419162
0.272712 0.647712 0.335212
0.310606 0.654356 0.341856
0.348500 0.661000 0.348500
0.386394 0.667644 0.355144
0.424287 0.674287 0.361787
0.462181 0.680931 0.368431
0.500075 0.687575 0.375075
0.537969 0.694219 0.381719
0.575862 0.700862 0.388362
0.613756 0.707506 0.395006
0.651650 0.714150 0.401650
0.689544 0.720794 0.408294
0.727437 0.727437 0.414937
0.765331 0.734081 0.421581
0.803225 0.740725 0.428225
0.841119 0.747369 0.434869
0.879012 0.754012 0.441512
0.295062 0.701313 0.357562
0.332956 0.707956 0.364206
0.370850 0.714600 0.370850
0.408744 0.721244 0.377494
0.446637 0.727888 0.384137
0.484531 0.734531 0.390781
0.522425 0.741175 0.397425
0.560319 0.747819 0.404069
0.598213 0.754463 0.410712
0.636106 0.761106 0.417356
0.674000 0.767750 0.424000
0.711894 0.774394 0.430644
0.749787 0.781037 0.437287
0.787681 0.787681 0.443931
0.825575 0.794325 0.450575
0.863469 0.800969 0.457219
0.901362 0.807612 0.463862
0.317412 0.754912 0.379912
0.355306 0.761556 0.386556
0.393200 0.768200 0.393200
0.431094 0.774844 0.399844
0.468987 0.781487 0.406487
0.506881 0.788131 0.413131
0.544775 0.794775 0.419775
0.582669 0.801419 0.426419
0.620562 0.808062 0.433062
0.658456 0.814706 0.439706
0.696350 0.821350 0.446350
0.734244 0.827994 0.452994
0.772137 0.834637 0.459637
0.810031 0.841281 0.466281
0.847925 0.847925 0.472925
0.885819 0.854569 0.479569
0.923712 0.861212 0.486212
0.339762 0.808512 0.402262
0.377656 0.815156 0.408906
0.415550 0.821800 0.415550
0.453444 0.828444 0.422194
0.491337 0.835087 0.428837
0.529231 0.841731 0.435481
0.567125 0.848375 0.442125
0.605019 0.855019 0.448769
0.642912 0.861662 0.455412
0.680806 0.868306 0.462056
0.718700 0.874950 0.468700
0.756594 0.881594 0.475344
0.794488 0.888238 0.481987
0.832381 0.894881 0.488631
0.870275 0.901525 0.495275
0.908169 0.908169 0.501919
0.946063 0.914813 0.508563
0.362112 0.862112 0.424612
0.400006 0.868756 0.431256
0.437900 0.875400 0.437900
0.475794 0.882044 0.444544
0.513687 0.888687 0.451187
0.551581 0.895331 0.457831
0.589475 0.901975 0.464475
0.627369 0.908619 0.471119
0.665262 0.915262 0.477762
0.703156 0.921906 0.484406
0.741050 0.928550 0.491050
0.778944 0.935194 0.497694
0.816837 0.941837 0.504337
0.854731 0.948481 0.510981
0.892625 0.955125 0.517625
0.930519 0.961769 0.524269
0.968412 0.968412 0.530912
0.006769 0.006769 0.100519
0.044663 0.013413 0.107162
0.082556 0.020056 0.113806
0.120450 0.026700 0.120450
0.158344 0.033344 0.127094
0.196238 0.039988 0.133738
0.234131 0.046631 0.140381
0.272025 0.053275 0.147025
0.309919 0.059919 0.153669
0.347813 0.066563 0.160313
0.385706 0.073206 0.166956
0.423600 0.079850 0.173600
0.461494 0.086494 0.180244
0.499387 0.093138 0.186888
0.537281 0.099781 0.193531
0.575175 0.106425 0.200175
0.613069 0.113069 0.206819
0.029119 0.060369 0.122869
0.067013 0.067013 0.129513
