lut_features/tests/fixtures/desaturate.cube
LUT_3D_SIZE 9
DOMAIN_MIN 0.0 0.0 0.0
DOMAIN_MAX 1.0 1.0 1.0
0.000000 0.000000 0.000000
0.075788 0.013288 0.013288
0.151575 0.026575 0.026575
0.227362 0.039863 0.039863
0.303150 0.053150 0.053150
0.378938 0.066438 0.066438
0.454725 0.079725 0.079725
0.530512 0.093012 0.093012
0.606300 0.106300 0.106300
0.044700 0.107200 0.044700
0.120487 0.120487 0.057987
0.196275 0.133775 0.071275
0.272062 0.147062 0.084562
0.347850 0.160350 0.097850
0.423638 0.173638 0.111138
0.499425 0.186925 0.124425
0.575213 0.200212 0.137712
0.651000 0.213500 0.151000
0.089400 0.214400 0.089400
0.165187 0.227687 0.102687
0.240975 0.240975 0.115975
0.316763 0.254263 0.129263
0.392550 0.267550 0.142550
0.468338 0.280838 0.155838
0.544125 0.294125 0.169125
0.619912 0.307412 0.182412
0.695700 0.320700 0.195700
0.134100 0.321600 0.134100
0.209888 0.334888 0.147388
0.285675 0.348175 0.160675
0.361463 0.361463 0.173962
0.437250 0.374750 0.187250
0.513038 0.388038 0.200538
0.588825 0.401325 0.213825
0.664613 0.414612 0.227112
0.740400 0.427900 0.240400
0.178800 0.428800 0.178800
0.254587 0.442087 0.192087
0.330375 0.455375 0.205375
0.406162 0.468662 0.218662
0.481950 0.481950 0.231950
0.557737 0.495237 0.245237
0.633525 0.508525 0.258525
0.709313 0.521813 0.271813
0.785100 0.535100 0.285100
0.223500 0.536000 0.223500
0.299287 0.549287 0.236787
0.375075 0.562575 0.250075
0.450862 0.575862 0.263362
0.526650 0.589150 0.276650
0.602437 0.602437 0.289937
0.678225 0.615725 0.303225
0.754012 0.629012 0.316512
0.829800 0.642300 0.329800
0.268200 0.643200 0.268200
0.343988 0.656488 0.281488
0.419775 0.669775 0.294775
0.495563 0.683063 0.308063
0.571350 0.696350 0.321350
0.647138 0.709638 0.334638
0.722925 0.722925 0.347925
0.798712 0.736212 0.361212
0.874500 0.749500 0.374500
0.312900 0.750400 0.312900
0.388687 0.763687 0.326187
0.464475 0.776975 0.339475
0.540262 0.790262 0.352762
0.616050 0.803550 0.366050
0.691837 0.816837 0.379337
0.767625 0.830125 0.392625
0.843412 0.843412 0.405912
0.919200 0.856700 0.419200
0.357600 0.857600 0.357600
0.433387 0.870888 0.370887
0.509175 0.884175 0.384175
0.584963 0.897463 0.397462
0.660750 0.910750 0.410750
0.736537 0.924037 0.424037
0.812325 0.937325 0.437325
0.888112 0.950612 0.450612
0.963900 0.963900 0.463900
0.004513 0.004513 0.067013
0.080300 0.017800 0.080300
0.156087 0.031088 0.093588
0.231875 0.044375 0.106875
0.307663 0.057663 0.120163
0.383450 0.070950 0.133450
0.459238 0.084238 0.146738
0.535025 0.097525 0.160025
0.610812 0.110813 0.173313
0.049212 0.111712 0.111712
0.125000 0.125000 0.125000
0.200788 0.138288 0.138288
0.276575 0.151575 0.151575
0.352363 0.164862 0.164862
0.428150 0.178150 0.178150
0.503938 0.191438 0.191438
0.579725 0.204725 0.204725
0.655512 0.218012 0.218012
0.093912 0.218913 0.156413
0.169700 0.232200 0.169700
0.245487 0.245487 0.182987
0.321275 0.258775 0.196275
0.397062 0.272062 0.209563
0.472850 0.285350 0.222850
0.548638 0.298638 0.236138
0.624425 0.311925 0.249425
0.700213 0.325213 0.262713
0.138612 0.326113 0.201112
0.214400 0.339400 0.214400
0.290188 0.352688 0.227688
0.365975 0.365975 0.240975
0.441763 0.379263 0.254263
0.517550 0.392550 0.267550
0.593337 0.405837 0.280837
0.669125 0.419125 0.294125
0.744912 0.432412 0.307412
0.183312 0.433312 0.245812
0.259100 0.446600 0.259100
0.334888 0.459888 0.272388
0.410675 0.473175 0.285675
0.486463 0.486463 0.298963
0.562250 0.499750 0.312250
0.638038 0.513038 0.325537
0.713825 0.526325 0.338825
0.789613 0.539613 0.352112
0.228012 0.540512 0.290512
0.303800 0.553800 0.303800
0.379587 0.567087 0.317087
0.455375 0.580375 0.330375
0.531162 0.593662 0.343662
0.606950 0.606950 0.356950
0.682737 0.620237 0.370237
0.758525 0.633525 0.383525
0.834313 0.646813 0.396812
0.272712 0.647712 0.335212
0.348500 0.661000 0.348500
0.424287 0.674287 0.361787
0.500075 0.687575 0.375075
0.575862 0.700862 0.388362
0.651650 0.714150 0.401650
0.727437 0.727437 0.414937
0.803225 0.740725 0.428225
0.879012 0.754012 0.441512
0.317412 0.754912 0.379912
0.393200 0.768200 0.393200
0.468987 0.781487 0.406487
0.544775 0.794775 0.419775
0.620562 0.808062 0.433062
0.696350 0.821350 0.446350
0.772137 0.834637 0.459637
0.847925 0.847925 0.472925
0.923712 0.861212 0.486212
0.362112 0.862112 0.424612
0.437900 0.875400 0.437900
0.513687 0.888687 0.451187
0.589475 0.901975 0.464475
0.665262 0.915262 0.477762
0.741050 0.928550 0.491050
0.816837 0.941837 0.504337
0.892625 0.955125 0.517625
0.968412 0.968412 0.530912
0.009025 0.009025 0.134025
0.084812 0.022312 0.147313
0.160600 0.035600 0.160600
0.236388 0.048888 0.173888
0.312175 0.062175 0.187175
0.387962 0.075463 0.200463
0.463750 0.088750 0.213750
0.539538 0.102038 0.227038
0.615325 0.115325 0.240325
0.053725 0.116225 0.178725
0.129513 0.129513 0.192013
0.205300 0.142800 0.205300
0.281087 0.156087 0.218587
0.356875 0.169375 0.231875
0.432663 0.182663 0.245163
0.508450 0.195950 0.258450
0.584237 0.209237 0.271737
0.660025 0.222525 0.285025
0.098425 0.223425 0.223425
0.174212 0.236712 0.236712
0.250000 0.250000 0.250000
0.325788 0.263288 0.263288
0.401575 0.276575 0.276575
0.477363 0.289863 0.289863
0.553150 0.303150 0.303150
0.628937 0.316437 0.316437
0.704725 0.329725 0.329725
0.143125 0.330625 0.268125
0.218913 0.343913 0.281413
0.294700 0.357200 0.294700
0.370487 0.370487 0.307987
0.446275 0.383775 0.321275
0.522062 0.397062 0.334562
0.597850 0.410350 0.347850
0.673638 0.423638 0.361138
0.749425 0.436925 0.374425
0.187825 0.437825 0.312825
0.263613 0.451113 0.326113
0.339400 0.464400 0.339400
0.415187 0.477687 0.352687
0.490975 0.490975 0.365975
0.566763 0.504263 0.379263
0.642550 0.517550 0.392550
0.718338 0.530838 0.405838
0.794125 0.544125 0.419125
0.232525 0.545025 0.357525
0.308312 0.558312 0.370812
0.384100 0.571600 0.384100
0.459888 0.584888 0.397388
0.535675 0.598175 0.410675
0.611463 0.611463 0.423962
0.687250 0.624750 0.437250
0.763038 0.638038 0.450537
0.838825 0.651325 0.463825
0.277225 0.652225 0.402225
0.353013 0.665512 0.415513
0.428800 0.678800 0.428800
0.504587 0.692087 0.442088
0.580375 0.705375 0.455375
0.656162 0.718662 0.468663
0.731950 0.731950 0.481950
0.807737 0.745237 0.495237
0.883525 0.758525 0.508525
0.321925 0.759425 0.446925
0.397712 0.772712 0.460212
0.473500 0.786000 0.473500
0.549287 0.799287 0.486787
0.625075 0.812575 0.500075
0.700862 0.825862 0.513362
0.776650 0.839150 0.526650
0.852437 0.852437 0.539937
0.928225 0.865725 0.553225
0.366625 0.866625 0.491625
0.442412 0.879912 0.504912
0.518200 0.893200 0.518200
0.593988 0.906488 0.531488
0.669775 0.919775 0.544775
0.745562 0.933062 0.558062
0.821350 0.946350 0.571350
0.897137 0.959637 0.584637
0.972925 0.972925 0.597925
0.013538 0.013538 0.201038
0.089325 0.026825 0.214325
0.165112 0.040113 0.227612
0.240900 0.053400 0.240900
0.316688 0.066688 0.254188
0.392475 0.079975 0.267475
0.468263 0.093262 0.280763
0.544050 0.106550 0.294050
0.619838 0.119838 0.307338
0.058237 0.120737 0.245737
0.134025 0.134025 0.259025
0.209813 0.147313 0.272313
0.285600 0.160600 0.285600
0.361387 0.173888 0.298887
0.437175 0.187175 0.312175
0.512962 0.200463 0.325462
0.588750 0.213750 0.338750
0.664538 0.227038 0.352038
0.102937 0.227937 0.290438
0.178725 0.241225 0.303725
0.254513 0.254513 0.317013
0.330300 0.267800 0.330300
0.406088 0.281088 0.343588
0.481875 0.294375 0.356875
0.557662 0.307663 0.370163
0.633450 0.320950 0.383450
0.709237 0.334237 0.396737
0.147638 0.335137 0.335137
0.223425 0.348425 0.348425
0.299212 0.361712 0.361712
0.375000 0.375000 0.375000
0.450788 0.388288 0.388288
0.526575 0.401575 0.401575
0.602363 0.414863 0.414863
0.678150 0.428150 0.428150
0.753937 0.441437 0.441437
0.192337 0.442337 0.379837
0.268125 0.455625 0.393125
0.343912 0.468912 0.406412
0.419700 0.482200 0.419700
0.495487 0.495487 0.432987
0.571275 0.508775 0.446275
0.647062 0.522062 0.459562
0.722850 0.535350 0.472850
0.798638 0.548638 0.486138
0.237037 0.549538 0.424538
0.312825 0.562825 0.437825
0.388612 0.576113 0.451112
0.464400 0.589400 0.464400
0.540187 0.602687 0.477687
0.615975 0.615975 0.490975
0.691762 0.629262 0.504262
0.767550 0.642550 0.517550
0.843337 0.655837 0.530837
0.281737 0.656737 0.469237
0.357525 0.670025 0.482525
0.433312 0.683312 0.495812
0.509100 0.696600 0.509100
0.584888 0.709888 0.522388
0.660675 0.723175 0.535675
0.736463 0.736463 0.548963
0.812250 0.749750 0.562250
0.888038 0.763038 0.575538
0.326437 0.763937 0.513937
0.402225 0.777225 0.527225
0.478012 0.790512 0.540512
0.553800 0.803800 0.553800
0.629587 0.817087 0.567087
0.705375 0.830375 0.580375
0.781162 0.843662 0.593662
0.856950 0.856950 0.606950
0.932737 0.870237 0.620237
0.371137 0.871137 0.558637
0.446925 0.884425 0.571925
0.522712 0.897712 0.585212
0.598500 0.911000 0.598500
0.674287 0.924287 0.611787
0.750075 0.937575 0.625075
0.825862 0.950862 0.638362
0.901650 0.964150 0.651650
0.977437 0.977437 0.664937
0.018050 0.018050 0.268050
0.093838 0.031338 0.281338
0.169625 0.044625 0.294625
0.245413 0.057913 0.307913
0.321200 0.071200 0.321200
0.396987 0.084488 0.334487
0.472775 0.097775 0.347775
0.548562 0.111062 0.361063
0.624350 0.124350 0.374350
0.062750 0.125250 0.312750
0.138537 0.138537 0.326037
0.214325 0.151825 0.339325
0.290112 0.165112 0.352612
0.365900 0.178400 0.365900
0.441688 0.191688 0.379188
0.517475 0.204975 0.392475
0.593263 0.218262 0.405763
0.669050 0.231550 0.419050
0.107450 0.232450 0.357450
0.183237 0.245737 0.370737
0.259025 0.259025 0.384025
0.334813 0.272313 0.397313
0.410600 0.285600 0.410600
0.486388 0.298888 0.423888
0.562175 0.312175 0.437175
0.637962 0.325462 0.450462
0.713750 0.338750 0.463750
0.152150 0.339650 0.402150
0.227938 0.352938 0.415438
0.303725 0.366225 0.428725
0.379513 0.379513 0.442013
0.455300 0.392800 0.455300
0.531088 0.406088 0.468588
0.606875 0.419375 0.481875
0.682662 0.432663 0.495163
0.758450 0.445950 0.508450
0.196850 0.446850 0.446850
0.272637 0.460137 0.460137
0.348425 0.473425 0.473425
0.424212 0.486712 0.486712
0.500000 0.500000 0.500000
0.575788 0.513288 0.513288
0.651575 0.526575 0.526575
0.727363 0.539863 0.539863
0.803150 0.553150 0.553150
0.241550 0.554050 0.491550
0.317337 0.567338 0.504838
0.393125 0.580625 0.518125
0.468913 0.593913 0.531413
0.544700 0.607200 0.544700
0.620487 0.620487 0.557987
0.696275 0.633775 0.571275
0.772062 0.647062 0.584562
0.847850 0.660350 0.597850
0.286250 0.661250 0.536250
0.362038 0.674538 0.549538
0.437825 0.687825 0.562825
0.513613 0.701113 0.576113
0.589400 0.714400 0.589400
0.665188 0.727688 0.602688
0.740975 0.740975 0.615975
0.816763 0.754263 0.629263
0.892550 0.767550 0.642550
0.330950 0.768450 0.580950
0.406737 0.781737 0.594237
0.482525 0.795025 0.607525
0.558312 0.808312 0.620812
0.634100 0.821600 0.634100
0.709888 0.834888 0.647388
0.785675 0.848175 0.660675
0.861463 0.861463 0.673963
0.937250 0.874750 0.687250
0.375650 0.875650 0.625650
0.451437 0.888937 0.638937
0.527225 0.902225 0.652225
0.603012 0.915512 0.665512
0.678800 0.928800 0.678800
0.754587 0.942087 0.692087
0.830375 0.955375 0.705375
0.906162 0.968662 0.718662
0.981950 0.981950 0.731950
0.022562 0.022562 0.335062
0.098350 0.035850 0.348350
0.174138 0.049138 0.361638
0.249925 0.062425 0.374925
0.325713 0.075713 0.388213
0.401500 0.089000 0.401500
0.477287 0.102288 0.414787
0.553075 0.115575 0.428075
0.628862 0.128862 0.441362
0.067263 0.129763 0.379763
0.143050 0.143050 0.393050
0.218838 0.156338 0.406338
0.294625 0.169625 0.419625
0.370412 0.182912 0.432912
0.446200 0.196200 0.446200
0.521988 0.209487 0.459487
0.597775 0.222775 0.472775
0.673563 0.236063 0.486063
0.111962 0.236962 0.424462
0.187750 0.250250 0.437750
0.263537 0.263537 0.451037
0.339325 0.276825 0.464325
0.415112 0.290112 0.477612
0.490900 0.303400 0.490900
0.566688 0.316688 0.504188
0.642475 0.329975 0.517475
0.718263 0.343262 0.530763
0.156662 0.344162 0.469162
0.232450 0.357450 0.482450
0.308237 0.370737 0.495737
0.384025 0.384025 0.509025
0.459813 0.397313 0.522312
0.535600 0.410600 0.535600
0.611387 0.423887 0.548887
0.687175 0.437175 0.562175
0.762962 0.450462 0.575462
0.201362 0.451362 0.513862
0.277150 0.464650 0.527150
0.352937 0.477937 0.540437
0.428725 0.491225 0.553725
0.504512 0.504512 0.567012
0.580300 0.517800 0.580300
0.656087 0.531087 0.593587
0.731875 0.544375 0.606875
0.807662 0.557662 0.620162
0.246062 0.558562 0.558562
0.321850 0.571850 0.571850
0.397637 0.585137 0.585137
0.473425 0.598425 0.598425
0.549212 0.611712 0.611712
0.625000 0.625000 0.625000
0.700787 0.638287 0.638287
0.776575 0.651575 0.651575
0.852362 0.664862 0.664862
0.290762 0.665763 0.603263
0.366550 0.679050 0.616550
0.442337 0.692338 0.629838
0.518125 0.705625 0.643125
0.593913 0.718913 0.656413
0.669700 0.732200 0.669700
0.745487 0.745487 0.682987
0.821275 0.758775 0.696275
0.897062 0.772062 0.709562
0.335462 0.772962 0.647962
0.411250 0.786250 0.661250
0.487037 0.799538 0.674538
0.562825 0.812825 0.687825
0.638613 0.826113 0.701113
0.714400 0.839400 0.714400
0.790187 0.852687 0.727687
0.865975 0.865975 0.740975
0.941762 0.879262 0.754262
0.380162 0.880162 0.692662
0.455950 0.893450 0.705950
0.531737 0.906737 0.719237
0.607525 0.920025 0.732525
0.683312 0.933312 0.745812
0.759100 0.946600 0.759100
0.834888 0.959888 0.772388
0.910675 0.973175 0.785675
0.986463 0.986463 0.798963
0.027075 0.027075 0.402075
0.102862 0.040363 0.415363
0.178650 0.053650 0.428650
0.254437 0.066938 0.441937
0.330225 0.080225 0.455225
0.406012 0.093513 0.468512
0.481800 0.106800 0.481800
0.557588 0.120087 0.495088
0.633375 0.133375 0.508375
0.071775 0.134275 0.446775
0.147562 0.147562 0.460062
0.223350 0.160850 0.473350
0.299138 0.174138 0.486638
0.374925 0.187425 0.499925
0.450713 0.200713 0.513213
0.526500 0.214000 0.526500
0.602287 0.227287 0.539787
0.678075 0.240575 0.553075
0.116475 0.241475 0.491475
0.192263 0.254763 0.504763
0.268050 0.268050 0.518050
0.343838 0.281338 0.531338
0.419625 0.294625 0.544625
0.495413 0.307913 0.557913
0.571200 0.321200 0.571200
0.646988 0.334487 0.584488
0.722775 0.347775 0.597775
0.161175 0.348675 0.536175
0.236963 0.361963 0.549462
0.312750 0.375250 0.562750
0.388537 0.388537 0.576037
0.464325 0.401825 0.589325
0.540112 0.415112 0.602612
0.615900 0.428400 0.615900
0.691688 0.441688 0.629188
0.767475 0.454975 0.642475
0.205875 0.455875 0.580875
0.281662 0.469162 0.594162
0.357450 0.482450 0.607450
0.433237 0.495737 0.620737
0.509025 0.509025 0.634025
0.584812 0.522312 0.647312
0.660600 0.535600 0.660600
0.736387 0.548887 0.673887
0.812175 0.562175 0.687175
0.250575 0.563075 0.625575
0.326362 0.576362 0.638862
0.402150 0.589650 0.652150
0.477938 0.602938 0.665438
0.553725 0.616225 0.678725
0.629512 0.629512 0.692012
0.705300 0.642800 0.705300
0.781087 0.656087 0.718587
0.856875 0.669375 0.731875
0.295275 0.670275 0.670275
0.371063 0.683563 0.683563
0.446850 0.696850 0.696850
0.522638 0.710138 0.710138
0.598425 0.723425 0.723425
0.674213 0.736713 0.736713
0.750000 0.750000 0.750000
0.825788 0.763288 0.763288
0.901575 0.776575 0.776575
0.339975 0.777475 0.714975
0.415762 0.790763 0.728263
0.491550 0.804050 0.741550
0.567338 0.817338 0.754838
0.643125 0.830625 0.768125
0.718913 0.843913 0.781413
0.794700 0.857200 0.794700
0.870487 0.870487 0.807987
0.946275 0.883775 0.821275
0.384675 0.884675 0.759675
0.460462 0.897962 0.772962
0.536250 0.911250 0.786250
0.612038 0.924538 0.799538
0.687825 0.937825 0.812825
0.763613 0.951113 0.826113
0.839400 0.964400 0.839400
0.915188 0.977688 0.852688
0.990975 0.990975 0.865975
0.031587 0.031587 0.469087
0.107375 0.044875 0.482375
0.183163 0.058162 0.495663
0.258950 0.071450 0.508950
0.334738 0.084737 0.522238
0.410525 0.098025 0.535525
0.486313 0.111313 0.548813
0.562100 0.124600 0.562100
0.637887 0.137887 0.575387
0.076287 0.138788 0.513787
0.152075 0.152075 0.527075
0.227862 0.165362 0.540362
0.303650 0.178650 0.553650
0.379437 0.191937 0.566937
0.455225 0.205225 0.580225
0.531012 0.218512 0.593512
0.606800 0.231800 0.606800
0.682588 0.245087 0.620088
0.120987 0.245987 0.558488
0.196775 0.259275 0.571775
0.272562 0.272562 0.585063
0.348350 0.285850 0.598350
0.424138 0.299138 0.611638
0.499925 0.312425 0.624925
0.575712 0.325712 0.638212
0.651500 0.339000 0.651500
0.727287 0.352287 0.664787
0.165687 0.353187 0.603187
0.241475 0.366475 0.616475
0.317263 0.379763 0.629763
0.393050 0.393050 0.643050
0.468838 0.406338 0.656338
0.544625 0.419625 0.669625
0.620413 0.432912 0.682913
0.696200 0.446200 0.696200
0.771988 0.459487 0.709488
0.210387 0.460387 0.647887
0.286175 0.473675 0.661175
0.361962 0.486962 0.674462
0.437750 0.500250 0.687750
0.513537 0.513537 0.701037
0.589325 0.526825 0.714325
0.665112 0.540112 0.727612
0.740900 0.553400 0.740900
0.816688 0.566688 0.754188
0.255087 0.567587 0.692587
0.330875 0.580875 0.705875
0.406662 0.594162 0.719162
0.482450 0.607450 0.732450
0.558237 0.620737 0.745737
0.634025 0.634025 0.759025
0.709812 0.647312 0.772312
0.785600 0.660600 0.785600
0.861387 0.673887 0.798887
0.299787 0.674787 0.737287
0.375575 0.688075 0.750575
0.451362 0.701362 0.763862
0.527150 0.714650 0.777150
0.602938 0.727938 0.790438
0.678725 0.741225 0.803725
0.754512 0.754512 0.817012
0.830300 0.767800 0.830300
0.906087 0.781087 0.843587
0.344487 0.781987 0.781987
0.420275 0.795275 0.795275
0.496062 0.808562 0.808562
0.571850 0.821850 0.821850
0.647637 0.835137 0.835137
0.723425 0.848425 0.848425
0.799212 0.861712 0.861712
0.875000 0.875000 0.875000
0.950787 0.888287 0.888287
0.389187 0.889188 0.826688
0.464975 0.902475 0.839975
0.540763 0.915763 0.853263
0.616550 0.929050 0.866550
0.692337 0.942337 0.879837
0.768125 0.955625 0.893125
0.843912 0.968912 0.906412
0.919700 0.982200 0.919700
0.995487 0.995487 0.932987
0.036100 0.036100 0.536100
0.111888 0.049388 0.549388
0.187675 0.062675 0.562675
0.263462 0.075963 0.575963
0.339250 0.089250 0.589250
0.415038 0.102538 0.602537
0.490825 0.115825 0.615825
0.566612 0.129112 0.629112
0.642400 0.142400 0.642400
0.080800 0.143300 0.580800
0.156587 0.156587 0.594087
0.232375 0.169875 0.607375
0.308163 0.183163 0.620663
0.383950 0.196450 0.633950
0.459738 0.209737 0.647238
0.535525 0.223025 0.660525
0.611312 0.236312 0.673812
0.687100 0.249600 0.687100
0.125500 0.250500 0.625500
0.201287 0.263787 0.638787
0.277075 0.277075 0.652075
0.352862 0.290362 0.665362
0.428650 0.303650 0.678650
0.504437 0.316937 0.691937
0.580225 0.330225 0.705225
0.656012 0.343512 0.718512
0.731800 0.356800 0.731800
0.170200 0.357700 0.670200
0.245987 0.370988 0.683488
0.321775 0.384275 0.696775
0.397562 0.397562 0.710063
0.473350 0.410850 0.723350
0.549138 0.424138 0.736638
0.624925 0.437425 0.749925
0.700713 0.450713 0.763213
0.776500 0.464000 0.776500
0.214900 0.464900 0.714900
0.290687 0.478187 0.728187
0.366475 0.491475 0.741475
0.442263 0.504763 0.754763
0.518050 0.518050 0.768050
0.593838 0.531338 0.781338
0.669625 0.544625 0.794625
0.745413 0.557913 0.807913
0.821200 0.571200 0.821200
0.259600 0.572100 0.759600
0.335388 0.585387 0.772887
0.411175 0.598675 0.786175
0.486963 0.611962 0.799462
0.562750 0.625250 0.812750
0.638537 0.638537 0.826037
0.714325 0.651825 0.839325
0.790112 0.665112 0.852612
0.865900 0.678400 0.865900
0.304300 0.679300 0.804300
0.380088 0.692588 0.817588
0.455875 0.705875 0.830875
0.531663 0.719163 0.844163
0.607450 0.732450 0.857450
0.683238 0.745738 0.870738
0.759025 0.759025 0.884025
0.834812 0.772312 0.897312
0.910600 0.785600 0.910600
0.349000 0.786500 0.849000
0.424787 0.799787 0.862287
0.500575 0.813075 0.875575
0.576362 0.826362 0.888862
0.652150 0.839650 0.902150
0.727938 0.852938 0.915438
0.803725 0.866225 0.928725
0.879512 0.879512 0.942012
0.955300 0.892800 0.955300
0.393700 0.893700 0.893700
0.469488 0.906988 0.906988
0.545275 0.920275 0.920275
0.621063 0.933563 0.933563
0.696850 0.946850 0.946850
0.772637 0.960137 0.960137
0.848425 0.973425 0.973425
0.924212 0.986712 0.986712
1.000000 1.000000 1.000000
