lut_features/tests/fixtures/split_toning.cube
LUT_3D_SIZE 17
DOMAIN_MIN 0.0 0.0 0.0
DOMAIN_MAX 1.0 1.0 1.0
0.000000 0.000000 0.100000
0.004778 0.000000 0.096204
0.069556 0.000000 0.092407
0.134334 0.000000 0.088611
0.199111 0.000000 0.084814
0.263889 0.000000 0.081018
0.328667 0.000000 0.077221
0.393445 0.000000 0.073425
0.458223 0.000000 0.069629
0.523001 0.000000 0.065832
0.587779 0.000000 0.062036
0.652556 0.000000 0.058239
0.717334 0.000000 0.054443
0.782112 0.000000 0.050646
0.846890 0.000000 0.046850
0.911668 0.000000 0.043054
0.976446 0.000000 0.039257
0.000000 0.036331 0.087229
0.012441 0.037470 0.083432
0.077219 0.038609 0.079636
0.141996 0.039748 0.075839
0.206774 0.040887 0.072043
0.271552 0.042026 0.068246
0.336330 0.043165 0.064450
0.401108 0.044304 0.060654
0.465886 0.045443 0.056857
0.530664 0.046582 0.053061
0.595441 0.047721 0.049264
0.660219 0.048860 0.045468
0.724997 0.049999 0.041671
0.789775 0.051138 0.037875
0.854553 0.052276 0.034079
0.919331 0.053415 0.030282
0.984109 0.054554 0.026486
0.000000 0.102663 0.074457
0.020104 0.103802 0.070661
0.084881 0.104941 0.066864
0.149659 0.106080 0.063068
0.214437 0.107219 0.059271
0.279215 0.108358 0.055475
0.343993 0.109496 0.051679
0.408771 0.110635 0.047882
0.473549 0.111774 0.044086
0.538326 0.112913 0.040289
0.603104 0.114052 0.036493
0.667882 0.115191 0.032696
0.732660 0.116330 0.028900
0.797438 0.117469 0.025104
0.862216 0.118608 0.021307
0.926994 0.119747 0.017511
0.991771 0.120886 0.013714
0.000000 0.168994 0.061686
0.027766 0.170133 0.057889
0.092544 0.171272 0.054093
0.157322 0.172411 0.050296
0.222100 0.173550 0.046500
0.286878 0.174689 0.042704
0.351656 0.175828 0.038907
0.416434 0.176967 0.035111
0.481211 0.178106 0.031314
0.545989 0.179245 0.027518
0.610767 0.180384 0.023721
0.675545 0.181523 0.019925
0.740323 0.182661 0.016129
0.805101 0.183800 0.012332
0.869879 0.184939 0.008536
0.934656 0.186078 0.004739
0.999434 0.187217 0.000943
0.000000 0.235326 0.048914
0.035429 0.236465 0.045118
0.100207 0.237604 0.041321
0.164985 0.238742 0.037525
0.229763 0.239881 0.033729
0.294541 0.241020 0.029932
0.359319 0.242159 0.026136
0.424096 0.243298 0.022339
0.488874 0.244437 0.018543
0.553652 0.245576 0.014746
0.618430 0.246715 0.010950
0.683208 0.247854 0.007154
0.747986 0.248993 0.003357
0.812500 0.250000 0.000000
0.875000 0.250000 0.000000
0.937500 0.250000 0.000000
1.000000 0.250000 0.000000
0.000000 0.301657 0.036143
0.043092 0.302796 0.032346
0.107870 0.303935 0.028550
0.172648 0.305074 0.024754
0.237426 0.306213 0.020957
0.302204 0.307352 0.017161
0.366981 0.308491 0.013364
0.431759 0.309630 0.009568
0.496537 0.310769 0.005771
0.561315 0.311908 0.001975
0.625000 0.312500 0.000000
0.687500 0.312500 0.000000
0.750000 0.312500 0.000000
0.812500 0.312500 0.000000
0.875000 0.312500 0.000000
0.937500 0.312500 0.000000
1.000000 0.312500 0.000000
0.000000 0.367989 0.023371
0.050755 0.369127 0.019575
0.115533 0.370266 0.015779
0.180311 0.371405 0.011982
0.245089 0.372544 0.008186
0.309866 0.373683 0.004389
0.374644 0.374822 0.000593
0.437500 0.375000 0.000000
0.500000 0.375000 0.000000
0.562500 0.375000 0.000000
0.625000 0.375000 0.000000
0.687500 0.375000 0.000000
0.750000 0.375000 0.000000
0.812500 0.375000 0.000000
0.875000 0.375000 0.000000
0.937500 0.375000 0.000000
1.000000 0.375000 0.000000
0.000000 0.434320 0.010600
0.058418 0.435459 0.006804
0.123196 0.436598 0.003007
0.187500 0.437500 0.000000
0.250000 0.437500 0.000000
0.312500 0.437500 0.000000
0.375000 0.437500 0.000000
0.437500 0.437500 0.000000
0.500000 0.437500 0.000000
0.562500 0.437500 0.000000
0.625000 0.437500 0.000000
0.687500 0.437500 0.000000
0.750000 0.437500 0.000000
0.812500 0.437500 0.000000
0.875000 0.437500 0.000000
0.937500 0.437500 0.000000
1.000000 0.437500 0.000000
0.000000 0.500000 0.000000
0.062500 0.500000 0.000000
0.125000 0.500000 0.000000
0.187500 0.500000 0.000000
0.250000 0.500000 0.000000
0.312500 0.500000 0.000000
0.375000 0.500000 0.000000
0.437500 0.500000 0.000000
0.500000 0.500000 0.000000
0.562500 0.500000 0.000000
0.625000 0.500000 0.000000
0.687500 0.500000 0.000000
0.750000 0.500000 0.000000
0.812500 0.500000 0.000000
0.875000 0.500000 0.000000
0.937500 0.500000 0.000000
1.000000 0.500000 0.000000
0.000000 0.562500 0.000000
0.062500 0.562500 0.000000
0.125000 0.562500 0.000000
0.187500 0.562500 0.000000
0.250000 0.562500 0.000000
0.312500 0.562500 0.000000
0.375000 0.562500 0.000000
0.437500 0.562500 0.000000
0.500000 0.562500 0.000000
0.562500 0.562500 0.000000
0.625000 0.562500 0.000000
0.687500 0.562500 0.000000
0.750000 0.562500 0.000000
0.812500 0.562500 0.000000
0.875000 0.562500 0.000000
0.937500 0.562500 0.000000
1.000000 0.562500 0.000000
0.000000 0.625000 0.000000
0.062500 0.625000 0.000000
0.125000 0.625000 0.000000
0.187500 0.625000 0.000000
0.250000 0.625000 0.000000
0.312500 0.625000 0.000000
0.375000 0.625000 0.000000
0.437500 0.625000 0.000000
0.500000 0.625000 0.000000
0.562500 0.625000 0.000000
0.625000 0.625000 0.000000
0.687500 0.625000 0.000000
0.750000 0.625000 0.000000
0.812500 0.625000 0.000000
0.875000 0.625000 0.000000
0.937500 0.625000 0.000000
1.000000 0.625823 0.000000
0.000000 0.687500 0.000000
0.062500 0.687500 0.000000
0.125000 0.687500 0.000000
0.187500 0.687500 0.000000
0.250000 0.687500 0.000000
0.312500 0.687500 0.000000
0.375000 0.687500 0.000000
0.437500 0.687500 0.000000
0.500000 0.687500 0.000000
0.562500 0.687500 0.000000
0.625000 0.687500 0.000000
0.687500 0.687500 0.000000
0.750197 0.687599 0.000000
0.814975 0.688738 0.000000
0.879753 0.689876 0.000000
0.944531 0.691015 0.000000
1.000000 0.692154 0.000000
0.000000 0.750000 0.000000
0.062500 0.750000 0.000000
0.125000 0.750000 0.000000
0.187500 0.750000 0.000000
0.250000 0.750000 0.000000
0.312500 0.750000 0.000000
0.375000 0.750000 0.000000
0.437500 0.750000 0.000000
0.500000 0.750000 0.000000
0.563526 0.750513 0.000000
0.628304 0.751652 0.000000
0.693082 0.752791 0.000000
0.757860 0.753930 0.000000
0.822638 0.755069 0.000000
0.887416 0.756208 0.000000
0.952194 0.757347 0.000000
1.000000 0.758486 0.000000
0.000000 0.812500 0.000000
0.062500 0.812500 0.000000
0.125000 0.812500 0.000000
0.187500 0.812500 0.000000
0.250000 0.812500 0.000000
0.312500 0.812500 0.000000
0.376856 0.813428 0.000000
0.441634 0.814567 0.000000
0.506411 0.815706 0.000000
0.571189 0.816845 0.000000
0.635967 0.817984 0.000000
0.700745 0.819122 0.000000
0.765523 0.820261 0.000000
0.830301 0.821400 0.000000
0.895079 0.822539 0.000000
0.959856 0.823678 0.000000
1.000000 0.824817 0.000000
0.000000 0.875000 0.000000
0.062500 0.875000 0.000000
0.125407 0.875204 0.000000
0.190185 0.876343 0.000000
0.254963 0.877481 0.000000
0.319741 0.878620 0.000000
0.384519 0.879759 0.000000
0.449296 0.880898 0.000000
0.514074 0.882037 0.000000
0.578852 0.883176 0.000000
0.643630 0.884315 0.000000
0.708408 0.885454 0.000000
0.773186 0.886593 0.000000
0.837964 0.887732 0.000000
0.902741 0.888871 0.000000
0.967519 0.890010 0.000000
1.000000 0.891149 0.000000
0.003514 0.939257 0.000000
0.068292 0.940396 0.000000
0.133070 0.941535 0.000000
0.197848 0.942674 0.000000
0.262626 0.943813 0.000000
0.327404 0.944952 0.000000
0.392181 0.946091 0.000000
0.456959 0.947230 0.000000
0.521737 0.948369 0.000000
0.586515 0.949507 0.000000
0.651293 0.950646 0.000000
0.716071 0.951785 0.000000
0.780849 0.952924 0.000000
0.845626 0.954063 0.000000
0.910404 0.955202 0.000000
0.975182 0.956341 0.000000
1.000000 0.957480 0.000000
0.011177 1.000000 0.000000
0.075955 1.000000 0.000000
0.140733 1.000000 0.000000
0.205511 1.000000 0.000000
0.270289 1.000000 0.000000
0.335066 1.000000 0.000000
0.399844 1.000000 0.000000
0.464622 1.000000 0.000000
0.529400 1.000000 0.000000
0.594178 1.000000 0.000000
0.658956 1.000000 0.000000
0.723734 1.000000 0.000000
0.788511 1.000000 0.000000
0.853289 1.000000 0.000000
0.918067 1.000000 0.000000
0.982845 1.000000 0.000000
1.000000 1.000000 0.000000
0.000000 0.000000 0.161211
0.005551 0.000000 0.157414
0.070329 0.000000 0.153618
0.135107 0.000000 0.149821
0.199885 0.000000 0.146025
0.264663 0.000000 0.142229
0.329441 0.000000 0.138432
0.394219 0.000000 0.134636
0.458996 0.000000 0.130839
0.523774 0.000000 0.127043
0.588552 0.000000 0.123246
0.653330 0.000000 0.119450
0.718108 0.000000 0.115654
0.782886 0.000000 0.111857
0.847664 0.000000 0.108061
0.912441 0.000000 0.104264
0.977219 0.000000 0.100468
0.000000 0.036718 0.148439
0.013214 0.037857 0.144643
0.077992 0.038996 0.140846
0.142770 0.040135 0.137050
0.207548 0.041274 0.133254
0.272326 0.042413 0.129457
0.337104 0.043552 0.125661
0.401881 0.044691 0.121864
0.466659 0.045830 0.118068
0.531437 0.046969 0.114271
0.596215 0.048108 0.110475
0.660993 0.049246 0.106679
0.725771 0.050385 0.102882
0.790549 0.051524 0.099086
0.855326 0.052663 0.095289
0.920104 0.053802 0.091493
0.984882 0.054941 0.087696
0.000000 0.103050 0.135668
0.020877 0.104189 0.131871
0.085655 0.105327 0.128075
0.150433 0.106466 0.124279
0.215211 0.107605 0.120482
0.279989 0.108744 0.116686
0.344766 0.109883 0.112889
0.409544 0.111022 0.109093
0.474322 0.112161 0.105296
0.539100 0.113300 0.101500
0.603878 0.114439 0.097704
0.668656 0.115578 0.093907
0.733434 0.116717 0.090111
0.798211 0.117856 0.086314
0.862989 0.118995 0.082518
0.927767 0.120134 0.078721
0.992545 0.121272 0.074925
0.000000 0.169381 0.122896
0.028540 0.170520 0.119100
0.093318 0.171659 0.115304
0.158096 0.172798 0.111507
0.222874 0.173937 0.107711
0.287651 0.175076 0.103914
0.352429 0.176215 0.100118
0.417207 0.177354 0.096321
0.481985 0.178492 0.092525
0.546763 0.179631 0.088729
0.611541 0.180770 0.084932
0.676319 0.181909 0.081136
0.741096 0.183048 0.077339
0.805874 0.184187 0.073543
0.870652 0.185326 0.069746
0.935430 0.186465 0.065950
1.000000 0.187500 0.062500
0.000000 0.235712 0.110125
0.036203 0.236851 0.106329
0.100981 0.237990 0.102532
0.165759 0.239129 0.098736
0.230536 0.240268 0.094939
0.295314 0.241407 0.091143
0.360092 0.242546 0.087346
0.424870 0.243685 0.083550
0.489648 0.244824 0.079754
0.554426 0.245963 0.075957
0.619204 0.247102 0.072161
0.683981 0.248241 0.068364
0.748759 0.249380 0.064568
0.812500 0.250000 0.062500
0.875000 0.250000 0.062500
0.937500 0.250000 0.062500
1.000000 0.250000 0.062500
0.000000 0.302044 0.097354
0.043866 0.303183 0.093557
0.108644 0.304322 0.089761
0.173421 0.305461 0.085964
0.238199 0.306600 0.082168
0.302977 0.307739 0.078371
0.367755 0.308877 0.074575
0.432533 0.310016 0.070779
0.497311 0.311155 0.066982
0.562089 0.312294 0.063186
0.625000 0.312500 0.062500
0.687500 0.312500 0.062500
0.750000 0.312500 0.062500
0.812500 0.312500 0.062500
0.875000 0.312500 0.062500
0.937500 0.312500 0.062500
1.000000 0.312500 0.062500
0.000000 0.368375 0.084582
0.051529 0.369514 0.080786
0.116306 0.370653 0.076989
0.181084 0.371792 0.073193
0.245862 0.372931 0.069396
0.310640 0.374070 0.065600
0.375000 0.375000 0.062500
0.437500 0.375000 0.062500
0.500000 0.375000 0.062500
0.562500 0.375000 0.062500
0.625000 0.375000 0.062500
0.687500 0.375000 0.062500
0.750000 0.375000 0.062500
0.812500 0.375000 0.062500
0.875000 0.375000 0.062500
0.937500 0.375000 0.062500
1.000000 0.375000 0.062500
0.000000 0.434707 0.071811
0.059191 0.435846 0.068014
0.123969 0.436985 0.064218
0.187500 0.437500 0.062500
0.250000 0.437500 0.062500
0.312500 0.437500 0.062500
0.375000 0.437500 0.062500
0.437500 0.437500 0.062500
0.500000 0.437500 0.062500
0.562500 0.437500 0.062500
0.625000 0.437500 0.062500
0.687500 0.437500 0.062500
0.750000 0.437500 0.062500
0.812500 0.437500 0.062500
0.875000 0.437500 0.062500
0.937500 0.437500 0.062500
1.000000 0.437500 0.062500
0.000000 0.500000 0.062500
0.062500 0.500000 0.062500
0.125000 0.500000 0.062500
0.187500 0.500000 0.062500
0.250000 0.500000 0.062500
0.312500 0.500000 0.062500
0.375000 0.500000 0.062500
0.437500 0.500000 0.062500
0.500000 0.500000 0.062500
0.562500 0.500000 0.062500
0.625000 0.500000 0.062500
0.687500 0.500000 0.062500
0.750000 0.500000 0.062500
0.812500 0.500000 0.062500
0.875000 0.500000 0.062500
0.937500 0.500000 0.062500
1.000000 0.500000 0.062500
0.000000 0.562500 0.062500
0.062500 0.562500 0.062500
0.125000 0.562500 0.062500
0.187500 0.562500 0.062500
0.250000 0.562500 0.062500
0.312500 0.562500 0.062500
0.375000 0.562500 0.062500
0.437500 0.562500 0.062500
0.500000 0.562500 0.062500
0.562500 0.562500 0.062500
0.625000 0.562500 0.062500
0.687500 0.562500 0.062500
0.750000 0.562500 0.062500
0.812500 0.562500 0.062500
0.875000 0.562500 0.062500
0.937500 0.562500 0.062500
1.000000 0.562500 0.062500
0.000000 0.625000 0.062500
0.062500 0.625000 0.062500
0.125000 0.625000 0.062500
0.187500 0.625000 0.062500
0.250000 0.625000 0.062500
0.312500 0.625000 0.062500
0.375000 0.625000 0.062500
0.437500 0.625000 0.062500
0.500000 0.625000 0.062500
0.562500 0.625000 0.062500
0.625000 0.625000 0.062500
0.687500 0.625000 0.062500
0.750000 0.625000 0.062500
0.812500 0.625000 0.062500
0.875000 0.625000 0.062500
0.937641 0.625071 0.062264
1.000000 0.626210 0.058468
0.000000 0.687500 0.062500
0.062500 0.687500 0.062500
0.125000 0.687500 0.062500
0.187500 0.687500 0.062500
0.250000 0.687500 0.062500
0.312500 0.687500 0.062500
0.375000 0.687500 0.062500
0.437500 0.687500 0.062500
0.500000 0.687500 0.062500
0.562500 0.687500 0.062500
0.625000 0.687500 0.062500
0.687500 0.687500 0.062500
0.750971 0.687985 0.060882
0.815749 0.689124 0.057086
0.880526 0.690263 0.053289
0.945304 0.691402 0.049493
1.000000 0.692541 0.045696
0.000000 0.750000 0.062500
0.062500 0.750000 0.062500
0.125000 0.750000 0.062500
0.187500 0.750000 0.062500
0.250000 0.750000 0.062500
0.312500 0.750000 0.062500
0.375000 0.750000 0.062500
0.437500 0.750000 0.062500
0.500000 0.750000 0.062500
0.564300 0.750900 0.059500
0.629078 0.752039 0.055704
0.693856 0.753178 0.051907
0.758634 0.754317 0.048111
0.823411 0.755456 0.044314
0.888189 0.756595 0.040518
0.952967 0.757734 0.036721
1.000000 0.758872 0.032925
0.000000 0.812500 0.062500
0.062500 0.812500 0.062500
0.125000 0.812500 0.062500
0.187500 0.812500 0.062500
0.250000 0.812500 0.062500
0.312851 0.812676 0.061914
0.377629 0.813815 0.058118
0.442407 0.814954 0.054321
0.507185 0.816092 0.050525
0.571963 0.817231 0.046729
0.636741 0.818370 0.042932
0.701519 0.819509 0.039136
0.766296 0.820648 0.035339
0.831074 0.821787 0.031543
0.895852 0.822926 0.027746
0.960630 0.824065 0.023950
1.000000 0.825204 0.020154
0.000000 0.875000 0.062500
0.062500 0.875000 0.062500
0.126181 0.875590 0.060532
0.190959 0.876729 0.056736
0.255736 0.877868 0.052939
0.320514 0.879007 0.049143
0.385292 0.880146 0.045346
0.450070 0.881285 0.041550
0.514848 0.882424 0.037754
0.579626 0.883563 0.033957
0.644404 0.884702 0.030161
0.709181 0.885841 0.026364
0.773959 0.886980 0.022568
0.838737 0.888119 0.018771
0.903515 0.889258 0.014975
0.968293 0.890396 0.011179
1.000000 0.891535 0.007382
0.004288 0.939644 0.055354
0.069066 0.940783 0.051557
0.133844 0.941922 0.047761
0.198621 0.943061 0.043964
0.263399 0.944200 0.040168
0.328177 0.945339 0.036371
0.392955 0.946477 0.032575
0.457733 0.947616 0.028779
0.522511 0.948755 0.024982
0.587289 0.949894 0.021186
0.652066 0.951033 0.017389
0.716844 0.952172 0.013593
0.781622 0.953311 0.009796
0.846400 0.954450 0.006000
0.911178 0.955589 0.002204
0.975956 0.956728 0.000000
1.000000 0.957867 0.000000
0.011951 1.000000 0.042582
0.076729 1.000000 0.038786
0.141506 1.000000 0.034989
0.206284 1.000000 0.031193
0.271062 1.000000 0.027396
0.335840 1.000000 0.023600
0.400618 1.000000 0.019804
0.465396 1.000000 0.016007
0.530174 1.000000 0.012211
0.594951 1.000000 0.008414
0.659729 1.000000 0.004618
0.724507 1.000000 0.000821
0.789285 1.000000 0.000000
0.854063 1.000000 0.000000
0.918841 1.000000 0.000000
0.983619 1.000000 0.000000
1.000000 1.000000 0.000000
0.000000 0.000000 0.222421
0.006325 0.000000 0.218625
0.071103 0.000000 0.214829
0.135881 0.000000 0.211032
0.200659 0.000000 0.207236
0.265436 0.000000 0.203439
0.330214 0.000000 0.199643
0.394992 0.000000 0.195846
0.459770 0.000000 0.192050
0.524548 0.000000 0.188254
0.589326 0.000000 0.184457
0.654104 0.000000 0.180661
0.718881 0.000000 0.176864
0.783659 0.000000 0.173068
0.848437 0.000000 0.169271
0.913215 0.000000 0.165475
0.977993 0.000000 0.161679
0.000000 0.037105 0.209650
0.013988 0.038244 0.205854
0.078766 0.039383 0.202057
0.143544 0.040522 0.198261
0.208321 0.041661 0.194464
0.273099 0.042800 0.190668
0.337877 0.043939 0.186871
0.402655 0.045077 0.183075
0.467433 0.046216 0.179279
0.532211 0.047355 0.175482
0.596989 0.048494 0.171686
0.661766 0.049633 0.167889
0.726544 0.050772 0.164093
0.791322 0.051911 0.160296
0.856100 0.053050 0.156500
0.920878 0.054189 0.152704
0.985656 0.055328 0.148907
0.000000 0.103436 0.196879
0.021651 0.104575 0.193082
0.086429 0.105714 0.189286
0.151206 0.106853 0.185489
0.215984 0.107992 0.181693
0.280762 0.109131 0.177896
0.345540 0.110270 0.174100
0.410318 0.111409 0.170304
0.475096 0.112548 0.166507
0.539874 0.113687 0.162711
0.604651 0.114826 0.158914
0.669429 0.115965 0.155118
0.734207 0.117104 0.151321
0.798985 0.118243 0.147525
0.863763 0.119381 0.143729
0.928541 0.120520 0.139932
0.993319 0.121659 0.136136
0.000000 0.169768 0.184107
0.029314 0.170907 0.180311
0.094091 0.172046 0.176514
0.158869 0.173185 0.172718
0.223647 0.174324 0.168921
0.288425 0.175462 0.165125
0.353203 0.176601 0.161329
0.417981 0.177740 0.157532
0.482759 0.178879 0.153736
0.547536 0.180018 0.149939
0.612314 0.181157 0.146143
0.677092 0.182296 0.142346
0.741870 0.183435 0.138550
0.806648 0.184574 0.134754
0.871426 0.185713 0.130957
0.936204 0.186852 0.127161
1.000000 0.187500 0.125000
0.000000 0.236099 0.171336
0.036976 0.237238 0.167539
0.101754 0.238377 0.163743
0.166532 0.239516 0.159946
0.231310 0.240655 0.156150
0.296088 0.241794 0.152354
0.360866 0.242933 0.148557
0.425644 0.244072 0.144761
0.490421 0.245211 0.140964
0.555199 0.246350 0.137168
0.619977 0.247489 0.133371
0.684755 0.248628 0.129575
0.749533 0.249766 0.125779
0.812500 0.250000 0.125000
0.875000 0.250000 0.125000
0.937500 0.250000 0.125000
1.000000 0.250000 0.125000
0.000000 0.302431 0.158564
0.044639 0.303570 0.154768
0.109417 0.304709 0.150971
0.174195 0.305847 0.147175
0.238973 0.306986 0.143379
0.303751 0.308125 0.139582
0.368529 0.309264 0.135786
0.433306 0.310403 0.131989
0.498084 0.311542 0.128193
0.562500 0.312500 0.125000
0.625000 0.312500 0.125000
0.687500 0.312500 0.125000
0.750000 0.312500 0.125000
0.812500 0.312500 0.125000
0.875000 0.312500 0.125000
0.937500 0.312500 0.125000
1.000000 0.312500 0.125000
0.000000 0.368762 0.145793
0.052302 0.369901 0.141996
0.117080 0.371040 0.138200
0.181858 0.372179 0.134404
0.246636 0.373318 0.130607
0.311414 0.374457 0.126811
0.375000 0.375000 0.125000
0.437500 0.375000 0.125000
0.500000 0.375000 0.125000
0.562500 0.375000 0.125000
0.625000 0.375000 0.125000
0.687500 0.375000 0.125000
0.750000 0.375000 0.125000
0.812500 0.375000 0.125000
0.875000 0.375000 0.125000
0.937500 0.375000 0.125000
1.000000 0.375000 0.125000
0.000000 0.435094 0.133021
0.059965 0.436233 0.129225
0.124743 0.437371 0.125429
0.187500 0.437500 0.125000
0.250000 0.437500 0.125000
0.312500 0.437500 0.125000
0.375000 0.437500 0.125000
0.437500 0.437500 0.125000
0.500000 0.437500 0.125000
0.562500 0.437500 0.125000
0.625000 0.437500 0.125000
0.687500 0.437500 0.125000
0.750000 0.437500 0.125000
0.812500 0.437500 0.125000
0.875000 0.437500 0.125000
0.937500 0.437500 0.125000
1.000000 0.437500 0.125000
0.000000 0.500000 0.125000
0.062500 0.500000 0.125000
0.125000 0.500000 0.125000
0.187500 0.500000 0.125000
0.250000 0.500000 0.125000
0.312500 0.500000 0.125000
0.375000 0.500000 0.125000
0.437500 0.500000 0.125000
0.500000 0.500000 0.125000
0.562500 0.500000 0.125000
0.625000 0.500000 0.125000
0.687500 0.500000 0.125000
0.750000 0.500000 0.125000
0.812500 0.500000 0.125000
0.875000 0.500000 0.125000
0.937500 0.500000 0.125000
1.000000 0.500000 0.125000
0.000000 0.562500 0.125000
0.062500 0.562500 0.125000
0.125000 0.562500 0.125000
0.187500 0.562500 0.125000
0.250000 0.562500 0.125000
0.312500 0.562500 0.125000
0.375000 0.562500 0.125000
0.437500 0.562500 0.125000
0.500000 0.562500 0.125000
0.562500 0.562500 0.125000
0.625000 0.562500 0.125000
0.687500 0.562500 0.125000
0.750000 0.562500 0.125000
0.812500 0.562500 0.125000
0.875000 0.562500 0.125000
0.937500 0.562500 0.125000
1.000000 0.562500 0.125000
0.000000 0.625000 0.125000
0.062500 0.625000 0.125000
0.125000 0.625000 0.125000
0.187500 0.625000 0.125000
0.250000 0.625000 0.125000
0.312500 0.625000 0.125000
0.375000 0.625000 0.125000
0.437500 0.625000 0.125000
0.500000 0.625000 0.125000
0.562500 0.625000 0.125000
0.625000 0.625000 0.125000
0.687500 0.625000 0.125000
0.750000 0.625000 0.125000
0.812500 0.625000 0.125000
0.875000 0.625000 0.125000
0.938415 0.625457 0.123475
1.000000 0.626596 0.119679
0.000000 0.687500 0.125000
0.062500 0.687500 0.125000
0.125000 0.687500 0.125000
0.187500 0.687500 0.125000
0.250000 0.687500 0.125000
0.312500 0.687500 0.125000
0.375000 0.687500 0.125000
0.437500 0.687500 0.125000
0.500000 0.687500 0.125000
0.562500 0.687500 0.125000
0.625000 0.687500 0.125000
0.687500 0.687500 0.125000
0.751744 0.688372 0.122093
0.816522 0.689511 0.118296
0.881300 0.690650 0.114500
0.946078 0.691789 0.110704
1.000000 0.692928 0.106907
0.000000 0.750000 0.125000
0.062500 0.750000 0.125000
0.125000 0.750000 0.125000
0.187500 0.750000 0.125000
0.250000 0.750000 0.125000
0.312500 0.750000 0.125000
0.375000 0.750000 0.125000
0.437500 0.750000 0.125000
0.500296 0.750148 0.124507
0.565074 0.751287 0.120711
0.629851 0.752426 0.116914
0.694629 0.753565 0.113118
0.759407 0.754704 0.109321
0.824185 0.755842 0.105525
0.888963 0.756981 0.101729
0.953741 0.758120 0.097932
1.000000 0.759259 0.094136
0.000000 0.812500 0.125000
0.062500 0.812500 0.125000
0.125000 0.812500 0.125000
0.187500 0.812500 0.125000
0.250000 0.812500 0.125000
0.313625 0.813063 0.123125
0.378403 0.814201 0.119329
0.443181 0.815340 0.115532
0.507959 0.816479 0.111736
0.572736 0.817618 0.107939
0.637514 0.818757 0.104143
0.702292 0.819896 0.100346
0.767070 0.821035 0.096550
0.831848 0.822174 0.092754
0.896626 0.823313 0.088957
0.961404 0.824452 0.085161
1.000000 0.825591 0.081364
0.000000 0.875000 0.125000
0.062500 0.875000 0.125000
0.126954 0.875977 0.121743
0.191732 0.877116 0.117946
0.256510 0.878255 0.114150
0.321288 0.879394 0.110354
0.386066 0.880533 0.106557
0.450844 0.881672 0.102761
0.515621 0.882811 0.098964
0.580399 0.883950 0.095168
0.645177 0.885089 0.091371
0.709955 0.886227 0.087575
0.774733 0.887366 0.083779
0.839511 0.888505 0.079982
0.904289 0.889644 0.076186
0.969066 0.890783 0.072389
1.000000 0.891922 0.068593
0.005061 0.940031 0.116564
0.069839 0.941170 0.112768
0.134617 0.942309 0.108971
0.199395 0.943447 0.105175
0.264173 0.944586 0.101379
0.328951 0.945725 0.097582
0.393729 0.946864 0.093786
0.458506 0.948003 0.089989
0.523284 0.949142 0.086193
0.588062 0.950281 0.082396
0.652840 0.951420 0.078600
0.717618 0.952559 0.074804
0.782396 0.953698 0.071007
0.847174 0.954837 0.067211
0.911951 0.955976 0.063414
0.976729 0.957115 0.059618
1.000000 0.958254 0.055821
0.012724 1.000000 0.103793
0.077502 1.000000 0.099996
0.142280 1.000000 0.096200
0.207058 1.000000 0.092404
0.271836 1.000000 0.088607
0.336614 1.000000 0.084811
0.401391 1.000000 0.081014
0.466169 1.000000 0.077218
0.530947 1.000000 0.073421
0.595725 1.000000 0.069625
0.660503 1.000000 0.065829
0.725281 1.000000 0.062032
0.790059 1.000000 0.058236
0.854836 1.000000 0.054439
0.919614 1.000000 0.050643
0.984392 1.000000 0.046846
1.000000 1.000000 0.043050
0.000000 0.000000 0.283632
0.007099 0.000000 0.279836
0.071876 0.000000 0.276039
0.136654 0.000000 0.272243
0.201432 0.000000 0.268446
0.266210 0.000000 0.264650
0.330988 0.000000 0.260854
0.395766 0.000000 0.257057
0.460544 0.000000 0.253261
0.525321 0.000000 0.249464
0.590099 0.000000 0.245668
0.654877 0.000000 0.241871
0.719655 0.000000 0.238075
0.784433 0.000000 0.234279
0.849211 0.000000 0.230482
0.913989 0.000000 0.226686
0.978766 0.000000 0.222889
0.000000 0.037492 0.270861
0.014761 0.038631 0.267064
