lut_features/tests/fixtures/split_toning.cube
LUT_3D_SIZE 5
DOMAIN_MIN 0.0 0.0 0.0
DOMAIN_MAX 1.0 1.0 1.0
0.000000 0.000000 0.100000
0.199111 0.000000 0.084814
0.458223 0.000000 0.069629
0.717334 0.000000 0.054443
0.976446 0.000000 0.039257
0.000000 0.235326 0.048914
0.229763 0.239881 0.033729
0.488874 0.244437 0.018543
0.747986 0.248993 0.003357
1.000000 0.250000 0.000000
0.000000 0.500000 0.000000
0.250000 0.500000 0.000000
0.500000 0.500000 0.000000
0.750000 0.500000 0.000000
1.000000 0.500000 0.000000
0.000000 0.750000 0.000000
0.250000 0.750000 0.000000
0.500000 0.750000 0.000000
0.757860 0.753930 0.000000
1.000000 0.758486 0.000000
0.011177 1.000000 0.000000
0.270289 1.000000 0.000000
0.529400 1.000000 0.000000
0.788511 1.000000 0.000000
1.000000 1.000000 0.000000
0.000000 0.000000 0.344843
0.202206 0.000000 0.329657
0.461317 0.000000 0.314471
0.720429 0.000000 0.299286
0.979540 0.000000 0.284100
0.000000 0.236873 0.293757
0.232857 0.241429 0.278571
0.491969 0.245984 0.263386
0.750000 0.250000 0.250000
1.000000 0.250000 0.250000
0.000000 0.500000 0.250000
0.250000 0.500000 0.250000
0.500000 0.500000 0.250000
0.750000 0.500000 0.250000
1.000000 0.500000 0.250000
0.000000 0.750000 0.250000
0.250000 0.750000 0.250000
0.501843 0.750921 0.246929
0.760954 0.755477 0.231743
1.000000 0.760033 0.216557
0.014271 1.000000 0.226214
0.273383 1.000000 0.211029
0.532494 1.000000 0.195843
0.791606 1.000000 0.180657
1.000000 1.000000 0.165471
0.000000 0.000000 0.589686
0.205300 0.000000 0.574500
0.464411 0.000000 0.559314
0.723523 0.000000 0.544129
0.982634 0.000000 0.528943
0.000000 0.238420 0.538600
0.235951 0.242976 0.523414
0.495063 0.247531 0.508229
0.750000 0.250000 0.500000
1.000000 0.250000 0.500000
0.000000 0.500000 0.500000
0.250000 0.500000 0.500000
0.500000 0.500000 0.500000
0.750000 0.500000 0.500000
1.000000 0.500000 0.500000
0.000000 0.750000 0.500000
0.250000 0.750000 0.500000
0.504937 0.752469 0.491771
0.764049 0.757024 0.476586
1.000000 0.761580 0.461400
0.017366 1.000000 0.471057
0.276477 1.000000 0.455871
0.535589 1.000000 0.440686
0.794700 1.000000 0.425500
1.000000 1.000000 0.410314
0.000000 0.000000 0.834529
0.208394 0.000000 0.819343
0.467506 0.000000 0.804157
0.726617 0.000000 0.788971
0.985729 0.000000 0.773786
0.000000 0.239967 0.783443
0.239046 0.244523 0.768257
0.498157 0.249079 0.753071
0.750000 0.250000 0.750000
1.000000 0.250000 0.750000
0.000000 0.500000 0.750000
0.250000 0.500000 0.750000
0.500000 0.500000 0.750000
0.750000 0.500000 0.750000
1.000000 0.500000 0.750000
0.000000 0.750000 0.750000
0.250000 0.750000 0.750000
0.508031 0.754016 0.736614
0.767143 0.758571 0.721429
1.000000 0.763127 0.706243
0.020460 1.000000 0.715900
0.279571 1.000000 0.700714
0.538683 1.000000 0.685529
0.797794 1.000000 0.670343
1.000000 1.000000 0.655157
0.000000 0.000000 1.000000
0.211489 0.000000 1.000000
0.470600 0.000000 1.000000
0.729711 0.000000 1.000000
0.988823 0.000000 1.000000
0.000000 0.241514 1.000000
0.242140 0.246070 1.000000
0.500000 0.250000 1.000000
0.750000 0.250000 1.000000
1.000000 0.250000 1.000000
0.000000 0.500000 1.000000
0.250000 0.500000 1.000000
0.500000 0.500000 1.000000
0.750000 0.500000 1.000000
1.000000 0.500000 1.000000
0.000000 0.750000 1.000000
0.252014 0.751007 0.996643
0.511126 0.755563 0.981457
0.770237 0.760119 0.966271
1.000000 0.764674 0.951086
0.023554 1.000000 0.960743
0.282666 1.000000 0.945557
0.541777 1.000000 0.930371
0.800889 1.000000 0.915186
1.000000 1.000000 0.900000
