lut_features/tests/fixtures/split_toning.cube
LUT_3D_SIZE 9
DOMAIN_MIN 0.0 0.0 0.0
DOMAIN_MAX 1.0 1.0 1.0
0.000000 0.000000 0.100000
0.069556 0.000000 0.092407
0.199111 0.000000 0.084814
0.328667 0.000000 0.077221
0.458223 0.000000 0.069629
0.587779 0.000000 0.062036
0.717334 0.000000 0.054443
0.846890 0.000000 0.046850
0.976446 0.000000 0.039257
0.000000 0.102663 0.074457
0.084881 0.104941 0.066864
0.214437 0.107219 0.059271
0.343993 0.109496 0.051679
0.473549 0.111774 0.044086
0.603104 0.114052 0.036493
0.732660 0.116330 0.028900
0.862216 0.118608 0.021307
0.991771 0.120886 0.013714
0.000000 0.235326 0.048914
0.100207 0.237604 0.041321
0.229763 0.239881 0.033729
0.359319 0.242159 0.026136
0.488874 0.244437 0.018543
0.618430 0.246715 0.010950
0.747986 0.248993 0.003357
0.875000 0.250000 0.000000
1.000000 0.250000 0.000000
0.000000 0.367989 0.023371
0.115533 0.370266 0.015779
0.245089 0.372544 0.008186
0.374644 0.374822 0.000593
0.500000 0.375000 0.000000
0.625000 0.375000 0.000000
0.750000 0.375000 0.000000
0.875000 0.375000 0.000000
1.000000 0.375000 0.000000
0.000000 0.500000 0.000000
0.125000 0.500000 0.000000
0.250000 0.500000 0.000000
0.375000 0.500000 0.000000
0.500000 0.500000 0.000000
0.625000 0.500000 0.000000
0.750000 0.500000 0.000000
0.875000 0.500000 0.000000
1.000000 0.500000 0.000000
0.000000 0.625000 0.000000
0.125000 0.625000 0.000000
0.250000 0.625000 0.000000
0.375000 0.625000 0.000000
0.500000 0.625000 0.000000
0.625000 0.625000 0.000000
0.750000 0.625000 0.000000
0.875000 0.625000 0.000000
1.000000 0.625823 0.000000
0.000000 0.750000 0.000000
0.125000 0.750000 0.000000
0.250000 0.750000 0.000000
0.375000 0.750000 0.000000
0.500000 0.750000 0.000000
0.628304 0.751652 0.000000
0.757860 0.753930 0.000000
0.887416 0.756208 0.000000
1.000000 0.758486 0.000000
0.000000 0.875000 0.000000
0.125407 0.875204 0.000000
0.254963 0.877481 0.000000
0.384519 0.879759 0.000000
0.514074 0.882037 0.000000
0.643630 0.884315 0.000000
0.773186 0.886593 0.000000
0.902741 0.888871 0.000000
1.000000 0.891149 0.000000
0.011177 1.000000 0.000000
0.140733 1.000000 0.000000
0.270289 1.000000 0.000000
0.399844 1.000000 0.000000
0.529400 1.000000 0.000000
0.658956 1.000000 0.000000
0.788511 1.000000 0.000000
0.918067 1.000000 0.000000
1.000000 1.000000 0.000000
0.000000 0.000000 0.222421
0.071103 0.000000 0.214829
0.200659 0.000000 0.207236
0.330214 0.000000 0.199643
0.459770 0.000000 0.192050
0.589326 0.000000 0.184457
0.718881 0.000000 0.176864
0.848437 0.000000 0.169271
0.977993 0.000000 0.161679
0.000000 0.103436 0.196879
0.086429 0.105714 0.189286
0.215984 0.107992 0.181693
0.345540 0.110270 0.174100
0.475096 0.112548 0.166507
0.604651 0.114826 0.158914
0.734207 0.117104 0.151321
0.863763 0.119381 0.143729
0.993319 0.121659 0.136136
0.000000 0.236099 0.171336
0.101754 0.238377 0.163743
0.231310 0.240655 0.156150
0.360866 0.242933 0.148557
0.490421 0.245211 0.140964
0.619977 0.247489 0.133371
0.749533 0.249766 0.125779
0.875000 0.250000 0.125000
1.000000 0.250000 0.125000
0.000000 0.368762 0.145793
0.117080 0.371040 0.138200
0.246636 0.373318 0.130607
0.375000 0.375000 0.125000
0.500000 0.375000 0.125000
0.625000 0.375000 0.125000
0.750000 0.375000 0.125000
0.875000 0.375000 0.125000
1.000000 0.375000 0.125000
0.000000 0.500000 0.125000
0.125000 0.500000 0.125000
0.250000 0.500000 0.125000
0.375000 0.500000 0.125000
0.500000 0.500000 0.125000
0.625000 0.500000 0.125000
0.750000 0.500000 0.125000
0.875000 0.500000 0.125000
1.000000 0.500000 0.125000
0.000000 0.625000 0.125000
0.125000 0.625000 0.125000
0.250000 0.625000 0.125000
0.375000 0.625000 0.125000
0.500000 0.625000 0.125000
0.625000 0.625000 0.125000
0.750000 0.625000 0.125000
0.875000 0.625000 0.125000
1.000000 0.626596 0.119679
0.000000 0.750000 0.125000
0.125000 0.750000 0.125000
0.250000 0.750000 0.125000
0.375000 0.750000 0.125000
0.500296 0.750148 0.124507
0.629851 0.752426 0.116914
0.759407 0.754704 0.109321
0.888963 0.756981 0.101729
1.000000 0.759259 0.094136
0.000000 0.875000 0.125000
0.126954 0.875977 0.121743
0.256510 0.878255 0.114150
0.386066 0.880533 0.106557
0.515621 0.882811 0.098964
0.645177 0.885089 0.091371
0.774733 0.887366 0.083779
0.904289 0.889644 0.076186
1.000000 0.891922 0.068593
0.012724 1.000000 0.103793
0.142280 1.000000 0.096200
0.271836 1.000000 0.088607
0.401391 1.000000 0.081014
0.530947 1.000000 0.073421
0.660503 1.000000 0.065829
0.790059 1.000000 0.058236
0.919614 1.000000 0.050643
1.000000 1.000000 0.043050
0.000000 0.000000 0.344843
0.072650 0.000000 0.337250
0.202206 0.000000 0.329657
0.331761 0.000000 0.322064
0.461317 0.000000 0.314471
0.590873 0.000000 0.306879
0.720429 0.000000 0.299286
0.849984 0.000000 0.291693
0.979540 0.000000 0.284100
0.000000 0.104210 0.319300
0.087976 0.106488 0.311707
0.217531 0.108766 0.304114
0.347087 0.111044 0.296521
0.476643 0.113321 0.288929
0.606199 0.115599 0.281336
0.735754 0.117877 0.273743
0.865310 0.120155 0.266150
0.994866 0.122433 0.258557
0.000000 0.236873 0.293757
0.103301 0.239151 0.286164
0.232857 0.241429 0.278571
0.362413 0.243706 0.270979
0.491969 0.245984 0.263386
0.621524 0.248262 0.255793
0.750000 0.250000 0.250000
0.875000 0.250000 0.250000
1.000000 0.250000 0.250000
0.000000 0.369536 0.268214
0.118627 0.371814 0.260621
0.248183 0.374091 0.253029
0.375000 0.375000 0.250000
0.500000 0.375000 0.250000
0.625000 0.375000 0.250000
0.750000 0.375000 0.250000
0.875000 0.375000 0.250000
1.000000 0.375000 0.250000
0.000000 0.500000 0.250000
0.125000 0.500000 0.250000
0.250000 0.500000 0.250000
0.375000 0.500000 0.250000
0.500000 0.500000 0.250000
0.625000 0.500000 0.250000
0.750000 0.500000 0.250000
0.875000 0.500000 0.250000
1.000000 0.500000 0.250000
0.000000 0.625000 0.250000
0.125000 0.625000 0.250000
0.250000 0.625000 0.250000
0.375000 0.625000 0.250000
0.500000 0.625000 0.250000
0.625000 0.625000 0.250000
0.750000 0.625000 0.250000
0.875184 0.625092 0.249693
1.000000 0.627370 0.242100
0.000000 0.750000 0.250000
0.125000 0.750000 0.250000
0.250000 0.750000 0.250000
0.375000 0.750000 0.250000
0.501843 0.750921 0.246929
0.631399 0.753199 0.239336
0.760954 0.755477 0.231743
0.890510 0.757755 0.224150
1.000000 0.760033 0.216557
0.000000 0.875000 0.250000
0.128501 0.876751 0.244164
0.258057 0.879029 0.236571
0.387613 0.881306 0.228979
0.517169 0.883584 0.221386
0.646724 0.885862 0.213793
0.776280 0.888140 0.206200
0.905836 0.890418 0.198607
1.000000 0.892696 0.191014
0.014271 1.000000 0.226214
0.143827 1.000000 0.218621
0.273383 1.000000 0.211029
0.402939 1.000000 0.203436
0.532494 1.000000 0.195843
0.662050 1.000000 0.188250
0.791606 1.000000 0.180657
0.921161 1.000000 0.173064
1.000000 1.000000 0.165471
0.000000 0.000000 0.467264
0.074197 0.000000 0.459671
0.203753 0.000000 0.452079
0.333309 0.000000 0.444486
0.462864 0.000000 0.436893
0.592420 0.000000 0.429300
0.721976 0.000000 0.421707
0.851531 0.000000 0.414114
0.981087 0.000000 0.406521
0.000000 0.104984 0.441721
0.089523 0.107261 0.434129
0.219079 0.109539 0.426536
0.348634 0.111817 0.418943
0.478190 0.114095 0.411350
0.607746 0.116373 0.403757
0.737301 0.118651 0.396164
0.866857 0.120929 0.388571
0.996413 0.123206 0.380979
0.000000 0.237646 0.416179
0.104849 0.239924 0.408586
0.234404 0.242202 0.400993
0.363960 0.244480 0.393400
0.493516 0.246758 0.385807
0.623071 0.249036 0.378214
0.750000 0.250000 0.375000
0.875000 0.250000 0.375000
1.000000 0.250000 0.375000
0.000000 0.370309 0.390636
0.120174 0.372587 0.383043
0.249730 0.374865 0.375450
0.375000 0.375000 0.375000
0.500000 0.375000 0.375000
0.625000 0.375000 0.375000
0.750000 0.375000 0.375000
0.875000 0.375000 0.375000
1.000000 0.375000 0.375000
0.000000 0.500000 0.375000
0.125000 0.500000 0.375000
0.250000 0.500000 0.375000
0.375000 0.500000 0.375000
0.500000 0.500000 0.375000
0.625000 0.500000 0.375000
0.750000 0.500000 0.375000
0.875000 0.500000 0.375000
1.000000 0.500000 0.375000
0.000000 0.625000 0.375000
0.125000 0.625000 0.375000
0.250000 0.625000 0.375000
0.375000 0.625000 0.375000
0.500000 0.625000 0.375000
0.625000 0.625000 0.375000
0.750000 0.625000 0.375000
0.876731 0.625866 0.372114
1.000000 0.628144 0.364521
0.000000 0.750000 0.375000
0.125000 0.750000 0.375000
0.250000 0.750000 0.375000
0.375000 0.750000 0.375000
0.503390 0.751695 0.369350
0.632946 0.753973 0.361757
0.762501 0.756251 0.354164
0.892057 0.758529 0.346571
1.000000 0.760806 0.338979
0.000493 0.875246 0.374179
0.130049 0.877524 0.366586
0.259604 0.879802 0.358993
0.389160 0.882080 0.351400
0.518716 0.884358 0.343807
0.648271 0.886636 0.336214
0.777827 0.888914 0.328621
0.907383 0.891191 0.321029
1.000000 0.893469 0.313436
0.015819 1.000000 0.348636
0.145374 1.000000 0.341043
0.274930 1.000000 0.333450
0.404486 1.000000 0.325857
0.534041 1.000000 0.318264
0.663597 1.000000 0.310671
0.793153 1.000000 0.303079
0.922709 1.000000 0.295486
1.000000 1.000000 0.287893
0.000000 0.000000 0.589686
0.075744 0.000000 0.582093
0.205300 0.000000 0.574500
0.334856 0.000000 0.566907
0.464411 0.000000 0.559314
0.593967 0.000000 0.551721
0.723523 0.000000 0.544129
0.853079 0.000000 0.536536
0.982634 0.000000 0.528943
0.000000 0.105757 0.564143
0.091070 0.108035 0.556550
0.220626 0.110313 0.548957
0.350181 0.112591 0.541364
0.479737 0.114869 0.533771
0.609293 0.117146 0.526179
0.738849 0.119424 0.518586
0.868404 0.121702 0.510993
0.997960 0.123980 0.503400
0.000000 0.238420 0.538600
0.106396 0.240698 0.531007
0.235951 0.242976 0.523414
0.365507 0.245254 0.515821
0.495063 0.247531 0.508229
0.624619 0.249809 0.500636
0.750000 0.250000 0.500000
0.875000 0.250000 0.500000
1.000000 0.250000 0.500000
0.000000 0.371083 0.513057
0.121721 0.373361 0.505464
0.250000 0.375000 0.500000
0.375000 0.375000 0.500000
0.500000 0.375000 0.500000
0.625000 0.375000 0.500000
0.750000 0.375000 0.500000
0.875000 0.375000 0.500000
1.000000 0.375000 0.500000
0.000000 0.500000 0.500000
0.125000 0.500000 0.500000
0.250000 0.500000 0.500000
0.375000 0.500000 0.500000
0.500000 0.500000 0.500000
0.625000 0.500000 0.500000
0.750000 0.500000 0.500000
0.875000 0.500000 0.500000
1.000000 0.500000 0.500000
0.000000 0.625000 0.500000
0.125000 0.625000 0.500000
0.250000 0.625000 0.500000
0.375000 0.625000 0.500000
0.500000 0.625000 0.500000
0.625000 0.625000 0.500000
0.750000 0.625000 0.500000
0.878279 0.626639 0.494536
1.000000 0.628917 0.486943
0.000000 0.750000 0.500000
0.125000 0.750000 0.500000
0.250000 0.750000 0.500000
0.375381 0.750191 0.499364
0.504937 0.752469 0.491771
0.634493 0.754746 0.484179
0.764049 0.757024 0.476586
0.893604 0.759302 0.468993
1.000000 0.761580 0.461400
0.002040 0.876020 0.496600
0.131596 0.878298 0.489007
0.261151 0.880576 0.481414
0.390707 0.882854 0.473821
0.520263 0.885131 0.466229
0.649819 0.887409 0.458636
0.779374 0.889687 0.451043
0.908930 0.891965 0.443450
1.000000 0.894243 0.435857
0.017366 1.000000 0.471057
0.146921 1.000000 0.463464
0.276477 1.000000 0.455871
0.406033 1.000000 0.448279
0.535589 1.000000 0.440686
0.665144 1.000000 0.433093
0.794700 1.000000 0.425500
0.924256 1.000000 0.417907
1.000000 1.000000 0.410314
0.000000 0.000000 0.712107
0.077291 0.000000 0.704514
0.206847 0.000000 0.696921
0.336403 0.000000 0.689329
0.465959 0.000000 0.681736
0.595514 0.000000 0.674143
0.725070 0.000000 0.666550
0.854626 0.000000 0.658957
0.984181 0.000000 0.651364
0.000000 0.106531 0.686564
0.092617 0.108809 0.678971
0.222173 0.111086 0.671379
0.351729 0.113364 0.663786
0.481284 0.115642 0.656193
0.610840 0.117920 0.648600
0.740396 0.120198 0.641007
0.869951 0.122476 0.633414
0.999507 0.124754 0.625821
0.000000 0.239194 0.661021
0.107943 0.241471 0.653429
0.237499 0.243749 0.645836
0.367054 0.246027 0.638243
0.496610 0.248305 0.630650
0.625000 0.250000 0.625000
0.750000 0.250000 0.625000
0.875000 0.250000 0.625000
1.000000 0.250000 0.625000
0.000000 0.371856 0.635479
0.123269 0.374134 0.627886
0.250000 0.375000 0.625000
0.375000 0.375000 0.625000
0.500000 0.375000 0.625000
0.625000 0.375000 0.625000
0.750000 0.375000 0.625000
0.875000 0.375000 0.625000
1.000000 0.375000 0.625000
0.000000 0.500000 0.625000
0.125000 0.500000 0.625000
0.250000 0.500000 0.625000
0.375000 0.500000 0.625000
0.500000 0.500000 0.625000
0.625000 0.500000 0.625000
0.750000 0.500000 0.625000
0.875000 0.500000 0.625000
1.000000 0.500000 0.625000
0.000000 0.625000 0.625000
0.125000 0.625000 0.625000
0.250000 0.625000 0.625000
0.375000 0.625000 0.625000
0.500000 0.625000 0.625000
0.625000 0.625000 0.625000
0.750270 0.625135 0.624550
0.879826 0.627413 0.616957
1.000000 0.629691 0.609364
0.000000 0.750000 0.625000
0.125000 0.750000 0.625000
0.250000 0.750000 0.625000
0.376929 0.750964 0.621786
0.506484 0.753242 0.614193
0.636040 0.755520 0.606600
0.765596 0.757798 0.599007
0.895151 0.760076 0.591414
1.000000 0.762354 0.583821
0.003587 0.876794 0.619021
0.133143 0.879071 0.611429
0.262699 0.881349 0.603836
0.392254 0.883627 0.596243
0.521810 0.885905 0.588650
0.651366 0.888183 0.581057
0.780921 0.890461 0.573464
0.910477 0.892739 0.565871
1.000000 0.895016 0.558279
0.018913 1.000000 0.593479
0.148469 1.000000 0.585886
0.278024 1.000000 0.578293
0.407580 1.000000 0.570700
0.537136 1.000000 0.563107
0.666691 1.000000 0.555514
0.796247 1.000000 0.547921
0.925803 1.000000 0.540329
1.000000 1.000000 0.532736
0.000000 0.000000 0.834529
0.078839 0.000000 0.826936
0.208394 0.000000 0.819343
0.337950 0.000000 0.811750
0.467506 0.000000 0.804157
0.597061 0.000000 0.796564
0.726617 0.000000 0.788971
0.856173 0.000000 0.781379
0.985729 0.000000 0.773786
0.000000 0.107304 0.808986
0.094164 0.109582 0.801393
0.223720 0.111860 0.793800
0.353276 0.114138 0.786207
0.482831 0.116416 0.778614
0.612387 0.118694 0.771021
0.741943 0.120971 0.763429
0.871499 0.123249 0.755836
1.000000 0.125000 0.750000
0.000000 0.239967 0.783443
0.109490 0.242245 0.775850
0.239046 0.244523 0.768257
0.368601 0.246801 0.760664
0.498157 0.249079 0.753071
0.625000 0.250000 0.750000
0.750000 0.250000 0.750000
0.875000 0.250000 0.750000
1.000000 0.250000 0.750000
0.000000 0.372630 0.757900
0.124816 0.374908 0.750307
0.250000 0.375000 0.750000
0.375000 0.375000 0.750000
0.500000 0.375000 0.750000
0.625000 0.375000 0.750000
0.750000 0.375000 0.750000
0.875000 0.375000 0.750000
1.000000 0.375000 0.750000
0.000000 0.500000 0.750000
0.125000 0.500000 0.750000
0.250000 0.500000 0.750000
0.375000 0.500000 0.750000
0.500000 0.500000 0.750000
0.625000 0.500000 0.750000
0.750000 0.500000 0.750000
0.875000 0.500000 0.750000
1.000000 0.500000 0.750000
0.000000 0.625000 0.750000
0.125000 0.625000 0.750000
0.250000 0.625000 0.750000
0.375000 0.625000 0.750000
0.500000 0.625000 0.750000
0.625000 0.625000 0.750000
0.751817 0.625909 0.746971
0.881373 0.628186 0.739379
1.000000 0.630464 0.731786
0.000000 0.750000 0.750000
0.125000 0.750000 0.750000
0.250000 0.750000 0.750000
0.378476 0.751738 0.744207
0.508031 0.754016 0.736614
0.637587 0.756294 0.729021
0.767143 0.758571 0.721429
0.896699 0.760849 0.713836
1.000000 0.763127 0.706243
0.005134 0.877567 0.741443
0.134690 0.879845 0.733850
0.264246 0.882123 0.726257
0.393801 0.884401 0.718664
0.523357 0.886679 0.711071
0.652913 0.888956 0.703479
0.782469 0.891234 0.695886
0.912024 0.893512 0.688293
1.000000 0.895790 0.680700
0.020460 1.000000 0.715900
0.150016 1.000000 0.708307
0.279571 1.000000 0.700714
0.409127 1.000000 0.693121
0.538683 1.000000 0.685529
0.668239 1.000000 0.677936
0.797794 1.000000 0.670343
0.927350 1.000000 0.662750
1.000000 1.000000 0.655157
0.000000 0.000000 0.956950
0.080386 0.000000 0.949357
0.209941 0.000000 0.941764
0.339497 0.000000 0.934171
0.469053 0.000000 0.926579
0.598609 0.000000 0.918986
0.728164 0.000000 0.911393
0.857720 0.000000 0.903800
0.987276 0.000000 0.896207
0.000000 0.108078 0.931407
0.095711 0.110356 0.923814
0.225267 0.112634 0.916221
0.354823 0.114911 0.908629
0.484379 0.117189 0.901036
0.613934 0.119467 0.893443
0.743490 0.121745 0.885850
0.873046 0.124023 0.878257
1.000000 0.125000 0.875000
0.000000 0.240741 0.905864
0.111037 0.243019 0.898271
0.240593 0.245296 0.890679
0.370149 0.247574 0.883086
0.499704 0.249852 0.875493
0.625000 0.250000 0.875000
0.750000 0.250000 0.875000
0.875000 0.250000 0.875000
1.000000 0.250000 0.875000
0.000000 0.373404 0.880321
0.125000 0.375000 0.875000
0.250000 0.375000 0.875000
0.375000 0.375000 0.875000
0.500000 0.375000 0.875000
0.625000 0.375000 0.875000
0.750000 0.375000 0.875000
0.875000 0.375000 0.875000
1.000000 0.375000 0.875000
0.000000 0.500000 0.875000
0.125000 0.500000 0.875000
0.250000 0.500000 0.875000
0.375000 0.500000 0.875000
0.500000 0.500000 0.875000
0.625000 0.500000 0.875000
0.750000 0.500000 0.875000
0.875000 0.500000 0.875000
1.000000 0.500000 0.875000
0.000000 0.625000 0.875000
0.125000 0.625000 0.875000
0.250000 0.625000 0.875000
0.375000 0.625000 0.875000
0.500000 0.625000 0.875000
0.625000 0.625000 0.875000
0.753364 0.626682 0.869393
0.882920 0.628960 0.861800
1.000000 0.631238 0.854207
0.000000 0.750000 0.875000
0.125000 0.750000 0.875000
0.250467 0.750234 0.874221
0.380023 0.752511 0.866629
0.509579 0.754789 0.859036
0.639134 0.757067 0.851443
0.768690 0.759345 0.843850
0.898246 0.761623 0.836257
1.000000 0.763901 0.828664
0.006681 0.878341 0.863864
0.136237 0.880619 0.856271
0.265793 0.882896 0.848679
0.395349 0.885174 0.841086
0.524904 0.887452 0.833493
0.654460 0.889730 0.825900
0.784016 0.892008 0.818307
0.913571 0.894286 0.810714
1.000000 0.896564 0.803121
0.022007 1.000000 0.838321
0.151563 1.000000 0.830729
0.281119 1.000000 0.823136
0.410674 1.000000 0.815543
0.540230 1.000000 0.807950
0.669786 1.000000 0.800357
0.799341 1.000000 0.792764
0.928897 1.000000 0.785171
1.000000 1.000000 0.777579
0.000000 0.000000 1.000000
0.081933 0.000000 1.000000
0.211489 0.000000 1.000000
0.341044 0.000000 1.000000
0.470600 0.000000 1.000000
0.600156 0.000000 1.000000
0.729711 0.000000 1.000000
0.859267 0.000000 1.000000
0.988823 0.000000 1.000000
0.000000 0.108851 1.000000
0.097259 0.111129 1.000000
0.226814 0.113407 1.000000
0.356370 0.115685 1.000000
0.485926 0.117963 1.000000
0.615481 0.120241 1.000000
0.745037 0.122519 1.000000
0.874593 0.124796 1.000000
1.000000 0.125000 1.000000
0.000000 0.241514 1.000000
0.112584 0.243792 1.000000
0.242140 0.246070 1.000000
0.371696 0.248348 1.000000
0.500000 0.250000 1.000000
0.625000 0.250000 1.000000
0.750000 0.250000 1.000000
0.875000 0.250000 1.000000
1.000000 0.250000 1.000000
0.000000 0.374177 1.000000
0.125000 0.375000 1.000000
0.250000 0.375000 1.000000
0.375000 0.375000 1.000000
0.500000 0.375000 1.000000
0.625000 0.375000 1.000000
0.750000 0.375000 1.000000
0.875000 0.375000 1.000000
1.000000 0.375000 1.000000
0.000000 0.500000 1.000000
0.125000 0.500000 1.000000
0.250000 0.500000 1.000000
0.375000 0.500000 1.000000
0.500000 0.500000 1.000000
0.625000 0.500000 1.000000
0.750000 0.500000 1.000000
0.875000 0.500000 1.000000
1.000000 0.500000 1.000000
0.000000 0.625000 1.000000
0.125000 0.625000 1.000000
0.250000 0.625000 1.000000
0.375000 0.625000 1.000000
0.500000 0.625000 1.000000
0.625356 0.625178 0.999407
0.754911 0.627456 0.991814
0.884467 0.629734 0.984221
1.000000 0.632011 0.976629
0.000000 0.750000 1.000000
0.125000 0.750000 1.000000
0.252014 0.751007 0.996643
0.381570 0.753285 0.989050
0.511126 0.755563 0.981457
0.640681 0.757841 0.973864
0.770237 0.760119 0.966271
0.899793 0.762396 0.958679
1.000000 0.764674 0.951086
0.008229 0.879114 0.986286
0.137784 0.881392 0.978693
0.267340 0.883670 0.971100
0.396896 0.885948 0.963507
0.526451 0.888226 0.955914
0.656007 0.890504 0.948321
0.785563 0.892781 0.940729
0.915119 0.895059 0.933136
1.000000 0.897337 0.925543
0.023554 1.000000 0.960743
0.153110 1.000000 0.953150
0.282666 1.000000 0.945557
0.412221 1.000000 0.937964
0.541777 1.000000 0.930371
0.671333 1.000000 0.922779
0.800889 1.000000 0.915186
0.930444 1.000000 0.907593
1.000000 1.000000 0.900000
