lut_features/tests/fixtures/warm_shift.cube
LUT_3D_SIZE 17
DOMAIN_MIN 0.0 0.0 0.0
DOMAIN_MAX 1.0 1.0 1.0
0.070000 0.010000 0.000000
0.132500 0.010000 0.000000
0.195000 0.010000 0.000000
0.257500 0.010000 0.000000
0.320000 0.010000 0.000000
0.382500 0.010000 0.000000
0.445000 0.010000 0.000000
0.507500 0.010000 0.000000
0.570000 0.010000 0.000000
0.632500 0.010000 0.000000
0.695000 0.010000 0.000000
0.757500 0.010000 0.000000
0.820000 0.010000 0.000000
0.882500 0.010000 0.000000
0.945000 0.010000 0.000000
1.000000 0.010000 0.000000
1.000000 0.010000 0.000000
0.070000 0.072500 0.000000
0.132500 0.072500 0.000000
0.195000 0.072500 0.000000
0.257500 0.072500 0.000000
0.320000 0.072500 0.000000
0.382500 0.072500 0.000000
0.445000 0.072500 0.000000
0.507500 0.072500 0.000000
0.570000 0.072500 0.000000
0.632500 0.072500 0.000000
0.695000 0.072500 0.000000
0.757500 0.072500 0.000000
0.820000 0.072500 0.000000
0.882500 0.072500 0.000000
0.945000 0.072500 0.000000
1.000000 0.072500 0.000000
1.000000 0.072500 0.000000
0.070000 0.135000 0.000000
0.132500 0.135000 0.000000
0.195000 0.135000 0.000000
0.257500 0.135000 0.000000
0.320000 0.135000 0.000000
0.382500 0.135000 0.000000
0.445000 0.135000 0.000000
0.507500 0.135000 0.000000
0.570000 0.135000 0.000000
0.632500 0.135000 0.000000
0.695000 0.135000 0.000000
0.757500 0.135000 0.000000
0.820000 0.135000 0.000000
0.882500 0.135000 0.000000
0.945000 0.135000 0.000000
1.000000 0.135000 0.000000
1.000000 0.135000 0.000000
0.070000 0.197500 0.000000
0.132500 0.197500 0.000000
0.195000 0.197500 0.000000
0.257500 0.197500 0.000000
0.320000 0.197500 0.000000
0.382500 0.197500 0.000000
0.445000 0.197500 0.000000
0.507500 0.197500 0.000000
0.570000 0.197500 0.000000
0.632500 0.197500 0.000000
0.695000 0.197500 0.000000
0.757500 0.197500 0.000000
0.820000 0.197500 0.000000
0.882500 0.197500 0.000000
0.945000 0.197500 0.000000
1.000000 0.197500 0.000000
1.000000 0.197500 0.000000
0.070000 0.260000 0.000000
0.132500 0.260000 0.000000
0.195000 0.260000 0.000000
0.257500 0.260000 0.000000
0.320000 0.260000 0.000000
0.382500 0.260000 0.000000
0.445000 0.260000 0.000000
0.507500 0.260000 0.000000
0.570000 0.260000 0.000000
0.632500 0.260000 0.000000
0.695000 0.260000 0.000000
0.757500 0.260000 0.000000
0.820000 0.260000 0.000000
0.882500 0.260000 0.000000
0.945000 0.260000 0.000000
1.000000 0.260000 0.000000
1.000000 0.260000 0.000000
0.070000 0.322500 0.000000
0.132500 0.322500 0.000000
0.195000 0.322500 0.000000
0.257500 0.322500 0.000000
0.320000 0.322500 0.000000
0.382500 0.322500 0.000000
0.445000 0.322500 0.000000
0.507500 0.322500 0.000000
0.570000 0.322500 0.000000
0.632500 0.322500 0.000000
0.695000 0.322500 0.000000
0.757500 0.322500 0.000000
0.820000 0.322500 0.000000
0.882500 0.322500 0.000000
0.945000 0.322500 0.000000
1.000000 0.322500 0.000000
1.000000 0.322500 0.000000
0.070000 0.385000 0.000000
0.132500 0.385000 0.000000
0.195000 0.385000 0.000000
0.257500 0.385000 0.000000
0.320000 0.385000 0.000000
0.382500 0.385000 0.000000
0.445000 0.385000 0.000000
0.507500 0.385000 0.000000
0.570000 0.385000 0.000000
0.632500 0.385000 0.000000
0.695000 0.385000 0.000000
0.757500 0.385000 0.000000
0.820000 0.385000 0.000000
0.882500 0.385000 0.000000
0.945000 0.385000 0.000000
1.000000 0.385000 0.000000
1.000000 0.385000 0.000000
0.070000 0.447500 0.000000
0.132500 0.447500 0.000000
0.195000 0.447500 0.000000
0.257500 0.447500 0.000000
0.320000 0.447500 0.000000
0.382500 0.447500 0.000000
0.445000 0.447500 0.000000
0.507500 0.447500 0.000000
0.570000 0.447500 0.000000
0.632500 0.447500 0.000000
0.695000 0.447500 0.000000
0.757500 0.447500 0.000000
0.820000 0.447500 0.000000
0.882500 0.447500 0.000000
0.945000 0.447500 0.000000
1.000000 0.447500 0.000000
1.000000 0.447500 0.000000
0.070000 0.510000 0.000000
0.132500 0.510000 0.000000
0.195000 0.510000 0.000000
0.257500 0.510000 0.000000
0.320000 0.510000 0.000000
0.382500 0.510000 0.000000
0.445000 0.510000 0.000000
0.507500 0.510000 0.000000
0.570000 0.510000 0.000000
0.632500 0.510000 0.000000
0.695000 0.510000 0.000000
0.757500 0.510000 0.000000
0.820000 0.510000 0.000000
0.882500 0.510000 0.000000
0.945000 0.510000 0.000000
1.000000 0.510000 0.000000
1.000000 0.510000 0.000000
0.070000 0.572500 0.000000
0.132500 0.572500 0.000000
0.195000 0.572500 0.000000
0.257500 0.572500 0.000000
0.320000 0.572500 0.000000
0.382500 0.572500 0.000000
0.445000 0.572500 0.000000
0.507500 0.572500 0.000000
0.570000 0.572500 0.000000
0.632500 0.572500 0.000000
0.695000 0.572500 0.000000
0.757500 0.572500 0.000000
0.820000 0.572500 0.000000
0.882500 0.572500 0.000000
0.945000 0.572500 0.000000
1.000000 0.572500 0.000000
1.000000 0.572500 0.000000
0.070000 0.635000 0.000000
0.132500 0.635000 0.000000
0.195000 0.635000 0.000000
0.257500 0.635000 0.000000
0.320000 0.635000 0.000000
0.382500 0.635000 0.000000
0.445000 0.635000 0.000000
0.507500 0.635000 0.000000
0.570000 0.635000 0.000000
0.632500 0.635000 0.000000
0.695000 0.635000 0.000000
0.757500 0.635000 0.000000
0.820000 0.635000 0.000000
0.882500 0.635000 0.000000
0.945000 0.635000 0.000000
1.000000 0.635000 0.000000
1.000000 0.635000 0.000000
0.070000 0.697500 0.000000
0.132500 0.697500 0.000000
0.195000 0.697500 0.000000
0.257500 0.697500 0.000000
0.320000 0.697500 0.000000
0.382500 0.697500 0.000000
0.445000 0.697500 0.000000
0.507500 0.697500 0.000000
0.570000 0.697500 0.000000
0.632500 0.697500 0.000000
0.695000 0.697500 0.000000
0.757500 0.697500 0.000000
0.820000 0.697500 0.000000
0.882500 0.697500 0.000000
0.945000 0.697500 0.000000
1.000000 0.697500 0.000000
1.000000 0.697500 0.000000
0.070000 0.760000 0.000000
0.132500 0.760000 0.000000
0.195000 0.760000 0.000000
0.257500 0.760000 0.000000
0.320000 0.760000 0.000000
0.382500 0.760000 0.000000
0.445000 0.760000 0.000000
0.507500 0.760000 0.000000
0.570000 0.760000 0.000000
0.632500 0.760000 0.000000
0.695000 0.760000 0.000000
0.757500 0.760000 0.000000
0.820000 0.760000 0.000000
0.882500 0.760000 0.000000
0.945000 0.760000 0.000000
1.000000 0.760000 0.000000
1.000000 0.760000 0.000000
0.070000 0.822500 0.000000
0.132500 0.822500 0.000000
0.195000 0.822500 0.000000
0.257500 0.822500 0.000000
0.320000 0.822500 0.000000
0.382500 0.822500 0.000000
0.445000 0.822500 0.000000
0.507500 0.822500 0.000000
0.570000 0.822500 0.000000
0.632500 0.822500 0.000000
0.695000 0.822500 0.000000
0.757500 0.822500 0.000000
0.820000 0.822500 0.000000
0.882500 0.822500 0.000000
0.945000 0.822500 0.000000
1.000000 0.822500 0.000000
1.000000 0.822500 0.000000
0.070000 0.885000 0.000000
0.132500 0.885000 0.000000
0.195000 0.885000 0.000000
0.257500 0.885000 0.000000
0.320000 0.885000 0.000000
0.382500 0.885000 0.000000
0.445000 0.885000 0.000000
0.507500 0.885000 0.000000
0.570000 0.885000 0.000000
0.632500 0.885000 0.000000
0.695000 0.885000 0.000000
0.757500 0.885000 0.000000
0.820000 0.885000 0.000000
0.882500 0.885000 0.000000
0.945000 0.885000 0.000000
1.000000 0.885000 0.000000
1.000000 0.885000 0.000000
0.070000 0.947500 0.000000
0.132500 0.947500 0.000000
0.195000 0.947500 0.000000
0.257500 0.947500 0.000000
0.320000 0.947500 0.000000
0.382500 0.947500 0.000000
0.445000 0.947500 0.000000
0.507500 0.947500 0.000000
0.570000 0.947500 0.000000
0.632500 0.947500 0.000000
0.695000 0.947500 0.000000
0.757500 0.947500 0.000000
0.820000 0.947500 0.000000
0.882500 0.947500 0.000000
0.945000 0.947500 0.000000
1.000000 0.947500 0.000000
1.000000 0.947500 0.000000
0.070000 1.000000 0.000000
0.132500 1.000000 0.000000
0.195000 1.000000 0.000000
0.257500 1.000000 0.000000
0.320000 1.000000 0.000000
0.382500 1.000000 0.000000
0.445000 1.000000 0.000000
0.507500 1.000000 0.000000
0.570000 1.000000 0.000000
0.632500 1.000000 0.000000
0.695000 1.000000 0.000000
0.757500 1.000000 0.000000
0.820000 1.000000 0.000000
0.882500 1.000000 0.000000
0.945000 1.000000 0.000000
1.000000 1.000000 0.000000
1.000000 1.000000 0.000000
0.070000 0.010000 0.000000
0.132500 0.010000 0.000000
0.195000 0.010000 0.000000
0.257500 0.010000 0.000000
0.320000 0.010000 0.000000
0.382500 0.010000 0.000000
0.445000 0.010000 0.000000
0.507500 0.010000 0.000000
0.570000 0.010000 0.000000
0.632500 0.010000 0.000000
0.695000 0.010000 0.000000
0.757500 0.010000 0.000000
0.820000 0.010000 0.000000
0.882500 0.010000 0.000000
0.945000 0.010000 0.000000
1.000000 0.010000 0.000000
1.000000 0.010000 0.000000
0.070000 0.072500 0.000000
0.132500 0.072500 0.000000
0.195000 0.072500 0.000000
0.257500 0.072500 0.000000
0.320000 0.072500 0.000000
0.382500 0.072500 0.000000
0.445000 0.072500 0.000000
0.507500 0.072500 0.000000
0.570000 0.072500 0.000000
0.632500 0.072500 0.000000
0.695000 0.072500 0.000000
0.757500 0.072500 0.000000
0.820000 0.072500 0.000000
0.882500 0.072500 0.000000
0.945000 0.072500 0.000000
1.000000 0.072500 0.000000
1.000000 0.072500 0.000000
0.070000 0.135000 0.000000
0.132500 0.135000 0.000000
0.195000 0.135000 0.000000
0.257500 0.135000 0.000000
0.320000 0.135000 0.000000
0.382500 0.135000 0.000000
0.445000 0.135000 0.000000
0.507500 0.135000 0.000000
0.570000 0.135000 0.000000
0.632500 0.135000 0.000000
0.695000 0.135000 0.000000
0.757500 0.135000 0.000000
0.820000 0.135000 0.000000
0.882500 0.135000 0.000000
0.945000 0.135000 0.000000
1.000000 0.135000 0.000000
1.000000 0.135000 0.000000
0.070000 0.197500 0.000000
0.132500 0.197500 0.000000
0.195000 0.197500 0.000000
0.257500 0.197500 0.000000
0.320000 0.197500 0.000000
0.382500 0.197500 0.000000
0.445000 0.197500 0.000000
0.507500 0.197500 0.000000
0.570000 0.197500 0.000000
0.632500 0.197500 0.000000
0.695000 0.197500 0.000000
0.757500 0.197500 0.000000
0.820000 0.197500 0.000000
0.882500 0.197500 0.000000
0.945000 0.197500 0.000000
1.000000 0.197500 0.000000
1.000000 0.197500 0.000000
0.070000 0.260000 0.000000
0.132500 0.260000 0.000000
0.195000 0.260000 0.000000
0.257500 0.260000 0.000000
0.320000 0.260000 0.000000
0.382500 0.260000 0.000000
0.445000 0.260000 0.000000
0.507500 0.260000 0.000000
0.570000 0.260000 0.000000
0.632500 0.260000 0.000000
0.695000 0.260000 0.000000
0.757500 0.260000 0.000000
0.820000 0.260000 0.000000
0.882500 0.260000 0.000000
0.945000 0.260000 0.000000
1.000000 0.260000 0.000000
1.000000 0.260000 0.000000
0.070000 0.322500 0.000000
0.132500 0.322500 0.000000
0.195000 0.322500 0.000000
0.257500 0.322500 0.000000
0.320000 0.322500 0.000000
0.382500 0.322500 0.000000
0.445000 0.322500 0.000000
0.507500 0.322500 0.000000
0.570000 0.322500 0.000000
0.632500 0.322500 0.000000
0.695000 0.322500 0.000000
0.757500 0.322500 0.000000
0.820000 0.322500 0.000000
0.882500 0.322500 0.000000
0.945000 0.322500 0.000000
1.000000 0.322500 0.000000
1.000000 0.322500 0.000000
0.070000 0.385000 0.000000
0.132500 0.385000 0.000000
0.195000 0.385000 0.000000
0.257500 0.385000 0.000000
0.320000 0.385000 0.000000
0.382500 0.385000 0.000000
0.445000 0.385000 0.000000
0.507500 0.385000 0.000000
0.570000 0.385000 0.000000
0.632500 0.385000 0.000000
0.695000 0.385000 0.000000
0.757500 0.385000 0.000000
0.820000 0.385000 0.000000
0.882500 0.385000 0.000000
0.945000 0.385000 0.000000
1.000000 0.385000 0.000000
1.000000 0.385000 0.000000
0.070000 0.447500 0.000000
0.132500 0.447500 0.000000
0.195000 0.447500 0.000000
0.257500 0.447500 0.000000
0.320000 0.447500 0.000000
0.382500 0.447500 0.000000
0.445000 0.447500 0.000000
0.507500 0.447500 0.000000
0.570000 0.447500 0.000000
0.632500 0.447500 0.000000
0.695000 0.447500 0.000000
0.757500 0.447500 0.000000
0.820000 0.447500 0.000000
0.882500 0.447500 0.000000
0.945000 0.447500 0.000000
1.000000 0.447500 0.000000
1.000000 0.447500 0.000000
0.070000 0.510000 0.000000
0.132500 0.510000 0.000000
0.195000 0.510000 0.000000
0.257500 0.510000 0.000000
0.320000 0.510000 0.000000
0.382500 0.510000 0.000000
0.445000 0.510000 0.000000
0.507500 0.510000 0.000000
0.570000 0.510000 0.000000
0.632500 0.510000 0.000000
0.695000 0.510000 0.000000
0.757500 0.510000 0.000000
0.820000 0.510000 0.000000
0.882500 0.510000 0.000000
0.945000 0.510000 0.000000
1.000000 0.510000 0.000000
1.000000 0.510000 0.000000
0.070000 0.572500 0.000000
0.132500 0.572500 0.000000
0.195000 0.572500 0.000000
0.257500 0.572500 0.000000
0.320000 0.572500 0.000000
0.382500 0.572500 0.000000
0.445000 0.572500 0.000000
0.507500 0.572500 0.000000
0.570000 0.572500 0.000000
0.632500 0.572500 0.000000
0.695000 0.572500 0.000000
0.757500 0.572500 0.000000
0.820000 0.572500 0.000000
0.882500 0.572500 0.000000
0.945000 0.572500 0.000000
1.000000 0.572500 0.000000
1.000000 0.572500 0.000000
0.070000 0.635000 0.000000
0.132500 0.635000 0.000000
0.195000 0.635000 0.000000
0.257500 0.635000 0.000000
0.320000 0.635000 0.000000
0.382500 0.635000 0.000000
0.445000 0.635000 0.000000
0.507500 0.635000 0.000000
0.570000 0.635000 0.000000
0.632500 0.635000 0.000000
0.695000 0.635000 0.000000
0.757500 0.635000 0.000000
0.820000 0.635000 0.000000
0.882500 0.635000 0.000000
0.945000 0.635000 0.000000
1.000000 0.635000 0.000000
1.000000 0.635000 0.000000
0.070000 0.697500 0.000000
0.132500 0.697500 0.000000
0.195000 0.697500 0.000000
0.257500 0.697500 0.000000
0.320000 0.697500 0.000000
0.382500 0.697500 0.000000
0.445000 0.697500 0.000000
0.507500 0.697500 0.000000
0.570000 0.697500 0.000000
0.632500 0.697500 0.000000
0.695000 0.697500 0.000000
0.757500 0.697500 0.000000
0.820000 0.697500 0.000000
0.882500 0.697500 0.000000
0.945000 0.697500 0.000000
1.000000 0.697500 0.000000
1.000000 0.697500 0.000000
0.070000 0.760000 0.000000
0.132500 0.760000 0.000000
0.195000 0.760000 0.000000
0.257500 0.760000 0.000000
0.320000 0.760000 0.000000
0.382500 0.760000 0.000000
0.445000 0.760000 0.000000
0.507500 0.760000 0.000000
0.570000 0.760000 0.000000
0.632500 0.760000 0.000000
0.695000 0.760000 0.000000
0.757500 0.760000 0.000000
0.820000 0.760000 0.000000
0.882500 0.760000 0.000000
0.945000 0.760000 0.000000
1.000000 0.760000 0.000000
1.000000 0.760000 0.000000
0.070000 0.822500 0.000000
0.132500 0.822500 0.000000
0.195000 0.822500 0.000000
0.257500 0.822500 0.000000
0.320000 0.822500 0.000000
0.382500 0.822500 0.000000
0.445000 0.822500 0.000000
0.507500 0.822500 0.000000
0.570000 0.822500 0.000000
0.632500 0.822500 0.000000
0.695000 0.822500 0.000000
0.757500 0.822500 0.000000
0.820000 0.822500 0.000000
0.882500 0.822500 0.000000
0.945000 0.822500 0.000000
1.000000 0.822500 0.000000
1.000000 0.822500 0.000000
0.070000 0.885000 0.000000
0.132500 0.885000 0.000000
0.195000 0.885000 0.000000
0.257500 0.885000 0.000000
0.320000 0.885000 0.000000
0.382500 0.885000 0.000000
0.445000 0.885000 0.000000
0.507500 0.885000 0.000000
0.570000 0.885000 0.000000
0.632500 0.885000 0.000000
0.695000 0.885000 0.000000
0.757500 0.885000 0.000000
0.820000 0.885000 0.000000
0.882500 0.885000 0.000000
0.945000 0.885000 0.000000
1.000000 0.885000 0.000000
1.000000 0.885000 0.000000
0.070000 0.947500 0.000000
0.132500 0.947500 0.000000
0.195000 0.947500 0.000000
0.257500 0.947500 0.000000
0.320000 0.947500 0.000000
0.382500 0.947500 0.000000
0.445000 0.947500 0.000000
0.507500 0.947500 0.000000
0.570000 0.947500 0.000000
0.632500 0.947500 0.000000
0.695000 0.947500 0.000000
0.757500 0.947500 0.000000
0.820000 0.947500 0.000000
0.882500 0.947500 0.000000
0.945000 0.947500 0.000000
1.000000 0.947500 0.000000
1.000000 0.947500 0.000000
0.070000 1.000000 0.000000
0.132500 1.000000 0.000000
0.195000 1.000000 0.000000
0.257500 1.000000 0.000000
0.320000 1.000000 0.000000
0.382500 1.000000 0.000000
0.445000 1.000000 0.000000
0.507500 1.000000 0.000000
0.570000 1.000000 0.000000
0.632500 1.000000 0.000000
0.695000 1.000000 0.000000
0.757500 1.000000 0.000000
0.820000 1.000000 0.000000
0.882500 1.000000 0.000000
0.945000 1.000000 0.000000
1.000000 1.000000 0.000000
1.000000 1.000000 0.000000
0.070000 0.010000 0.055000
0.132500 0.010000 0.055000
0.195000 0.010000 0.055000
0.257500 0.010000 0.055000
0.320000 0.010000 0.055000
0.382500 0.010000 0.055000
0.445000 0.010000 0.055000
0.507500 0.010000 0.055000
0.570000 0.010000 0.055000
0.632500 0.010000 0.055000
0.695000 0.010000 0.055000
0.757500 0.010000 0.055000
0.820000 0.010000 0.055000
0.882500 0.010000 0.055000
0.945000 0.010000 0.055000
1.000000 0.010000 0.055000
1.000000 0.010000 0.055000
0.070000 0.072500 0.055000
0.132500 0.072500 0.055000
0.195000 0.072500 0.055000
0.257500 0.072500 0.055000
0.320000 0.072500 0.055000
0.382500 0.072500 0.055000
0.445000 0.072500 0.055000
0.507500 0.072500 0.055000
0.570000 0.072500 0.055000
0.632500 0.072500 0.055000
0.695000 0.072500 0.055000
0.757500 0.072500 0.055000
0.820000 0.072500 0.055000
0.882500 0.072500 0.055000
0.945000 0.072500 0.055000
1.000000 0.072500 0.055000
1.000000 0.072500 0.055000
0.070000 0.135000 0.055000
0.132500 0.135000 0.055000
0.195000 0.135000 0.055000
0.257500 0.135000 0.055000
0.320000 0.135000 0.055000
0.382500 0.135000 0.055000
0.445000 0.135000 0.055000
0.507500 0.135000 0.055000
0.570000 0.135000 0.055000
0.632500 0.135000 0.055000
0.695000 0.135000 0.055000
0.757500 0.135000 0.055000
0.820000 0.135000 0.055000
0.882500 0.135000 0.055000
0.945000 0.135000 0.055000
1.000000 0.135000 0.055000
1.000000 0.135000 0.055000
0.070000 0.197500 0.055000
0.132500 0.197500 0.055000
0.195000 0.197500 0.055000
0.257500 0.197500 0.055000
0.320000 0.197500 0.055000
0.382500 0.197500 0.055000
0.445000 0.197500 0.055000
0.507500 0.197500 0.055000
0.570000 0.197500 0.055000
0.632500 0.197500 0.055000
0.695000 0.197500 0.055000
0.757500 0.197500 0.055000
0.820000 0.197500 0.055000
0.882500 0.197500 0.055000
0.945000 0.197500 0.055000
1.000000 0.197500 0.055000
1.000000 0.197500 0.055000
0.070000 0.260000 0.055000
0.132500 0.260000 0.055000
0.195000 0.260000 0.055000
0.257500 0.260000 0.055000
0.320000 0.260000 0.055000
0.382500 0.260000 0.055000
0.445000 0.260000 0.055000
0.507500 0.260000 0.055000
0.570000 0.260000 0.055000
0.632500 0.260000 0.055000
0.695000 0.260000 0.055000
0.757500 0.260000 0.055000
0.820000 0.260000 0.055000
0.882500 0.260000 0.055000
0.945000 0.260000 0.055000
1.000000 0.260000 0.055000
1.000000 0.260000 0.055000
0.070000 0.322500 0.055000
0.132500 0.322500 0.055000
0.195000 0.322500 0.055000
0.257500 0.322500 0.055000
0.320000 0.322500 0.055000
0.382500 0.322500 0.055000
0.445000 0.322500 0.055000
0.507500 0.322500 0.055000
0.570000 0.322500 0.055000
0.632500 0.322500 0.055000
0.695000 0.322500 0.055000
0.757500 0.322500 0.055000
0.820000 0.322500 0.055000
0.882500 0.322500 0.055000
0.945000 0.322500 0.055000
1.000000 0.322500 0.055000
1.000000 0.322500 0.055000
0.070000 0.385000 0.055000
0.132500 0.385000 0.055000
0.195000 0.385000 0.055000
0.257500 0.385000 0.055000
0.320000 0.385000 0.055000
0.382500 0.385000 0.055000
0.445000 0.385000 0.055000
0.507500 0.385000 0.055000
0.570000 0.385000 0.055000
0.632500 0.385000 0.055000
0.695000 0.385000 0.055000
0.757500 0.385000 0.055000
0.820000 0.385000 0.055000
0.882500 0.385000 0.055000
0.945000 0.385000 0.055000
1.000000 0.385000 0.055000
1.000000 0.385000 0.055000
0.070000 0.447500 0.055000
0.132500 0.447500 0.055000
0.195000 0.447500 0.055000
0.257500 0.447500 0.055000
0.320000 0.447500 0.055000
0.382500 0.447500 0.055000
0.445000 0.447500 0.055000
0.507500 0.447500 0.055000
0.570000 0.447500 0.055000
0.632500 0.447500 0.055000
0.695000 0.447500 0.055000
0.757500 0.447500 0.055000
0.820000 0.447500 0.055000
0.882500 0.447500 0.055000
0.945000 0.447500 0.055000
1.000000 0.447500 0.055000
1.000000 0.447500 0.055000
0.070000 0.510000 0.055000
0.132500 0.510000 0.055000
0.195000 0.510000 0.055000
0.257500 0.510000 0.055000
0.320000 0.510000 0.055000
0.382500 0.510000 0.055000
0.445000 0.510000 0.055000
0.507500 0.510000 0.055000
0.570000 0.510000 0.055000
0.632500 0.510000 0.055000
0.695000 0.510000 0.055000
0.757500 0.510000 0.055000
0.820000 0.510000 0.055000
0.882500 0.510000 0.055000
0.945000 0.510000 0.055000
1.000000 0.510000 0.055000
1.000000 0.510000 0.055000
0.070000 0.572500 0.055000
0.132500 0.572500 0.055000
0.195000 0.572500 0.055000
0.257500 0.572500 0.055000
0.320000 0.572500 0.055000
0.382500 0.572500 0.055000
0.445000 0.572500 0.055000
0.507500 0.572500 0.055000
0.570000 0.572500 0.055000
0.632500 0.572500 0.055000
0.695000 0.572500 0.055000
0.757500 0.572500 0.055000
0.820000 0.572500 0.055000
0.882500 0.572500 0.055000
0.945000 0.572500 0.055000
1.000000 0.572500 0.055000
1.000000 0.572500 0.055000
0.070000 0.635000 0.055000
0.132500 0.635000 0.055000
0.195000 0.635000 0.055000
0.257500 0.635000 0.055000
0.320000 0.635000 0.055000
0.382500 0.635000 0.055000
0.445000 0.635000 0.055000
0.507500 0.635000 0.055000
0.570000 0.635000 0.055000
0.632500 0.635000 0.055000
0.695000 0.635000 0.055000
0.757500 0.635000 0.055000
0.820000 0.635000 0.055000
0.882500 0.635000 0.055000
0.945000 0.635000 0.055000
1.000000 0.635000 0.055000
1.000000 0.635000 0.055000
0.070000 0.697500 0.055000
0.132500 0.697500 0.055000
0.195000 0.697500 0.055000
0.257500 0.697500 0.055000
0.320000 0.697500 0.055000
0.382500 0.697500 0.055000
0.445000 0.697500 0.055000
0.507500 0.697500 0.055000
0.570000 0.697500 0.055000
0.632500 0.697500 0.055000
0.695000 0.697500 0.055000
0.757500 0.697500 0.055000
0.820000 0.697500 0.055000
0.882500 0.697500 0.055000
0.945000 0.697500 0.055000
1.000000 0.697500 0.055000
1.000000 0.697500 0.055000
0.070000 0.760000 0.055000
0.132500 0.760000 0.055000
0.195000 0.760000 0.055000
0.257500 0.760000 0.055000
0.320000 0.760000 0.055000
0.382500 0.760000 0.055000
0.445000 0.760000 0.055000
0.507500 0.760000 0.055000
0.570000 0.760000 0.055000
0.632500 0.760000 0.055000
0.695000 0.760000 0.055000
0.757500 0.760000 0.055000
0.820000 0.760000 0.055000
0.882500 0.760000 0.055000
0.945000 0.760000 0.055000
1.000000 0.760000 0.055000
1.000000 0.760000 0.055000
0.070000 0.822500 0.055000
0.132500 0.822500 0.055000
0.195000 0.822500 0.055000
0.257500 0.822500 0.055000
0.320000 0.822500 0.055000
0.382500 0.822500 0.055000
0.445000 0.822500 0.055000
0.507500 0.822500 0.055000
0.570000 0.822500 0.055000
0.632500 0.822500 0.055000
0.695000 0.822500 0.055000
0.757500 0.822500 0.055000
0.820000 0.822500 0.055000
0.882500 0.822500 0.055000
0.945000 0.822500 0.055000
1.000000 0.822500 0.055000
1.000000 0.822500 0.055000
0.070000 0.885000 0.055000
0.132500 0.885000 0.055000
0.195000 0.885000 0.055000
0.257500 0.885000 0.055000
0.320000 0.885000 0.055000
0.382500 0.885000 0.055000
0.445000 0.885000 0.055000
0.507500 0.885000 0.055000
0.570000 0.885000 0.055000
0.632500 0.885000 0.055000
0.695000 0.885000 0.055000
0.757500 0.885000 0.055000
0.820000 0.885000 0.055000
0.882500 0.885000 0.055000
0.945000 0.885000 0.055000
1.000000 0.885000 0.055000
1.000000 0.885000 0.055000
0.070000 0.947500 0.055000
0.132500 0.947500 0.055000
0.195000 0.947500 0.055000
0.257500 0.947500 0.055000
0.320000 0.947500 0.055000
0.382500 0.947500 0.055000
0.445000 0.947500 0.055000
0.507500 0.947500 0.055000
0.570000 0.947500 0.055000
0.632500 0.947500 0.055000
0.695000 0.947500 0.055000
0.757500 0.947500 0.055000
0.820000 0.947500 0.055000
0.882500 0.947500 0.055000
0.945000 0.947500 0.055000
1.000000 0.947500 0.055000
1.000000 0.947500 0.055000
0.070000 1.000000 0.055000
0.132500 1.000000 0.055000
0.195000 1.000000 0.055000
0.257500 1.000000 0.055000
0.320000 1.000000 0.055000
0.382500 1.000000 0.055000
0.445000 1.000000 0.055000
0.507500 1.000000 0.055000
0.570000 1.000000 0.055000
0.632500 1.000000 0.055000
0.695000 1.000000 0.055000
0.757500 1.000000 0.055000
0.820000 1.000000 0.055000
0.882500 1.000000 0.055000
0.945000 1.000000 0.055000
1.000000 1.000000 0.055000
1.000000 1.000000 0.055000
0.070000 0.010000 0.117500
0.132500 0.010000 0.117500
0.195000 0.010000 0.117500
0.257500 0.010000 0.117500
0.320000 0.010000 0.117500
0.382500 0.010000 0.117500
0.445000 0.010000 0.117500
0.507500 0.010000 0.117500
0.570000 0.010000 0.117500
0.632500 0.010000 0.117500
0.695000 0.010000 0.117500
0.757500 0.010000 0.117500
0.820000 0.010000 0.117500
0.882500 0.010000 0.117500
0.945000 0.010000 0.117500
1.000000 0.010000 0.117500
1.000000 0.010000 0.117500
0.070000 0.072500 0.117500
0.132500 0.072500 0.117500
