lut_features/tests/fixtures/warm_shift.cube
LUT_3D_SIZE 9
DOMAIN_MIN 0.0 0.0 0.0
DOMAIN_MAX 1.0 1.0 1.0
0.070000 0.010000 0.000000
0.195000 0.010000 0.000000
0.320000 0.010000 0.000000
0.445000 0.010000 0.000000
0.570000 0.010000 0.000000
0.695000 0.010000 0.000000
0.820000 0.010000 0.000000
0.945000 0.010000 0.000000
1.000000 0.010000 0.000000
0.070000 0.135000 0.000000
0.195000 0.135000 0.000000
0.320000 0.135000 0.000000
0.445000 0.135000 0.000000
0.570000 0.135000 0.000000
0.695000 0.135000 0.000000
0.820000 0.135000 0.000000
0.945000 0.135000 0.000000
1.000000 0.135000 0.000000
0.070000 0.260000 0.000000
0.195000 0.260000 0.000000
0.320000 0.260000 0.000000
0.445000 0.260000 0.000000
0.570000 0.260000 0.000000
0.695000 0.260000 0.000000
0.820000 0.260000 0.000000
0.945000 0.260000 0.000000
1.000000 0.260000 0.000000
0.070000 0.385000 0.000000
0.195000 0.385000 0.000000
0.320000 0.385000 0.000000
0.445000 0.385000 0.000000
0.570000 0.385000 0.000000
0.695000 0.385000 0.000000
0.820000 0.385000 0.000000
0.945000 0.385000 0.000000
1.000000 0.385000 0.000000
0.070000 0.510000 0.000000
0.195000 0.510000 0.000000
0.320000 0.510000 0.000000
0.445000 0.510000 0.000000
0.570000 0.510000 0.000000
0.695000 0.510000 0.000000
0.820000 0.510000 0.000000
0.945000 0.510000 0.000000
1.000000 0.510000 0.000000
0.070000 0.635000 0.000000
0.195000 0.635000 0.000000
0.320000 0.635000 0.000000
0.445000 0.635000 0.000000
0.570000 0.635000 0.000000
0.695000 0.635000 0.000000
0.820000 0.635000 0.000000
0.945000 0.635000 0.000000
1.000000 0.635000 0.000000
0.070000 0.760000 0.000000
0.195000 0.760000 0.000000
0.320000 0.760000 0.000000
0.445000 0.760000 0.000000
0.570000 0.760000 0.000000
0.695000 0.760000 0.000000
0.820000 0.760000 0.000000
0.945000 0.760000 0.000000
1.000000 0.760000 0.000000
0.070000 0.885000 0.000000
0.195000 0.885000 0.000000
0.320000 0.885000 0.000000
0.445000 0.885000 0.000000
0.570000 0.885000 0.000000
0.695000 0.885000 0.000000
0.820000 0.885000 0.000000
0.945000 0.885000 0.000000
1.000000 0.885000 0.000000
0.070000 1.000000 0.000000
0.195000 1.000000 0.000000
0.320000 1.000000 0.000000
0.445000 1.000000 0.000000
0.570000 1.000000 0.000000
0.695000 1.000000 0.000000
0.820000 1.000000 0.000000
0.945000 1.000000 0.000000
1.000000 1.000000 0.000000
0.070000 0.010000 0.055000
0.195000 0.010000 0.055000
0.320000 0.010000 0.055000
0.445000 0.010000 0.055000
0.570000 0.010000 0.055000
0.695000 0.010000 0.055000
0.820000 0.010000 0.055000
0.945000 0.010000 0.055000
1.000000 0.010000 0.055000
0.070000 0.135000 0.055000
0.195000 0.135000 0.055000
0.320000 0.135000 0.055000
0.445000 0.135000 0.055000
0.570000 0.135000 0.055000
0.695000 0.135000 0.055000
0.820000 0.135000 0.055000
0.945000 0.135000 0.055000
1.000000 0.135000 0.055000
0.070000 0.260000 0.055000
0.195000 0.260000 0.055000
0.320000 0.260000 0.055000
0.445000 0.260000 0.055000
0.570000 0.260000 0.055000
0.695000 0.260000 0.055000
0.820000 0.260000 0.055000
0.945000 0.260000 0.055000
1.000000 0.260000 0.055000
0.070000 0.385000 0.055000
0.195000 0.385000 0.055000
0.320000 0.385000 0.055000
0.445000 0.385000 0.055000
0.570000 0.385000 0.055000
0.695000 0.385000 0.055000
0.820000 0.385000 0.055000
0.945000 0.385000 0.055000
1.000000 0.385000 0.055000
0.070000 0.510000 0.055000
0.195000 0.510000 0.055000
0.320000 0.510000 0.055000
0.445000 0.510000 0.055000
0.570000 0.510000 0.055000
0.695000 0.510000 0.055000
0.820000 0.510000 0.055000
0.945000 0.510000 0.055000
1.000000 0.510000 0.055000
0.070000 0.635000 0.055000
0.195000 0.635000 0.055000
0.320000 0.635000 0.055000
0.445000 0.635000 0.055000
0.570000 0.635000 0.055000
0.695000 0.635000 0.055000
0.820000 0.635000 0.055000
0.945000 0.635000 0.055000
1.000000 0.635000 0.055000
0.070000 0.760000 0.055000
0.195000 0.760000 0.055000
0.320000 0.760000 0.055000
0.445000 0.760000 0.055000
0.570000 0.760000 0.055000
0.695000 0.760000 0.055000
0.820000 0.760000 0.055000
0.945000 0.760000 0.055000
1.000000 0.760000 0.055000
0.070000 0.885000 0.055000
0.195000 0.885000 0.055000
0.320000 0.885000 0.055000
0.445000 0.885000 0.055000
0.570000 0.885000 0.055000
0.695000 0.885000 0.055000
0.820000 0.885000 0.055000
0.945000 0.885000 0.055000
1.000000 0.885000 0.055000
0.070000 1.000000 0.055000
0.195000 1.000000 0.055000
0.320000 1.000000 0.055000
0.445000 1.000000 0.055000
0.570000 1.000000 0.055000
0.695000 1.000000 0.055000
0.820000 1.000000 0.055000
0.945000 1.000000 0.055000
1.000000 1.000000 0.055000
0.070000 0.010000 0.180000
0.195000 0.010000 0.180000
0.320000 0.010000 0.180000
0.445000 0.010000 0.180000
0.570000 0.010000 0.180000
0.695000 0.010000 0.180000
0.820000 0.010000 0.180000
0.945000 0.010000 0.180000
1.000000 0.010000 0.180000
0.070000 0.135000 0.180000
0.195000 0.135000 0.180000
0.320000 0.135000 0.180000
0.445000 0.135000 0.180000
0.570000 0.135000 0.180000
0.695000 0.135000 0.180000
0.820000 0.135000 0.180000
0.945000 0.135000 0.180000
1.000000 0.135000 0.180000
0.070000 0.260000 0.180000
0.195000 0.260000 0.180000
0.320000 0.260000 0.180000
0.445000 0.260000 0.180000
0.570000 0.260000 0.180000
0.695000 0.260000 0.180000
0.820000 0.260000 0.180000
0.945000 0.260000 0.180000
1.000000 0.260000 0.180000
0.070000 0.385000 0.180000
0.195000 0.385000 0.180000
0.320000 0.385000 0.180000
0.445000 0.385000 0.180000
0.570000 0.385000 0.180000
0.695000 0.385000 0.180000
0.820000 0.385000 0.180000
0.945000 0.385000 0.180000
1.000000 0.385000 0.180000
0.070000 0.510000 0.180000
0.195000 0.510000 0.180000
0.320000 0.510000 0.180000
0.445000 0.510000 0.180000
0.570000 0.510000 0.180000
0.695000 0.510000 0.180000
0.820000 0.510000 0.180000
0.945000 0.510000 0.180000
1.000000 0.510000 0.180000
0.070000 0.635000 0.180000
0.195000 0.635000 0.180000
0.320000 0.635000 0.180000
0.445000 0.635000 0.180000
0.570000 0.635000 0.180000
0.695000 0.635000 0.180000
0.820000 0.635000 0.180000
0.945000 0.635000 0.180000
1.000000 0.635000 0.180000
0.070000 0.760000 0.180000
0.195000 0.760000 0.180000
0.320000 0.760000 0.180000
0.445000 0.760000 0.180000
0.570000 0.760000 0.180000
0.695000 0.760000 0.180000
0.820000 0.760000 0.180000
0.945000 0.760000 0.180000
1.000000 0.760000 0.180000
0.070000 0.885000 0.180000
0.195000 0.885000 0.180000
0.320000 0.885000 0.180000
0.445000 0.885000 0.180000
0.570000 0.885000 0.180000
0.695000 0.885000 0.180000
0.820000 0.885000 0.180000
0.945000 0.885000 0.180000
1.000000 0.885000 0.180000
0.070000 1.000000 0.180000
0.195000 1.000000 0.180000
0.320000 1.000000 0.180000
0.445000 1.000000 0.180000
0.570000 1.000000 0.180000
0.695000 1.000000 0.180000
0.820000 1.000000 0.180000
0.945000 1.000000 0.180000
1.000000 1.000000 0.180000
0.070000 0.010000 0.305000
0.195000 0.010000 0.305000
0.320000 0.010000 0.305000
0.445000 0.010000 0.305000
0.570000 0.010000 0.305000
0.695000 0.010000 0.305000
0.820000 0.010000 0.305000
0.945000 0.010000 0.305000
1.000000 0.010000 0.305000
0.070000 0.135000 0.305000
0.195000 0.135000 0.305000
0.320000 0.135000 0.305000
0.445000 0.135000 0.305000
0.570000 0.135000 0.305000
0.695000 0.135000 0.305000
0.820000 0.135000 0.305000
0.945000 0.135000 0.305000
1.000000 0.135000 0.305000
0.070000 0.260000 0.305000
0.195000 0.260000 0.305000
0.320000 0.260000 0.305000
0.445000 0.260000 0.305000
0.570000 0.260000 0.305000
0.695000 0.260000 0.305000
0.820000 0.260000 0.305000
0.945000 0.260000 0.305000
1.000000 0.260000 0.305000
0.070000 0.385000 0.305000
0.195000 0.385000 0.305000
0.320000 0.385000 0.305000
0.445000 0.385000 0.305000
0.570000 0.385000 0.305000
0.695000 0.385000 0.305000
0.820000 0.385000 0.305000
0.945000 0.385000 0.305000
1.000000 0.385000 0.305000
0.070000 0.510000 0.305000
0.195000 0.510000 0.305000
0.320000 0.510000 0.305000
0.445000 0.510000 0.305000
0.570000 0.510000 0.305000
0.695000 0.510000 0.305000
0.820000 0.510000 0.305000
0.945000 0.510000 0.305000
1.000000 0.510000 0.305000
0.070000 0.635000 0.305000
0.195000 0.635000 0.305000
0.320000 0.635000 0.305000
0.445000 0.635000 0.305000
0.570000 0.635000 0.305000
0.695000 0.635000 0.305000
0.820000 0.635000 0.305000
0.945000 0.635000 0.305000
1.000000 0.635000 0.305000
0.070000 0.760000 0.305000
0.195000 0.760000 0.305000
0.320000 0.760000 0.305000
0.445000 0.760000 0.305000
0.570000 0.760000 0.305000
0.695000 0.760000 0.305000
0.820000 0.760000 0.305000
0.945000 0.760000 0.305000
1.000000 0.760000 0.305000
0.070000 0.885000 0.305000
0.195000 0.885000 0.305000
0.320000 0.885000 0.305000
0.445000 0.885000 0.305000
0.570000 0.885000 0.305000
0.695000 0.885000 0.305000
0.820000 0.885000 0.305000
0.945000 0.885000 0.305000
1.000000 0.885000 0.305000
0.070000 1.000000 0.305000
0.195000 1.000000 0.305000
0.320000 1.000000 0.305000
0.445000 1.000000 0.305000
0.570000 1.000000 0.305000
0.695000 1.000000 0.305000
0.820000 1.000000 0.305000
0.945000 1.000000 0.305000
1.000000 1.000000 0.305000
0.070000 0.010000 0.430000
0.195000 0.010000 0.430000
0.320000 0.010000 0.430000
0.445000 0.010000 0.430000
0.570000 0.010000 0.430000
0.695000 0.010000 0.430000
0.820000 0.010000 0.430000
0.945000 0.010000 0.430000
1.000000 0.010000 0.430000
0.070000 0.135000 0.430000
0.195000 0.135000 0.430000
0.320000 0.135000 0.430000
0.445000 0.135000 0.430000
0.570000 0.135000 0.430000
0.695000 0.135000 0.430000
0.820000 0.135000 0.430000
0.945000 0.135000 0.430000
1.000000 0.135000 0.430000
0.070000 0.260000 0.430000
0.195000 0.260000 0.430000
0.320000 0.260000 0.430000
0.445000 0.260000 0.430000
0.570000 0.260000 0.430000
0.695000 0.260000 0.430000
0.820000 0.260000 0.430000
0.945000 0.260000 0.430000
1.000000 0.260000 0.430000
0.070000 0.385000 0.430000
0.195000 0.385000 0.430000
0.320000 0.385000 0.430000
0.445000 0.385000 0.430000
0.570000 0.385000 0.430000
0.695000 0.385000 0.430000
0.820000 0.385000 0.430000
0.945000 0.385000 0.430000
1.000000 0.385000 0.430000
0.070000 0.510000 0.430000
0.195000 0.510000 0.430000
0.320000 0.510000 0.430000
0.445000 0.510000 0.430000
0.570000 0.510000 0.430000
0.695000 0.510000 0.430000
0.820000 0.510000 0.430000
0.945000 0.510000 0.430000
1.000000 0.510000 0.430000
0.070000 0.635000 0.430000
0.195000 0.635000 0.430000
0.320000 0.635000 0.430000
0.445000 0.635000 0.430000
0.570000 0.635000 0.430000
0.695000 0.635000 0.430000
0.820000 0.635000 0.430000
0.945000 0.635000 0.430000
1.000000 0.635000 0.430000
0.070000 0.760000 0.430000
0.195000 0.760000 0.430000
0.320000 0.760000 0.430000
0.445000 0.760000 0.430000
0.570000 0.760000 0.430000
0.695000 0.760000 0.430000
0.820000 0.760000 0.430000
0.945000 0.760000 0.430000
1.000000 0.760000 0.430000
0.070000 0.885000 0.430000
0.195000 0.885000 0.430000
0.320000 0.885000 0.430000
0.445000 0.885000 0.430000
0.570000 0.885000 0.430000
0.695000 0.885000 0.430000
0.820000 0.885000 0.430000
0.945000 0.885000 0.430000
1.000000 0.885000 0.430000
0.070000 1.000000 0.430000
0.195000 1.000000 0.430000
0.320000 1.000000 0.430000
0.445000 1.000000 0.430000
0.570000 1.000000 0.430000
0.695000 1.000000 0.430000
0.820000 1.000000 0.430000
0.945000 1.000000 0.430000
1.000000 1.000000 0.430000
0.070000 0.010000 0.555000
0.195000 0.010000 0.555000
0.320000 0.010000 0.555000
0.445000 0.010000 0.555000
0.570000 0.010000 0.555000
0.695000 0.010000 0.555000
0.820000 0.010000 0.555000
0.945000 0.010000 0.555000
1.000000 0.010000 0.555000
0.070000 0.135000 0.555000
0.195000 0.135000 0.555000
0.320000 0.135000 0.555000
0.445000 0.135000 0.555000
0.570000 0.135000 0.555000
0.695000 0.135000 0.555000
0.820000 0.135000 0.555000
0.945000 0.135000 0.555000
1.000000 0.135000 0.555000
0.070000 0.260000 0.555000
0.195000 0.260000 0.555000
0.320000 0.260000 0.555000
0.445000 0.260000 0.555000
0.570000 0.260000 0.555000
0.695000 0.260000 0.555000
0.820000 0.260000 0.555000
0.945000 0.260000 0.555000
1.000000 0.260000 0.555000
0.070000 0.385000 0.555000
0.195000 0.385000 0.555000
0.320000 0.385000 0.555000
0.445000 0.385000 0.555000
0.570000 0.385000 0.555000
0.695000 0.385000 0.555000
0.820000 0.385000 0.555000
0.945000 0.385000 0.555000
1.000000 0.385000 0.555000
0.070000 0.510000 0.555000
0.195000 0.510000 0.555000
0.320000 0.510000 0.555000
0.445000 0.510000 0.555000
0.570000 0.510000 0.555000
0.695000 0.510000 0.555000
0.820000 0.510000 0.555000
0.945000 0.510000 0.555000
1.000000 0.510000 0.555000
0.070000 0.635000 0.555000
0.195000 0.635000 0.555000
0.320000 0.635000 0.555000
0.445000 0.635000 0.555000
0.570000 0.635000 0.555000
0.695000 0.635000 0.555000
0.820000 0.635000 0.555000
0.945000 0.635000 0.555000
1.000000 0.635000 0.555000
0.070000 0.760000 0.555000
0.195000 0.760000 0.555000
0.320000 0.760000 0.555000
0.445000 0.760000 0.555000
0.570000 0.760000 0.555000
0.695000 0.760000 0.555000
0.820000 0.760000 0.555000
0.945000 0.760000 0.555000
1.000000 0.760000 0.555000
0.070000 0.885000 0.555000
0.195000 0.885000 0.555000
0.320000 0.885000 0.555000
0.445000 0.885000 0.555000
0.570000 0.885000 0.555000
0.695000 0.885000 0.555000
0.820000 0.885000 0.555000
0.945000 0.885000 0.555000
1.000000 0.885000 0.555000
0.070000 1.000000 0.555000
0.195000 1.000000 0.555000
0.320000 1.000000 0.555000
0.445000 1.000000 0.555000
0.570000 1.000000 0.555000
0.695000 1.000000 0.555000
0.820000 1.000000 0.555000
0.945000 1.000000 0.555000
1.000000 1.000000 0.555000
0.070000 0.010000 0.680000
0.195000 0.010000 0.680000
0.320000 0.010000 0.680000
0.445000 0.010000 0.680000
0.570000 0.010000 0.680000
0.695000 0.010000 0.680000
0.820000 0.010000 0.680000
0.945000 0.010000 0.680000
1.000000 0.010000 0.680000
0.070000 0.135000 0.680000
0.195000 0.135000 0.680000
0.320000 0.135000 0.680000
0.445000 0.135000 0.680000
0.570000 0.135000 0.680000
0.695000 0.135000 0.680000
0.820000 0.135000 0.680000
0.945000 0.135000 0.680000
1.000000 0.135000 0.680000
0.070000 0.260000 0.680000
0.195000 0.260000 0.680000
0.320000 0.260000 0.680000
0.445000 0.260000 0.680000
0.570000 0.260000 0.680000
0.695000 0.260000 0.680000
0.820000 0.260000 0.680000
0.945000 0.260000 0.680000
1.000000 0.260000 0.680000
0.070000 0.385000 0.680000
0.195000 0.385000 0.680000
0.320000 0.385000 0.680000
0.445000 0.385000 0.680000
0.570000 0.385000 0.680000
0.695000 0.385000 0.680000
0.820000 0.385000 0.680000
0.945000 0.385000 0.680000
1.000000 0.385000 0.680000
0.070000 0.510000 0.680000
0.195000 0.510000 0.680000
0.320000 0.510000 0.680000
0.445000 0.510000 0.680000
0.570000 0.510000 0.680000
0.695000 0.510000 0.680000
0.820000 0.510000 0.680000
0.945000 0.510000 0.680000
1.000000 0.510000 0.680000
0.070000 0.635000 0.680000
0.195000 0.635000 0.680000
0.320000 0.635000 0.680000
0.445000 0.635000 0.680000
0.570000 0.635000 0.680000
0.695000 0.635000 0.680000
0.820000 0.635000 0.680000
0.945000 0.635000 0.680000
1.000000 0.635000 0.680000
0.070000 0.760000 0.680000
0.195000 0.760000 0.680000
0.320000 0.760000 0.680000
0.445000 0.760000 0.680000
0.570000 0.760000 0.680000
0.695000 0.760000 0.680000
0.820000 0.760000 0.680000
0.945000 0.760000 0.680000
1.000000 0.760000 0.680000
0.070000 0.885000 0.680000
0.195000 0.885000 0.680000
0.320000 0.885000 0.680000
0.445000 0.885000 0.680000
0.570000 0.885000 0.680000
0.695000 0.885000 0.680000
0.820000 0.885000 0.680000
0.945000 0.885000 0.680000
1.000000 0.885000 0.680000
0.070000 1.000000 0.680000
0.195000 1.000000 0.680000
0.320000 1.000000 0.680000
0.445000 1.000000 0.680000
0.570000 1.000000 0.680000
0.695000 1.000000 0.680000
0.820000 1.000000 0.680000
0.945000 1.000000 0.680000
1.000000 1.000000 0.680000
0.070000 0.010000 0.805000
0.195000 0.010000 0.805000
0.320000 0.010000 0.805000
0.445000 0.010000 0.805000
0.570000 0.010000 0.805000
0.695000 0.010000 0.805000
0.820000 0.010000 0.805000
0.945000 0.010000 0.805000
1.000000 0.010000 0.805000
0.070000 0.135000 0.805000
0.195000 0.135000 0.805000
0.320000 0.135000 0.805000
0.445000 0.135000 0.805000
0.570000 0.135000 0.805000
0.695000 0.135000 0.805000
0.820000 0.135000 0.805000
0.945000 0.135000 0.805000
1.000000 0.135000 0.805000
0.070000 0.260000 0.805000
0.195000 0.260000 0.805000
0.320000 0.260000 0.805000
0.445000 0.260000 0.805000
0.570000 0.260000 0.805000
0.695000 0.260000 0.805000
0.820000 0.260000 0.805000
0.945000 0.260000 0.805000
1.000000 0.260000 0.805000
0.070000 0.385000 0.805000
0.195000 0.385000 0.805000
0.320000 0.385000 0.805000
0.445000 0.385000 0.805000
0.570000 0.385000 0.805000
0.695000 0.385000 0.805000
0.820000 0.385000 0.805000
0.945000 0.385000 0.805000
1.000000 0.385000 0.805000
0.070000 0.510000 0.805000
0.195000 0.510000 0.805000
0.320000 0.510000 0.805000
0.445000 0.510000 0.805000
0.570000 0.510000 0.805000
0.695000 0.510000 0.805000
0.820000 0.510000 0.805000
0.945000 0.510000 0.805000
1.000000 0.510000 0.805000
0.070000 0.635000 0.805000
0.195000 0.635000 0.805000
0.320000 0.635000 0.805000
0.445000 0.635000 0.805000
0.570000 0.635000 0.805000
0.695000 0.635000 0.805000
0.820000 0.635000 0.805000
0.945000 0.635000 0.805000
1.000000 0.635000 0.805000
0.070000 0.760000 0.805000
0.195000 0.760000 0.805000
0.320000 0.760000 0.805000
0.445000 0.760000 0.805000
0.570000 0.760000 0.805000
0.695000 0.760000 0.805000
0.820000 0.760000 0.805000
0.945000 0.760000 0.805000
1.000000 0.760000 0.805000
0.070000 0.885000 0.805000
0.195000 0.885000 0.805000
0.320000 0.885000 0.805000
0.445000 0.885000 0.805000
0.570000 0.885000 0.805000
0.695000 0.885000 0.805000
0.820000 0.885000 0.805000
0.945000 0.885000 0.805000
1.000000 0.885000 0.805000
0.070000 1.000000 0.805000
0.195000 1.000000 0.805000
0.320000 1.000000 0.805000
0.445000 1.000000 0.805000
0.570000 1.000000 0.805000
0.695000 1.000000 0.805000
0.820000 1.000000 0.805000
0.945000 1.000000 0.805000
1.000000 1.000000 0.805000
0.070000 0.010000 0.930000
0.195000 0.010000 0.930000
0.320000 0.010000 0.930000
0.445000 0.010000 0.930000
0.570000 0.010000 0.930000
0.695000 0.010000 0.930000
0.820000 0.010000 0.930000
0.945000 0.010000 0.930000
1.000000 0.010000 0.930000
0.070000 0.135000 0.930000
0.195000 0.135000 0.930000
0.320000 0.135000 0.930000
0.445000 0.135000 0.930000
0.570000 0.135000 0.930000
0.695000 0.135000 0.930000
0.820000 0.135000 0.930000
0.945000 0.135000 0.930000
1.000000 0.135000 0.930000
0.070000 0.260000 0.930000
0.195000 0.260000 0.930000
0.320000 0.260000 0.930000
0.445000 0.260000 0.930000
0.570000 0.260000 0.930000
0.695000 0.260000 0.930000
0.820000 0.260000 0.930000
0.945000 0.260000 0.930000
1.000000 0.260000 0.930000
0.070000 0.385000 0.930000
0.195000 0.385000 0.930000
0.320000 0.385000 0.930000
0.445000 0.385000 0.930000
0.570000 0.385000 0.930000
0.695000 0.385000 0.930000
0.820000 0.385000 0.930000
0.945000 0.385000 0.930000
1.000000 0.385000 0.930000
0.070000 0.510000 0.930000
0.195000 0.510000 0.930000
0.320000 0.510000 0.930000
0.445000 0.510000 0.930000
0.570000 0.510000 0.930000
0.695000 0.510000 0.930000
0.820000 0.510000 0.930000
0.945000 0.510000 0.930000
1.000000 0.510000 0.930000
0.070000 0.635000 0.930000
0.195000 0.635000 0.930000
0.320000 0.635000 0.930000
0.445000 0.635000 0.930000
0.570000 0.635000 0.930000
0.695000 0.635000 0.930000
0.820000 0.635000 0.930000
0.945000 0.635000 0.930000
1.000000 0.635000 0.930000
0.070000 0.760000 0.930000
0.195000 0.760000 0.930000
0.320000 0.760000 0.930000
0.445000 0.760000 0.930000
0.570000 0.760000 0.930000
0.695000 0.760000 0.930000
0.820000 0.760000 0.930000
0.945000 0.760000 0.930000
1.000000 0.760000 0.930000
0.070000 0.885000 0.930000
0.195000 0.885000 0.930000
0.320000 0.885000 0.930000
0.445000 0.885000 0.930000
0.570000 0.885000 0.930000
0.695000 0.885000 0.930000
0.820000 0.885000 0.930000
0.945000 0.885000 0.930000
1.000000 0.885000 0.930000
0.070000 1.000000 0.930000
0.195000 1.000000 0.930000
0.320000 1.000000 0.930000
0.445000 1.000000 0.930000
0.570000 1.000000 0.930000
0.695000 1.000000 0.930000
0.820000 1.000000 0.930000
0.945000 1.000000 0.930000
1.000000 1.000000 0.930000
